Assets/Data/Textures/70 CGC LUTs/LUTs_AgX_Filmic_ViewTransforms/ARRILogC4AWG4-to-JP2499DRT-sRGB.cube
#  Baked from the PixelManager OCIO config by Joe Genco
#  https://github.com/Joegenco/PixelManager
#  Input Gamma: Arri LogC4
#  Input Color Space: Arri Wide Gamut 4
#  floating point data (range 0.0 - 1.0)   
#       
#  Output Gamma: Gamma 2.2 (Display)
#  Output Color Space: Rec.709
#  floating point data (range 0.0 - 1.0)
LUT_3D_SIZE 33
0.001953 0.001953 0.001953
0.001953 0.001953 0.001953
0.001953 0.001953 0.001953
0.003169 0.002034 0.001988
0.050272 0.005877 0.004070
0.099951 0.008792 0.007149
0.153094 0.012530 0.011175
0.210785 0.016443 0.015262
0.272237 0.021476 0.019754
0.336884 0.027588 0.024340
0.409154 0.034486 0.029522
0.486099 0.044025 0.034994
0.561075 0.057133 0.040634
0.633739 0.076934 0.046466
0.702226 0.106590 0.052936
0.764570 0.148694 0.061369
0.819839 0.205344 0.074098
0.867084 0.271384 0.095589
0.906588 0.341426 0.134459
0.937761 0.413222 0.200541
0.960177 0.485103 0.283608
0.975958 0.556230 0.367806
0.986867 0.625401 0.450032
0.993784 0.690719 0.530108
0.997297 0.750262 0.606974
0.998767 0.802614 0.678435
0.999373 0.846967 0.741766
0.999641 0.883348 0.796681
0.999710 0.899331 0.854309
0.999667 0.907210 0.911303
0.999314 0.918843 0.948805
0.998615 0.931331 0.970457
0.997814 0.944268 0.982202
0.001953 0.001953 0.001953
0.001953 0.001953 0.001953
0.001953 0.001953 0.001953
0.002703 0.002002 0.001975
0.049861 0.005919 0.004038
0.099689 0.008772 0.007135
0.152882 0.012519 0.011160
0.210630 0.016433 0.015251
0.272117 0.021463 0.019745
0.336796 0.027579 0.024333
0.409708 0.034562 0.029565
0.486453 0.044075 0.035026
0.561325 0.057192 0.040678
0.633897 0.077006 0.046540
0.702317 0.106661 0.052982
0.764652 0.148814 0.061467
0.819899 0.205449 0.074238
0.867130 0.271464 0.095783
0.906622 0.341486 0.134712
0.937771 0.413261 0.200890
0.960179 0.485129 0.283853
0.975959 0.556249 0.367971
0.986867 0.625414 0.450146
0.993784 0.690726 0.530187
0.997297 0.750267 0.607028
0.998767 0.802616 0.678468
0.999373 0.846969 0.741787
0.999641 0.883349 0.796694
0.999710 0.899332 0.854317
0.999667 0.907210 0.911307
0.999314 0.918844 0.948807
0.998615 0.931332 0.970457
0.997814 0.944269 0.982202
0.001953 0.001953 0.001953
0.001953 0.001953 0.001953
0.001953 0.001953 0.001953
0.001953 0.001953 0.001953
0.049279 0.005977 0.003993
0.099322 0.008744 0.007115
0.152586 0.012504 0.011138
0.210414 0.016418 0.015235
0.271949 0.021444 0.019733
0.336672 0.027566 0.024325
0.410387 0.034655 0.029619
0.486927 0.044142 0.035070
0.561674 0.057284 0.040748
0.634115 0.077104 0.046643
0.702444 0.106760 0.053046
0.764767 0.148981 0.061604
0.819983 0.205594 0.074434
0.867195 0.271576 0.096054
0.906670 0.341570 0.135066
0.937785 0.413316 0.201375
0.960183 0.485166 0.284195
0.975960 0.556274 0.368200
0.986867 0.625431 0.450305
0.993784 0.690737 0.530297
0.997297 0.750273 0.607103
0.998767 0.802621 0.678514
0.999373 0.846972 0.741816
0.999641 0.883350 0.796712
0.999710 0.899333 0.854328
0.999667 0.907212 0.911314
0.999313 0.918845 0.948809
0.998615 0.931333 0.970458
0.997814 0.944269 0.982202
0.001953 0.001953 0.001953
0.001953 0.001953 0.001953
0.001953 0.001953 0.001953
0.001953 0.001953 0.001953
0.048502 0.006012 0.004024
0.098805 0.008704 0.007087
0.152170 0.012482 0.011107
0.210111 0.016397 0.015212
0.271715 0.021418 0.019716
0.336500 0.027549 0.024312
0.411293 0.034781 0.029692
0.487553 0.044231 0.035128
0.562148 0.057413 0.040845
0.634414 0.077239 0.046784
0.702619 0.106896 0.053134
0.764925 0.149212 0.061793
0.820099 0.205797 0.074705
0.867286 0.271732 0.096431
0.906736 0.341686 0.135559
0.937804 0.413392 0.202052
0.960189 0.485217 0.284672
0.975962 0.556309 0.368520
0.986867 0.625455 0.450527
0.993784 0.690752 0.530451
0.997296 0.750283 0.607208
0.998767 0.802626 0.678578
0.999373 0.846975 0.741857
0.999641 0.883352 0.796737
0.999710 0.899335 0.854343
0.999667 0.907213 0.911322
0.999313 0.918847 0.948813
0.998615 0.931334 0.970460
0.997814 0.944270 0.982203
0.005647 0.038179 0.003572
0.005633 0.038053 0.003566
0.005614 0.037876 0.003557
0.005586 0.037627 0.003544
0.070296 0.053499 0.003687
0.144392 0.032993 0.009843
0.200038 0.020382 0.014325
0.250923 0.021027 0.018106
0.303118 0.024946 0.021867
0.359036 0.029744 0.025887
0.427988 0.037181 0.030821
0.497624 0.045889 0.035814
0.567510 0.058495 0.041271
0.636326 0.077937 0.047049
0.702870 0.107085 0.053312
0.765145 0.149532 0.062055
0.820261 0.206077 0.075082
0.867412 0.271949 0.096954
0.906829 0.341847 0.136245
0.937832 0.413497 0.202995
0.960196 0.485289 0.285338
0.975964 0.556358 0.368967
0.986868 0.625489 0.450838
0.993784 0.690773 0.530666
0.997296 0.750296 0.607355
0.998767 0.802634 0.678668
0.999373 0.846980 0.741915
0.999641 0.883355 0.796772
0.999710 0.899337 0.854364
0.999667 0.907215 0.911334
0.999313 0.918850 0.948818
0.998615 0.931336 0.970462
0.997814 0.944271 0.982204
0.005369 0.080820 0.004298
0.005382 0.080720 0.004312
0.005399 0.080580 0.004332
0.005424 0.080384 0.004361
0.005246 0.118646 0.002930
0.134849 0.113651 0.003856
0.219559 0.094807 0.012057
0.284819 0.065758 0.018871
0.341295 0.042904 0.023968
0.397282 0.039547 0.028320
0.459072 0.042932 0.032889
0.521463 0.052219 0.037308
0.585059 0.062961 0.042412
0.648620 0.082093 0.047798
0.710319 0.111273 0.053809
0.768583 0.152971 0.062383
0.821171 0.207456 0.075534
0.867586 0.272250 0.097681
0.906950 0.342071 0.137418
0.937869 0.413645 0.204307
0.960207 0.485389 0.286266
0.975968 0.556426 0.369590
0.986868 0.625537 0.451271
0.993783 0.690802 0.530967
0.997296 0.750314 0.607559
0.998767 0.802646 0.678794
0.999373 0.846987 0.741994
0.999641 0.883359 0.796822
0.999710 0.899340 0.854393
0.999667 0.907218 0.911351
0.999313 0.918853 0.948825
0.998615 0.931338 0.970464
0.997814 0.944273 0.982205
0.003620 0.128868 0.003084
0.003619 0.128789 0.003083
0.003618 0.128677 0.003081
0.003617 0.128521 0.003079
0.004419 0.160605 0.003395
0.070511 0.184049 0.003601
0.200819 0.176683 0.004269
0.289445 0.158620 0.012831
0.362010 0.130447 0.021610
0.430257 0.095009 0.028609
0.492211 0.068528 0.034288
0.549785 0.064430 0.038872
0.606905 0.073745 0.043550
0.664304 0.090175 0.048591
0.721334 0.118120 0.054606
0.775665 0.160282 0.062783
0.825651 0.214121 0.075803
0.869696 0.276257 0.098135
0.907389 0.343085 0.139334
0.937922 0.413850 0.206132
0.960221 0.485528 0.287558
0.975972 0.556522 0.370459
0.986869 0.625603 0.451875
0.993783 0.690843 0.531385
0.997295 0.750340 0.607845
0.998767 0.802661 0.678970
0.999373 0.846996 0.742106
0.999642 0.883364 0.796891
0.999710 0.899344 0.854434
0.999667 0.907222 0.911374
0.999313 0.918857 0.948835
0.998614 0.931342 0.970468
0.997814 0.944275 0.982207
0.005555 0.180800 0.003420
0.005552 0.180740 0.003420
0.005547 0.180657 0.003419
0.005541 0.180541 0.003419
0.006036 0.204715 0.004150
0.008321 0.238244 0.004683
0.144652 0.251008 0.003993
0.268325 0.241978 0.003817
0.364638 0.225151 0.013701
0.446359 0.200687 0.023620
0.516723 0.163667 0.032130
0.578029 0.123424 0.038808
0.632272 0.103377 0.044283
0.684130 0.109288 0.049389
0.735423 0.132962 0.055332
0.785392 0.171228 0.063598
0.831674 0.223575 0.076309
0.873368 0.283424 0.098966
0.909557 0.348343 0.140785
0.938666 0.416196 0.207957
0.960241 0.485721 0.289354
0.975979 0.556655 0.371668
0.986870 0.625695 0.452717
0.993783 0.690900 0.531969
0.997294 0.750376 0.608243
0.998767 0.802683 0.679215
0.999373 0.847009 0.742262
0.999642 0.883372 0.796987
0.999710 0.899350 0.854492
0.999667 0.907228 0.911407
0.999313 0.918864 0.948850
0.998614 0.931346 0.970473
0.997814 0.944278 0.982209
0.007036 0.237731 0.004850
0.007034 0.237682 0.004849
0.007032 0.237612 0.004847
0.007030 0.237514 0.004844
0.007531 0.254587 0.005095
0.009841 0.282900 0.005418
0.023699 0.315025 0.005731
0.215734 0.322813 0.003920
0.345575 0.315980 0.004731
0.446202 0.299178 0.014598
0.527601 0.271862 0.025146
0.595995 0.235181 0.034417
0.655136 0.189629 0.042517
0.706094 0.157292 0.049276
0.752463 0.161093 0.055791
0.796963 0.190903 0.064036
0.839352 0.237086 0.077195
0.878210 0.293504 0.100357
0.912494 0.355727 0.142582
0.940343 0.421517 0.209690
0.961040 0.489044 0.290921
0.976026 0.557040 0.373302
0.986872 0.625823 0.453889
0.993782 0.690979 0.532784
0.997293 0.750426 0.608799
0.998767 0.802714 0.679557
0.999373 0.847027 0.742479
0.999642 0.883382 0.797122
0.999710 0.899359 0.854572
0.999667 0.907236 0.911453
0.999313 0.918873 0.948869
0.998614 0.931353 0.970480
0.997813 0.944282 0.982212
0.010374 0.300760 0.005871
0.010391 0.301239 0.005888
0.010409 0.301850 0.005910
0.010441 0.302763 0.005942
0.010838 0.314561 0.006357
0.011974 0.338333 0.006969
0.015630 0.369214 0.007620
0.062483 0.399775 0.007490
0.291142 0.399894 0.005454
0.423837 0.390710 0.005651
0.524221 0.373056 0.015270
0.603808 0.345481 0.025747
0.668545 0.307624 0.035804
0.723317 0.260897 0.045541
0.769661 0.226100 0.054162
0.810954 0.228547 0.063546
0.849263 0.260032 0.077288
0.884637 0.308622 0.101280
0.916362 0.366090 0.144659
0.942581 0.428929 0.211788
0.962328 0.494455 0.292795
0.976717 0.560858 0.374745
0.986970 0.626682 0.455378
0.993782 0.691090 0.533918
0.997291 0.750495 0.609574
0.998767 0.802756 0.680034
0.999373 0.847053 0.742783
0.999642 0.883397 0.797309
0.999710 0.899370 0.854684
0.999666 0.907248 0.911517
0.999312 0.918886 0.948897
0.998613 0.931362 0.970490
0.997813 0.944288 0.982217
0.016208 0.374039 0.007724
0.016246 0.374328 0.007731
0.016297 0.374716 0.007739
0.016376 0.375371 0.007752
0.017208 0.381939 0.007887
0.019000 0.400433 0.008330
0.020678 0.424260 0.009101
0.029193 0.452543 0.009999
0.143266 0.478361 0.009911
0.366591 0.475701 0.006342
0.500134 0.465738 0.006759
0.598512 0.446851 0.016196
0.673595 0.419003 0.026173
0.733279 0.381073 0.036638
0.782369 0.335237 0.048025
0.823524 0.300863 0.060210
0.859380 0.301534 0.075653
0.892087 0.332754 0.101085
0.921532 0.381888 0.146067
0.945657 0.439774 0.214280
0.964016 0.501906 0.295091
0.977652 0.566166 0.376631
0.987448 0.630268 0.456858
0.993877 0.692151 0.535314
0.997289 0.750592 0.610654
0.998767 0.802816 0.680698
0.999374 0.847088 0.743206
0.999642 0.883418 0.797572
0.999710 0.899386 0.854840
0.999666 0.907264 0.911606
0.999311 0.918903 0.948935
0.998612 0.931375 0.970503
0.997812 0.944297 0.982223
0.027816 0.447672 0.009869
0.027881 0.447879 0.009876
0.027971 0.448164 0.009886
0.028093 0.448551 0.009900
0.028829 0.450994 0.009981
0.030715 0.465144 0.010344
0.033235 0.483306 0.010820
0.039394 0.505545 0.011510
0.062561 0.532954 0.012612
0.225364 0.553171 0.012266
0.442049 0.549636 0.008218
0.573582 0.538774 0.007777
0.667405 0.520405 0.016941
0.736818 0.492933 0.026850
0.789623 0.455380 0.037492
0.832905 0.410404 0.051573
0.868681 0.376637 0.069721
0.899534 0.376240 0.097790
0.926664 0.407019 0.145641
0.949133 0.455888 0.216724
0.966165 0.512810 0.298034
0.978857 0.573502 0.379173
0.988055 0.635221 0.458847
0.994070 0.695418 0.536845
0.997312 0.751736 0.611946
0.998767 0.802899 0.681624
0.999374 0.847138 0.743796
0.999642 0.883447 0.797937
0.999710 0.899409 0.855058
0.999666 0.907286 0.911731
0.999311 0.918928 0.948989
0.998611 0.931394 0.970522
0.997812 0.944308 0.982232
0.047117 0.521368 0.012265
0.047171 0.521548 0.012273
0.047245 0.521797 0.012284
0.047364 0.522142 0.012301
0.047548 0.522617 0.012327
0.050820 0.531666 0.012687
0.055711 0.545199 0.013294
0.062371 0.562206 0.014099
0.077069 0.583787 0.014984
0.128570 0.609123 0.016433
0.305365 0.624906 0.015924
0.517192 0.620272 0.010274
0.643547 0.609476 0.009400
0.729878 0.591890 0.018059
0.792098 0.566067 0.028077
0.837829 0.529952 0.039295
0.875200 0.486422 0.058352
0.906123 0.453542 0.088113
0.932198 0.452154 0.140684
0.952896 0.481600 0.216612
0.968406 0.528918 0.301092
0.980068 0.584139 0.382333
0.988632 0.642305 0.461472
0.994283 0.699988 0.538859
0.997377 0.754690 0.613446
0.998777 0.804018 0.682704
0.999374 0.847207 0.744618
0.999642 0.883487 0.798447
0.999710 0.899435 0.855362
0.999665 0.907317 0.911904
0.999309 0.918962 0.949064
0.998610 0.931419 0.970549
0.997811 0.944324 0.982244
0.085650 0.593724 0.015435
0.085755 0.593837 0.015447
0.085901 0.593994 0.015464
0.086103 0.594210 0.015488
0.086381 0.594510 0.015521
0.089960 0.598605 0.015868
0.098317 0.608155 0.016668
0.109555 0.620827 0.017734
0.124703 0.637195 0.019123
0.150310 0.657165 0.020484
0.218263 0.679306 0.022383
0.387930 0.691900 0.021310
0.590730 0.686618 0.013905
0.708254 0.676506 0.012763
0.785131 0.660135 0.020302
0.839045 0.636670 0.030790
0.878046 0.603403 0.044257
0.910022 0.562600 0.073088
0.936574 0.530868 0.126868
0.956905 0.527693 0.211657
0.971107 0.554801 0.301736
0.981603 0.599905 0.385509
0.989386 0.652428 0.464592
0.994578 0.706604 0.541495
0.997461 0.758754 0.615347
0.998802 0.806575 0.683962
0.999378 0.848224 0.745556
0.999643 0.883543 0.799157
0.999711 0.899469 0.855787
0.999664 0.907360 0.912147
0.999308 0.919010 0.949169
0.998608 0.931454 0.970586
0.997809 0.944347 0.982261
0.157409 0.662511 0.020917
0.157508 0.662580 0.020924
0.157645 0.662676 0.020933
0.157837 0.662810 0.020946
0.158101 0.662995 0.020964
0.158977 0.663636 0.021015
0.167547 0.670153 0.021459
0.179170 0.679024 0.023010
0.195011 0.690747 0.025234
0.215826 0.705518 0.027395
0.243104 0.723414 0.029757
0.311689 0.742872 0.032764
0.473425 0.752626 0.031571
0.661732 0.747388 0.020944
0.766659 0.738439 0.018319
0.832820 0.723810 0.024876
0.877843 0.703477 0.037520
0.910629 0.674380 0.056488
0.938288 0.637256 0.106503
0.959697 0.606245 0.196397
0.973804 0.600630 0.298381
0.983408 0.625403 0.386902
0.990321 0.667497 0.467745
0.994948 0.715984 0.544609
0.997580 0.764701 0.617745
0.998832 0.810111 0.685545
0.999387 0.850375 0.746654
0.999644 0.884421 0.799944
0.999711 0.899516 0.856378
0.999663 0.907420 0.912485
0.999305 0.919077 0.949314
0.998604 0.931503 0.970638
0.997807 0.944379 0.982285
0.246708 0.725795 0.030142
0.246781 0.725838 0.030150
0.246884 0.725899 0.030163
0.247028 0.725983 0.030179
0.247226 0.726100 0.030203
0.247502 0.726262 0.030235
0.251717 0.728990 0.030634
0.261084 0.735007 0.031478
0.273447 0.743049 0.034088
0.290188 0.753643 0.038254
0.312734 0.766425 0.042569
0.341752 0.782356 0.047870
0.409781 0.799322 0.053296
0.560849 0.806312 0.051736
0.728430 0.801299 0.035892
0.818253 0.794003 0.030322
0.873255 0.781807 0.035812
0.910057 0.765066 0.055785
0.937420 0.741074 0.088093
0.959835 0.707353 0.175165
0.975365 0.676771 0.286212
0.985006 0.669479 0.384888
0.991354 0.691758 0.469659
0.995380 0.730001 0.547771
0.997720 0.773108 0.620503
0.998872 0.815253 0.687648
0.999397 0.853362 0.748028
0.999647 0.886185 0.800888
0.999719 0.900375 0.857086
0.999661 0.907503 0.912955
0.999302 0.919170 0.949518
0.998600 0.931572 0.970711
0.997804 0.944423 0.982319
0.342343 0.782965 0.048113
0.342413 0.783006 0.048142
0.342511 0.783063 0.048182
0.342647 0.783143 0.048239
0.342837 0.783253 0.048317
0.343100 0.783406 0.048426
0.343465 0.783619 0.048578
0.350332 0.787412 0.049756
0.360130 0.792794 0.051413
0.373272 0.799922 0.056452
0.391876 0.808609 0.064584
0.415979 0.819685 0.074617
0.446532 0.833486 0.085980
0.511690 0.847445 0.097005
0.646605 0.852541 0.097507
0.789288 0.848287 0.074454
0.863022 0.842501 0.062185
0.906931 0.833409 0.066435
0.936688 0.820038 0.104754
0.958719 0.800292 0.163647
0.974458 0.769290 0.274034
0.985268 0.740753 0.376703
0.992167 0.732837 0.468272
0.995851 0.751924 0.549741
0.997860 0.785708 0.623286
0.998913 0.822555 0.690096
0.999409 0.857683 0.749862
0.999650 0.888643 0.802051
0.999734 0.902017 0.857961
0.999678 0.908657 0.913768
0.999298 0.919300 0.949801
0.998595 0.931668 0.970812
0.997799 0.944485 0.982366
0.445385 0.833207 0.086014
0.445438 0.833232 0.086056
0.445514 0.833268 0.086116
0.445619 0.833319 0.086198
0.445765 0.833388 0.086313
0.445968 0.833485 0.086474
0.446251 0.833620 0.086696
0.448174 0.834495 0.087566
0.455769 0.837914 0.090564
0.466207 0.842594 0.094634
0.480541 0.848244 0.103099
0.499426 0.855236 0.118371
0.523618 0.864192 0.137665
0.554170 0.875442 0.161358
0.613290 0.886339 0.182107
0.726929 0.890143 0.183286
0.841624 0.887392 0.159229
0.900414 0.883394 0.143021
0.934543 0.876805 0.144234
0.956955 0.866017 0.202085
0.972692 0.848469 0.278357
0.983727 0.821765 0.372641
0.991504 0.796705 0.462712
0.996183 0.789081 0.548479
0.998037 0.804576 0.625225
0.998936 0.833505 0.692573
0.999417 0.863841 0.751979
0.999653 0.892187 0.803614
0.999750 0.904417 0.859043
0.999695 0.910808 0.914958
0.999314 0.920822 0.950537
0.998587 0.931802 0.970953
0.997794 0.944571 0.982431
0.552142 0.874706 0.160720
0.552178 0.874721 0.160778
0.552229 0.874741 0.160859
0.552301 0.874770 0.160971
0.552400 0.874811 0.161129
0.552538 0.874867 0.161348
0.552731 0.874946 0.161653
0.552994 0.875055 0.162070
0.556120 0.876258 0.164679
0.563556 0.879101 0.170532
0.573486 0.882717 0.178143
0.587303 0.886966 0.189403
0.605135 0.892233 0.205873
0.627616 0.899039 0.227109
0.654992 0.907638 0.254244
0.705228 0.915453 0.281593
0.796585 0.918501 0.287854
0.882860 0.917043 0.276191
0.928495 0.914652 0.265692
0.954322 0.910045 0.268821
0.970635 0.901604 0.317136
0.981784 0.886657 0.382158
0.989810 0.865078 0.462090
0.995225 0.843490 0.544295
0.997993 0.836911 0.624216
0.999005 0.848996 0.694390
0.999419 0.872716 0.754170
0.999651 0.897249 0.805407
0.999749 0.907724 0.860710
0.999703 0.913900 0.916471
0.999340 0.923186 0.951780
0.998609 0.933366 0.971546
0.997785 0.944691 0.982522
0.652115 0.906794 0.252879
0.652139 0.906801 0.252927
0.652172 0.906812 0.252995
0.652219 0.906827 0.253089
0.652284 0.906847 0.253220
0.652374 0.906876 0.253402
0.652500 0.906916 0.253656
0.652675 0.906972 0.254010
0.652918 0.907050 0.254502
0.656651 0.908234 0.258446
0.663497 0.910406 0.265447
0.672687 0.912808 0.275320
0.684993 0.915972 0.287304
0.699953 0.920042 0.302193
0.719147 0.925311 0.321104
0.742709 0.931976 0.345038
0.782468 0.937595 0.370982
0.851017 0.940047 0.381323
0.914331 0.939317 0.377559
0.948632 0.937876 0.373221
0.967842 0.934566 0.379024
0.979948 0.928424 0.418922
0.988080 0.916598 0.474270
0.993693 0.899730 0.545777
0.997259 0.881612 0.620905
0.998861 0.875708 0.693662
0.999426 0.885254 0.755787
0.999655 0.903950 0.807331
0.999741 0.912718 0.863018
0.999709 0.918166 0.918387
0.999380 0.926299 0.953359
0.998653 0.936180 0.972552
0.997836 0.946234 0.983127
0.739854 0.931169 0.343317
0.739867 0.931173 0.343347
0.739886 0.931178 0.343390
0.739912 0.931186 0.343449
0.739949 0.931197 0.343532
0.740000 0.931213 0.343648
0.740071 0.931234 0.343808
0.740170 0.931264 0.344033
0.740307 0.931305 0.344345
0.740498 0.931363 0.344779
0.743922 0.932434 0.348886
0.749319 0.933860 0.355549
0.756535 0.935626 0.364565
0.766385 0.938021 0.375369
0.779108 0.941166 0.389145
0.794596 0.945259 0.406977
0.812278 0.950408 0.429787
0.842493 0.954544 0.454003
0.892356 0.956563 0.466658
0.938155 0.956296 0.467034
0.963393 0.955424 0.465607
0.977691 0.953034 0.472904
0.986567 0.948328 0.509009
0.992330 0.939498 0.558762
0.996066 0.926484 0.623519
0.998335 0.911743 0.691065
0.999292 0.906619 0.755305
0.999625 0.914043 0.808692
0.999716 0.920347 0.865591
0.999713 0.924052 0.920532
0.999427 0.930667 0.955430
0.998705 0.940049 0.973805
0.997932 0.948932 0.983962
0.809601 0.949754 0.427810
0.809608 0.949756 0.427829
0.809619 0.949759 0.427857
0.809635 0.949763 0.427894
0.809656 0.949769 0.427948
0.809685 0.949778 0.428021
0.809727 0.949790 0.428124
0.809784 0.949806 0.428268
0.809865 0.949829 0.428468
0.809977 0.949861 0.428746
0.810132 0.949905 0.429133
0.813264 0.950687 0.433381
0.817661 0.951678 0.439418
0.823601 0.953031 0.447487
0.831638 0.954855 0.457544
0.840678 0.957275 0.470880
0.851951 0.960428 0.488063
0.866045 0.964183 0.509812
0.887013 0.967354 0.533022
0.923153 0.968991 0.546853
0.955947 0.968966 0.549445
0.974261 0.968453 0.549657
0.984785 0.966719 0.557736
0.991151 0.963114 0.591214
0.995085 0.956615 0.636230
0.997503 0.946355 0.694187
0.998925 0.934964 0.753344
0.999530 0.930679 0.808408
0.999682 0.931203 0.867237
0.999720 0.932369 0.922443
0.999426 0.937460 0.957454
0.998806 0.944345 0.975500
0.998048 0.952556 0.984855
0.863793 0.963738 0.507645
0.863797 0.963739 0.507658
0.863803 0.963740 0.507676
0.863812 0.963742 0.507702
0.863824 0.963744 0.507738
0.863841 0.963748 0.507788
0.863864 0.963752 0.507857
0.863896 0.963759 0.507954
0.863942 0.963768 0.508090
0.864005 0.963781 0.508278
0.864093 0.963799 0.508541
0.864294 0.963841 0.509025
0.866871 0.964390 0.513181
0.870274 0.965137 0.518834
0.874157 0.966174 0.526310
0.879378 0.967565 0.536016
0.886185 0.969401 0.548717
0.894920 0.971791 0.565064
0.904721 0.974472 0.585919
0.919941 0.976852 0.607763
0.945413 0.978151 0.621845
0.968967 0.978237 0.625608
0.982115 0.977940 0.626782
0.989774 0.976671 0.635101
0.994219 0.973901 0.665417
0.996817 0.969166 0.705979
0.998365 0.961154 0.756590
0.999269 0.952526 0.806941
0.999540 0.948030 0.867875
0.999538 0.947074 0.922975
0.999300 0.947917 0.959077
0.998854 0.951454 0.977094
0.998191 0.957045 0.986010
0.903341 0.974107 0.583585
0.903343 0.974107 0.583594
0.903345 0.974108 0.583606
0.903349 0.974109 0.583623
0.903354 0.974110 0.583647
0.903362 0.974112 0.583681
0.903372 0.974115 0.583728
0.903386 0.974118 0.583793
0.903406 0.974123 0.583884
0.903434 0.974130 0.584012
0.903473 0.974139 0.584189
0.903526 0.974153 0.584436
0.903724 0.974203 0.585064
0.905319 0.974617 0.589031
0.907484 0.975180 0.594421
0.910447 0.975955 0.601175
0.914410 0.976993 0.610287
0.919591 0.978364 0.622205
0.925783 0.980158 0.637582
0.932378 0.982014 0.657187
0.943610 0.983771 0.677092
0.961233 0.984778 0.690654
0.978328 0.984894 0.694900
0.987686 0.984724 0.696583
0.993187 0.983786 0.704698
0.996216 0.981655 0.731376
0.997900 0.978173 0.767145
0.998897 0.972026 0.810040
0.999030 0.968506 0.867355
0.998834 0.966899 0.921470
0.998474 0.965178 0.959348
0.998242 0.963826 0.977958
0.998043 0.964535 0.987099
0.931277 0.981735 0.654914
0.931278 0.981736 0.654920
0.931279 0.981736 0.654928
0.931281 0.981736 0.654939
0.931284 0.981737 0.654955
0.931288 0.981738 0.654978
0.931293 0.981739 0.655009
0.931301 0.981741 0.655052
0.931311 0.981744 0.655113
0.931326 0.981747 0.655197
0.931346 0.981752 0.655314
0.931375 0.981759 0.655479
0.931414 0.981769 0.655707
0.931601 0.981815 0.656403
0.932796 0.982118 0.660092
0.934420 0.982530 0.664742
0.936664 0.983102 0.670924
0.939647 0.983866 0.679270
0.943406 0.984878 0.690195
0.947282 0.986215 0.704318
0.952205 0.987440 0.722167
0.959951 0.988730 0.739682
0.972614 0.989478 0.752092
0.984876 0.989593 0.756365
0.991571 0.989491 0.758234
0.995468 0.988794 0.765786
0.997498 0.987157 0.788426
0.998592 0.984477 0.819159
0.998496 0.982417 0.865211
0.998110 0.981217 0.918631
0.997614 0.979930 0.957730
0.997366 0.978408 0.977773
0.997304 0.976695 0.987324
0.951344 0.987233 0.720112
0.951344 0.987233 0.720116
0.951345 0.987233 0.720121
0.951346 0.987233 0.720129
0.951348 0.987233 0.720139
0.951350 0.987234 0.720153
0.951353 0.987235 0.720173
0.951357 0.987235 0.720201
0.951363 0.987237 0.720240
0.951371 0.987238 0.720295
0.951382 0.987241 0.720371
0.951398 0.987244 0.720477
0.951419 0.987249 0.720625
0.951448 0.987256 0.720832
0.951609 0.987294 0.721543
0.952497 0.987512 0.724518
0.953712 0.987812 0.728572
0.955398 0.988227 0.734088
0.957574 0.988783 0.741522
0.959790 0.989530 0.751283
0.962662 0.990421 0.763863
0.966318 0.991277 0.779152
0.971618 0.992213 0.794373
0.980699 0.992760 0.805313
0.989410 0.992802 0.809310
0.994241 0.992721 0.811168
0.996967 0.992278 0.817903
0.998258 0.991028 0.836348
0.998149 0.990023 0.863920
0.997696 0.989284 0.913915
0.997151 0.988457 0.953838
0.996812 0.987619 0.976808
0.996690 0.986707 0.986947
0.965666 0.991123 0.777479
0.965666 0.991123 0.777481
0.965666 0.991123 0.777484
0.965667 0.991123 0.777488
0.965668 0.991123 0.777494
0.965669 0.991124 0.777502
0.965670 0.991124 0.777513
0.965672 0.991124 0.777528
0.965675 0.991125 0.777549
0.965680 0.991126 0.777579
0.965685 0.991127 0.777621
0.965694 0.991129 0.777679
0.965705 0.991131 0.777760
0.965721 0.991134 0.777873
0.965743 0.991139 0.778030
0.965873 0.991169 0.778612
0.966534 0.991326 0.781179
0.967439 0.991540 0.784686
