Assets/Data/Textures/70 CGC LUTs/LUTs_AgX_Filmic_ViewTransforms/ARRILogC4AWG4-to-JP2499DRT-CrazyInstantFilm-sRGB.cube
#  Baked from the PixelManager OCIO config by Joe Genco
#  https://github.com/Joegenco/PixelManager
#  Input Gamma: Arri LogC4
#  Input Color Space: Arri Wide Gamut 4
#  floating point data (range 0.0 - 1.0)   
#       
#  Output Gamma: Gamma 2.2 (Display)
#  Output Color Space: Rec.709
#  floating point data (range 0.0 - 1.0)
LUT_3D_SIZE 9
0.012820 0.049048 0.048764
0.055027 0.050604 0.048276
0.249622 0.049105 0.028555
0.537256 0.076777 0.043800
0.789275 0.197484 0.075898
0.922635 0.429285 0.253621
0.964730 0.653587 0.582073
0.972157 0.795339 0.839029
0.967966 0.850552 0.967618
0.006021 0.077186 0.047058
0.069093 0.090583 0.043522
0.278825 0.050084 0.028594
0.543792 0.078212 0.044514
0.789657 0.198076 0.076726
0.922673 0.429449 0.255292
0.964728 0.653618 0.582460
0.972156 0.795345 0.839080
0.967965 0.850556 0.967620
0.008175 0.234280 0.016875
0.008962 0.247957 0.014800
0.316685 0.296548 0.007255
0.629438 0.189948 0.044874
0.808056 0.223041 0.079546
0.923604 0.432605 0.260693
0.964720 0.653736 0.583926
0.972153 0.795365 0.839272
0.967965 0.850572 0.967627
0.041710 0.467748 0.016583
0.041894 0.468785 0.016622
0.077080 0.519768 0.020486
0.621164 0.538891 0.016196
0.842324 0.432025 0.064243
0.930741 0.466498 0.270615
0.965030 0.657619 0.588609
0.972143 0.795443 0.840003
0.967961 0.850631 0.967656
0.324716 0.688973 0.056467
0.325211 0.689225 0.056750
0.342563 0.697641 0.062355
0.428416 0.733742 0.093082
0.833355 0.740876 0.074477
0.939191 0.672329 0.252842
0.966702 0.685367 0.599134
0.972227 0.798474 0.842352
0.967948 0.850856 0.967765
0.716957 0.832343 0.324100
0.717052 0.832375 0.324291
0.717413 0.832494 0.325014
0.733681 0.838138 0.342253
0.786035 0.856227 0.407124
0.928901 0.864623 0.442844
0.965654 0.827166 0.603079
0.972434 0.819411 0.849240
0.968200 0.857068 0.969325
0.896418 0.906013 0.633500
0.896425 0.906017 0.633540
0.896453 0.906031 0.633695
0.896556 0.906082 0.634278
0.901827 0.908579 0.650169
0.916361 0.917399 0.702099
0.958887 0.923112 0.739742
0.968842 0.909565 0.848764
0.967330 0.900840 0.972208
0.946019 0.938371 0.839554
0.946019 0.938372 0.839560
0.946021 0.938374 0.839582
0.946029 0.938381 0.839668
0.946059 0.938409 0.839992
0.947736 0.939968 0.849441
0.952839 0.944625 0.877648
0.965949 0.946618 0.894935
0.964784 0.945412 0.967875
0.947176 0.939950 0.963848
0.947176 0.939950 0.963850
0.947176 0.939950 0.963858
0.947176 0.939950 0.963889
0.947174 0.939952 0.964006
0.947169 0.939957 0.964448
0.951159 0.943456 0.968672
0.964723 0.945350 0.971448
0.964617 0.945239 0.977614
0.010421 0.051351 0.061293
0.070352 0.056790 0.075997
0.282885 0.051518 0.046987
0.552732 0.082218 0.052580
0.793236 0.202889 0.088367
0.923007 0.430827 0.268065
0.964714 0.653886 0.585467
0.972150 0.795387 0.839478
0.967964 0.850589 0.967635
0.003627 0.095659 0.079099
0.071248 0.106351 0.098975
0.323212 0.058368 0.051741
0.561602 0.084251 0.053772
0.793610 0.203409 0.089735
0.923043 0.430983 0.269660
0.964712 0.653917 0.585849
0.972149 0.795393 0.839529
0.967963 0.850593 0.967637
0.010573 0.267751 0.014610
0.011828 0.283295 0.014324
0.345682 0.319418 0.009319
0.642880 0.195345 0.053269
0.812085 0.228323 0.091992
0.924038 0.434310 0.274785
0.964704 0.654031 0.587291
0.972147 0.795413 0.839721
0.967962 0.850608 0.967645
0.047887 0.480329 0.017216
0.048537 0.481217 0.017407
0.082277 0.530203 0.021731
0.628382 0.544844 0.016714
0.845241 0.435042 0.072273
0.930971 0.467876 0.284155
0.965020 0.657949 0.591920
0.972136 0.795491 0.840449
0.967959 0.850667 0.967674
0.330737 0.692019 0.059827
0.331171 0.692243 0.060094
0.348300 0.700501 0.065428
0.433075 0.735659 0.097252
0.834479 0.742125 0.076065
0.939389 0.672870 0.268430
0.966688 0.685627 0.602335
0.972221 0.798527 0.842792
0.967946 0.850892 0.967783
0.718166 0.832746 0.326361
0.718258 0.832777 0.326546
0.718607 0.832893 0.327245
0.734811 0.838519 0.344277
0.786678 0.856464 0.408490
0.929003 0.864776 0.443723
0.965643 0.827220 0.606124
0.972425 0.819474 0.849789
0.968198 0.857107 0.969343
0.896511 0.906060 0.633988
0.896518 0.906063 0.634028
0.896545 0.906077 0.634181
0.896648 0.906128 0.634759
0.901913 0.908619 0.650604
0.916408 0.917428 0.702371
0.958894 0.923131 0.739886
0.968836 0.909568 0.849161
0.967330 0.900845 0.972220
0.946025 0.938377 0.839621
0.946025 0.938377 0.839627
0.946028 0.938379 0.839649
0.946035 0.938387 0.839735
0.946066 0.938415 0.840059
0.947742 0.939973 0.849499
0.952843 0.944628 0.877740
0.965949 0.946617 0.894953
0.964784 0.945412 0.967893
0.947176 0.939950 0.963872
0.947176 0.939950 0.963874
0.947176 0.939950 0.963882
0.947175 0.939950 0.963913
0.947174 0.939952 0.964030
0.947168 0.939958 0.964471
0.951157 0.943455 0.968688
0.964723 0.945349 0.971459
0.964616 0.945239 0.977617
0.012629 0.080095 0.168200
0.030634 0.092249 0.202539
0.307313 0.110855 0.245054
0.583174 0.119844 0.202298
0.805699 0.223540 0.169090
0.923850 0.435877 0.316467
0.964656 0.654975 0.597933
0.972126 0.795568 0.841174
0.967956 0.850727 0.967702
0.017160 0.108827 0.238705
0.020938 0.118320 0.270892
0.342446 0.125766 0.282890
0.599989 0.126944 0.213138
0.806209 0.224440 0.172594
0.923864 0.436001 0.317806
0.964654 0.655004 0.598296
0.972125 0.795573 0.841224
0.967955 0.850731 0.967704
0.006309 0.290472 0.264043
0.006208 0.301196 0.279167
0.325488 0.328868 0.325850
0.664575 0.222373 0.251071
0.824445 0.250330 0.183241
0.924838 0.439921 0.322268
0.964646 0.655112 0.599673
0.972122 0.795593 0.841413
0.967954 0.850746 0.967712
0.064687 0.513410 0.147282
0.065386 0.514476 0.154771
0.097699 0.556427 0.188268
0.647875 0.564000 0.143480
0.856568 0.445912 0.170299
0.931605 0.472637 0.331639
0.964978 0.659162 0.604130
0.972112 0.795669 0.842131
0.967951 0.850805 0.967741
0.350446 0.702352 0.077170
0.350846 0.702584 0.077894
0.368463 0.710194 0.088171
0.450531 0.743372 0.131079
0.839726 0.747637 0.110217
0.939988 0.674598 0.326767
0.966637 0.686597 0.614236
0.972199 0.798735 0.844453
0.967938 0.851029 0.967849
0.722424 0.834183 0.334404
0.722502 0.834210 0.334572
0.722794 0.834313 0.335207
0.738723 0.839888 0.351570
0.788999 0.857315 0.413401
0.929375 0.865337 0.446936
0.965599 0.827422 0.617039
0.972391 0.819717 0.851857
0.968190 0.857253 0.969412
0.896859 0.906234 0.635811
0.896866 0.906237 0.635850
0.896892 0.906250 0.635998
0.896991 0.906298 0.636559
0.902241 0.908772 0.652249
0.916588 0.917538 0.703391
0.958921 0.923205 0.740430
0.968814 0.909580 0.850664
0.967328 0.900871 0.972262
0.946048 0.938399 0.839875
0.946049 0.938399 0.839881
0.946051 0.938401 0.839903
0.946059 0.938409 0.839988
0.946089 0.938436 0.840310
0.947764 0.939994 0.849722
0.952858 0.944638 0.878086
0.965942 0.946610 0.895409
0.964782 0.945411 0.967964
0.947175 0.939951 0.963964
0.947175 0.939951 0.963966
0.947175 0.939951 0.963974
0.947174 0.939952 0.964004
0.947173 0.939953 0.964121
0.947167 0.939959 0.964561
0.951152 0.943453 0.968745
0.964722 0.945349 0.971498
0.964616 0.945239 0.977630
0.031103 0.177909 0.426376
0.033798 0.191398 0.453088
0.261932 0.224798 0.510257
0.611950 0.249407 0.525365
0.817967 0.298204 0.476075
0.924887 0.456922 0.476412
0.964442 0.658778 0.640251
0.972017 0.796416 0.847994
0.967925 0.851249 0.967956
0.033198 0.196231 0.461117
0.035166 0.208065 0.484920
0.260526 0.239785 0.536368
0.623491 0.259260 0.541343
0.821605 0.303712 0.482798
0.924887 0.457054 0.477466
0.964440 0.658803 0.640547
0.972016 0.796424 0.848052
0.967925 0.851253 0.967958
0.031021 0.299166 0.524779
0.032232 0.307012 0.540842
0.171679 0.328651 0.592149
0.653045 0.298957 0.588463
0.834322 0.324778 0.506224
0.926441 0.463383 0.482887
0.964433 0.658898 0.641674
0.972012 0.796457 0.848273
0.967924 0.851268 0.967965
0.043814 0.522634 0.537226
0.045121 0.525905 0.542756
0.063688 0.550664 0.579790
0.616989 0.563063 0.614251
0.859359 0.471521 0.556109
0.932605 0.492337 0.500489
0.964780 0.663408 0.645367
0.971997 0.796580 0.849111
0.967920 0.851327 0.967994
0.390573 0.718636 0.429251
0.390594 0.718616 0.430842
0.407280 0.725093 0.442936
0.478164 0.751155 0.488329
0.844567 0.754565 0.491908
0.940470 0.679171 0.509328
0.966425 0.689917 0.654425
0.972073 0.799932 0.852003
0.967907 0.851549 0.968102
0.736325 0.838854 0.386333
0.736394 0.838875 0.386760
0.736657 0.838957 0.388377
0.751082 0.844214 0.404104
0.797453 0.860347 0.455609
0.930421 0.867020 0.498544
0.965382 0.827981 0.659579
0.972263 0.820625 0.859548
0.968162 0.857806 0.969661
0.898101 0.906808 0.642297
0.898107 0.906811 0.642332
0.898130 0.906822 0.642464
0.898219 0.906862 0.642965
0.903412 0.909316 0.658120
0.917233 0.917935 0.707057
0.959019 0.923474 0.742427
0.968730 0.909628 0.856282
0.967317 0.901012 0.972411
0.946137 0.938481 0.840825
0.946138 0.938481 0.840831
0.946140 0.938483 0.840853
0.946147 0.938490 0.840935
0.946176 0.938517 0.841247
0.947847 0.940072 0.850575
0.952915 0.944676 0.879385
0.965918 0.946585 0.897028
0.964778 0.945406 0.968232
0.947170 0.939956 0.964310
0.947170 0.939956 0.964312
0.947170 0.939956 0.964320
0.947170 0.939956 0.964350
0.947168 0.939958 0.964466
0.947163 0.939964 0.964903
0.951131 0.943446 0.968965
0.964720 0.945346 0.971647
0.964615 0.945238 0.977678
0.047362 0.369869 0.726055
0.048044 0.375578 0.732406
0.070677 0.394983 0.753664
0.551709 0.432296 0.785703
0.826304 0.472644 0.793305
0.925032 0.536712 0.764827
0.963193 0.675700 0.766803
0.971545 0.800345 0.874018
0.967811 0.853190 0.968898
0.047541 0.376947 0.733484
0.048099 0.382411 0.739598
0.066138 0.401559 0.760288
0.551985 0.437533 0.790715
0.827775 0.475671 0.796209
0.925424 0.538279 0.766224
0.963190 0.675728 0.766995
0.971544 0.800353 0.874058
0.967811 0.853194 0.968900
0.047699 0.403861 0.756422
0.048109 0.408609 0.761942
0.055230 0.425354 0.779045
0.548814 0.456010 0.806906
0.833185 0.487021 0.806921
0.926747 0.543757 0.771079
0.963202 0.676056 0.767777
0.971541 0.800382 0.874211
0.967810 0.853209 0.968907
0.064879 0.534186 0.789865
0.065955 0.537171 0.793571
0.070583 0.547307 0.806786
0.475768 0.565074 0.833431
0.845565 0.538339 0.832889
0.931098 0.565134 0.788381
0.963674 0.681916 0.771649
0.971529 0.800493 0.874791
0.967807 0.853265 0.968935
0.430335 0.722329 0.789533
0.432574 0.723113 0.790798
0.446573 0.728058 0.798138
0.492390 0.744425 0.820231
0.825097 0.751171 0.840001
0.937340 0.694468 0.816542
0.965218 0.703989 0.783513
0.971638 0.804162 0.877056
0.967794 0.853479 0.969038
0.758341 0.844048 0.703527
0.758344 0.844044 0.703857
0.758355 0.844025 0.705108
0.770509 0.848126 0.716476
0.806085 0.861616 0.752056
0.928907 0.867496 0.771008
0.964384 0.829586 0.788490
0.971848 0.823887 0.883179
0.968059 0.859863 0.970481
0.902087 0.908543 0.683446
0.902092 0.908545 0.683527
0.902109 0.908552 0.683835
0.902176 0.908579 0.685005
0.906438 0.911018 0.698076
0.919452 0.919243 0.738020
0.959047 0.924076 0.777402
0.968425 0.909742 0.876206
0.967277 0.901542 0.972965
0.946451 0.938772 0.844199
0.946452 0.938773 0.844204
0.946454 0.938774 0.844224
0.946460 0.938781 0.844298
0.946487 0.938805 0.844577
0.948144 0.940348 0.854165
0.953122 0.944812 0.884040
0.965833 0.946498 0.902639
0.964763 0.945391 0.969099
0.947149 0.939973 0.965498
0.947149 0.939973 0.965499
0.947149 0.939973 0.965504
0.947148 0.939974 0.965523
0.947145 0.939975 0.965596
0.947135 0.939982 0.965872
0.951066 0.943432 0.969622
0.964710 0.945336 0.972205
0.964613 0.945235 0.977817
0.081319 0.596792 0.905593
0.083459 0.598334 0.906472
0.095073 0.603882 0.909660
0.320118 0.621867 0.919794
0.779412 0.651184 0.927500
0.921449 0.689686 0.930204
0.960079 0.737800 0.919126
0.970299 0.813967 0.926383
0.967419 0.859970 0.971802
0.082015 0.598598 0.906513
0.084149 0.600136 0.907390
0.095334 0.605635 0.910501
0.314457 0.623484 0.920595
0.779367 0.652415 0.928004
0.921579 0.690271 0.930480
0.960108 0.738111 0.919266
0.970298 0.813975 0.926402
0.967419 0.859973 0.971803
0.084478 0.604948 0.909684
0.086589 0.606470 0.910512
0.096279 0.611794 0.913457
0.296069 0.629377 0.923104
0.779139 0.656757 0.929786
0.922159 0.692627 0.931558
0.960203 0.739077 0.919749
0.970296 0.814003 0.926475
0.967418 0.859986 0.971809
0.109877 0.630902 0.919986
0.112231 0.632129 0.920579
0.121716 0.636428 0.922663
0.237770 0.650604 0.930192
0.776971 0.672031 0.935605
0.924062 0.701243 0.935453
0.960587 0.742798 0.921543
0.970307 0.814482 0.926851
0.967415 0.860035 0.971829
0.446804 0.734379 0.929639
0.448170 0.734948 0.929990
0.452870 0.737065 0.931345
0.469904 0.744421 0.936165
0.745887 0.753462 0.942700
0.928171 0.740676 0.943007
0.961889 0.756645 0.927839
0.970433 0.818817 0.928801
0.967405 0.860222 0.971905
0.774673 0.846659 0.920480
0.775192 0.846856 0.920682
0.777079 0.847602 0.921451
0.783927 0.850349 0.924282
0.803685 0.859202 0.933189
0.919981 0.865400 0.940530
0.961881 0.837133 0.935062
0.970706 0.835262 0.933412
0.967700 0.867044 0.973279
0.905925 0.909992 0.881287
0.905924 0.909991 0.881329
0.905921 0.909989 0.881487
0.905967 0.910018 0.882144
0.909569 0.912324 0.887877
0.920241 0.919243 0.904323
0.957460 0.923464 0.914496
0.967492 0.910188 0.932680
0.967131 0.903472 0.974908
0.947317 0.939571 0.874100
0.947317 0.939572 0.874110
0.947319 0.939573 0.874148
0.947323 0.939577 0.874293
0.947341 0.939593 0.874844
0.948924 0.941157 0.880832
0.953669 0.945211 0.900107
0.965561 0.946216 0.920360
0.964723 0.945349 0.971469
0.947037 0.940043 0.968485
0.947037 0.940043 0.968487
0.947037 0.940043 0.968491
0.947036 0.940044 0.968508
0.947034 0.940045 0.968574
0.947025 0.940051 0.968821
0.950857 0.943394 0.971549
0.964679 0.945304 0.973990
0.964606 0.945228 0.978233
0.438197 0.777142 0.971034
0.439399 0.777404 0.971090
0.444649 0.778370 0.971292
0.467868 0.781791 0.971985
0.640925 0.791159 0.972611
0.899233 0.809018 0.971523
0.956017 0.833504 0.971496
0.968000 0.855600 0.969302
0.966327 0.878004 0.976926
0.438864 0.777460 0.971100
0.440067 0.777722 0.971156
0.445136 0.778683 0.971358
0.467948 0.782097 0.972052
0.640088 0.791445 0.972668
0.899231 0.809209 0.971559
0.956029 0.833585 0.971513
0.968002 0.855643 0.969312
0.966327 0.878006 0.976926
0.441348 0.778646 0.971346
0.442553 0.778909 0.971403
0.446949 0.779846 0.971603
0.468449 0.783241 0.972299
0.637164 0.792520 0.972883
0.899222 0.809920 0.971694
0.956077 0.833902 0.971577
0.968009 0.855802 0.969348
0.966326 0.878013 0.976928
0.450064 0.782818 0.972214
0.451282 0.783085 0.972271
0.455362 0.784018 0.972473
0.474804 0.787202 0.973140
0.629015 0.796293 0.973527
0.899179 0.812421 0.972168
0.956287 0.835179 0.971829
0.968040 0.856493 0.969521
0.966325 0.878041 0.976933
0.504187 0.798939 0.974135
0.504812 0.799117 0.974166
0.506879 0.799783 0.974288
0.516274 0.802157 0.974695
0.601225 0.809504 0.975515
0.898413 0.821477 0.973628
0.956955 0.839737 0.972735
0.968155 0.859009 0.970018
0.966375 0.878790 0.977032
0.759904 0.856091 0.971925
0.760070 0.856168 0.971950
0.760626 0.856460 0.972050
0.762864 0.857571 0.972422
0.771021 0.861468 0.973731
0.888450 0.866990 0.974527
0.957976 0.861221 0.974535
0.968507 0.868199 0.971597
0.966775 0.884679 0.977764
0.907195 0.912634 0.965925
0.907234 0.912660 0.965941
0.907382 0.912759 0.966004
0.907934 0.913130 0.966236
0.909977 0.914505 0.967109
0.916584 0.918995 0.969679
0.954341 0.922698 0.971858
0.966653 0.912755 0.972076
0.966827 0.907514 0.978910
0.947248 0.939878 0.957999
0.947248 0.939878 0.958002
0.947248 0.939878 0.958012
0.947247 0.939878 0.958052
0.947284 0.939922 0.958238
0.948613 0.941386 0.959845
0.952766 0.944617 0.964648
0.964766 0.945394 0.968923
0.964630 0.945253 0.976843
0.946662 0.940278 0.974481
0.946662 0.940278 0.974482
0.946662 0.940278 0.974483
0.946661 0.940278 0.974489
0.946656 0.940279 0.974509
0.946640 0.940281 0.974589
0.950070 0.943245 0.976319
0.964614 0.945236 0.977785
0.964588 0.945210 0.979224
0.731751 0.879013 0.983899
0.731930 0.879044 0.983901
0.732595 0.879158 0.983908
0.735508 0.879581 0.983922
0.748231 0.881099 0.983906
0.841476 0.884981 0.982832
0.947766 0.894731 0.981322
0.965527 0.903236 0.980763
0.965351 0.901643 0.980658
0.731861 0.879052 0.983902
0.732040 0.879082 0.983904
0.732706 0.879197 0.983911
0.735582 0.879619 0.983925
0.748249 0.881136 0.983909
0.841375 0.885018 0.982837
0.947765 0.894759 0.981323
0.965529 0.903250 0.980763
0.965353 0.901659 0.980659
0.732281 0.879196 0.983914
0.732460 0.879227 0.983916
0.733125 0.879341 0.983922
0.735865 0.879762 0.983938
0.748317 0.881278 0.983920
0.840993 0.885158 0.982856
0.947764 0.894862 0.981327
0.965535 0.903304 0.980767
0.965359 0.901716 0.980663
0.733762 0.879735 0.983956
0.733923 0.879766 0.983958
0.734520 0.879881 0.983965
0.736917 0.880294 0.983984
0.748568 0.881807 0.983960
0.839675 0.885684 0.982923
0.947760 0.895246 0.981342
0.965556 0.903506 0.980780
0.965383 0.901928 0.980677
0.738651 0.881632 0.984065
0.738813 0.881663 0.984065
0.739418 0.881780 0.984067
0.741542 0.882191 0.984075
0.752207 0.883685 0.984063
0.836154 0.887581 0.983143
0.947744 0.896595 0.981395
0.965632 0.904210 0.980826
0.965463 0.902644 0.980724
0.772325 0.889547 0.983973
0.772405 0.889575 0.983975
0.772704 0.889677 0.983981
0.773751 0.890022 0.984006
0.778688 0.891254 0.984080
0.822906 0.894865 0.983786
0.947583 0.900842 0.981584
0.965888 0.906750 0.980986
0.965748 0.905322 0.980897
0.900100 0.918213 0.981004
0.900116 0.918224 0.981004
0.900172 0.918263 0.981007
0.900384 0.918427 0.981021
0.901231 0.919042 0.981071
0.904207 0.921166 0.981248
0.944896 0.923846 0.980965
0.965882 0.922352 0.980543
0.965977 0.919458 0.980706
0.945836 0.940444 0.978277
0.945842 0.940449 0.978279
0.945861 0.940468 0.978284
0.945935 0.940539 0.978306
0.946222 0.940815 0.978391
0.947173 0.941676 0.978595
0.950142 0.943870 0.979146
0.964588 0.945210 0.979224
0.964588 0.945210 0.979224
0.945782 0.940392 0.978261
0.945782 0.940392 0.978261
0.945782 0.940392 0.978261
0.945782 0.940392 0.978261
0.945782 0.940392 0.978261
0.945914 0.940519 0.978300
0.949213 0.943214 0.978981
0.964588 0.945210 0.979224
0.964588 0.945210 0.979224
0.909373 0.923287 0.981095
0.909385 0.923293 0.981095
0.909428 0.923317 0.981099
0.909587 0.923402 0.981111
0.910537 0.923726 0.981154
0.916610 0.924774 0.981241
0.953615 0.925493 0.980660
0.965843 0.923720 0.980465
0.965909 0.921432 0.980596
0.909431 0.923305 0.981093
0.909442 0.923311 0.981093
0.909485 0.923334 0.981097
0.909645 0.923420 0.981108
0.910591 0.923743 0.981151
0.916631 0.924792 0.981240
0.953614 0.925512 0.980659
0.965843 0.923738 0.980464
0.965908 0.921457 0.980595
0.909649 0.923370 0.981085
0.909660 0.923376 0.981086
0.909703 0.923399 0.981089
0.909863 0.923485 0.981101
0.910798 0.923808 0.981144
0.916710 0.924861 0.981235
0.953608 0.925587 0.980655
0.965841 0.923807 0.980460
0.965905 0.921552 0.980589
0.910474 0.923616 0.981055
0.910486 0.923622 0.981056
0.910529 0.923646 0.981059
0.910689 0.923731 0.981071
0.911580 0.924054 0.981114
0.917009 0.925124 0.981215
0.953585 0.925867 0.980639
0.965834 0.924068 0.980445
0.965895 0.921873 0.980571
0.913550 0.924535 0.980944
0.913562 0.924541 0.980945
0.913605 0.924564 0.980948
0.913765 0.924651 0.980960
0.914492 0.924972 0.981004
0.918123 0.926100 0.981143
0.953484 0.926913 0.980580
0.965783 0.925042 0.980389
0.965866 0.922925 0.980511
0.922062 0.927573 0.980542
0.922073 0.927580 0.980543
0.922113 0.927603 0.980546
0.922262 0.927692 0.980559
0.922738 0.928012 0.980604
0.924946 0.929177 0.980764
0.952947 0.930298 0.980394
0.965561 0.928829 0.980172
0.965685 0.926706 0.980294
0.938672 0.935907 0.979512
0.938680 0.935912 0.979513
0.938708 0.935931 0.979516
0.938813 0.936000 0.979528
0.939181 0.936243 0.979569
0.940535 0.937176 0.979726
0.951454 0.939237 0.979903
0.964960 0.939025 0.979586
0.965027 0.937915 0.979650
0.947230 0.941719 0.978606
0.947234 0.941722 0.978607
0.947248 0.941733 0.978609
0.947318 0.941785 0.978623
0.947557 0.941966 0.978668
0.948378 0.942584 0.978823
0.951261 0.944538 0.979313
0.964588 0.945210 0.979224
0.964588 0.945210 0.979224
0.945995 0.940596 0.978324
0.946000 0.940601 0.978325
0.946020 0.940620 0.978331
0.946095 0.940692 0.978354
0.946380 0.940967 0.978425
0.947296 0.941769 0.978619
0.950270 0.943946 0.979165
0.964588 0.945210 0.979224
0.964588 0.945210 0.979224
