Assets/Data/Textures/70 CGC LUTs/LUTs_AgX_Filmic_ViewTransforms/ARRILogC4AWG4-to-AgX-Resolve-Default-sRGB.cube
#  Baked from the PixelManager OCIO config by Joe Genco
#  https://github.com/Joegenco/PixelManager
#  Input Gamma: Arri LogC4
#  Input Color Space: Arri Wide Gamut 4
#  floating point data (range 0.0 - 1.0)   
#       
#  Output Gamma: Gamma 2.2 (Display)
#  Output Color Space: Rec.709
#  floating point data (range 0.0 - 1.0)
LUT_3D_SIZE 33
0.000000 0.000000 0.000000
0.012786 0.000000 0.000000
0.028899 0.000000 0.000000
0.059491 0.000000 0.000000
0.113150 0.000000 0.000000
0.187260 0.000000 0.000000
0.267223 0.000000 0.000000
0.363307 0.000000 0.000000
0.468581 0.000000 0.000000
0.585861 0.000000 0.000000
0.703089 0.000000 0.000000
0.802163 0.000000 0.082202
0.881654 0.000000 0.131388
0.943124 0.171938 0.185323
0.986421 0.307861 0.249543
1.012663 0.431328 0.327619
1.027167 0.535829 0.418919
1.034954 0.619404 0.511443
1.038948 0.687171 0.593336
1.040965 0.742486 0.663016
1.042083 0.787844 0.721319
1.042889 0.824919 0.769390
1.043710 0.855884 0.809437
1.044636 0.881962 0.842947
1.045707 0.904090 0.871155
1.044117 0.923143 0.895090
1.043522 0.926806 0.899656
1.043522 0.926806 0.899656
1.043522 0.926806 0.899656
1.043522 0.926806 0.899656
1.043522 0.926806 0.899656
1.043522 0.926806 0.899656
1.043522 0.926806 0.899656
0.000000 0.009620 0.000000
0.010096 0.010086 0.000000
0.027864 0.006981 0.000000
0.057943 0.000000 0.000000
0.110827 0.000000 0.000000
0.185014 0.000000 0.000000
0.265062 0.000000 0.000000
0.361843 0.000000 0.000000
0.467521 0.000000 0.000000
0.584884 0.000000 0.000000
0.702499 0.000000 0.000000
0.801821 0.000000 0.082023
0.881456 0.000000 0.131263
0.943013 0.171695 0.185227
0.986380 0.307654 0.249426
1.012646 0.431208 0.327525
1.027160 0.535763 0.418848
1.034951 0.619365 0.511397
1.038947 0.687148 0.593308
1.040964 0.742473 0.662999
1.042083 0.787837 0.721310
1.042888 0.824915 0.769385
1.043710 0.855881 0.809434
1.044636 0.881961 0.842945
1.045707 0.904089 0.871154
1.044117 0.923142 0.895089
1.043522 0.926806 0.899656
1.043522 0.926806 0.899656
1.043522 0.926806 0.899656
1.043522 0.926806 0.899656
1.043522 0.926806 0.899656
1.043522 0.926806 0.899656
1.043522 0.926806 0.899656
0.000000 0.020807 0.000000
0.000000 0.021253 0.000000
0.023870 0.021015 0.000000
0.054944 0.016143 0.000000
0.109016 0.000000 0.000000
0.183352 0.000000 0.000000
0.263327 0.000000 0.000000
0.359771 0.000000 0.000000
0.466028 0.000000 0.000000
0.583512 0.000000 0.000000
0.701672 0.000000 0.000000
0.801343 0.000000 0.081772
0.881179 0.000000 0.131088
0.942858 0.171354 0.185093
0.986323 0.307365 0.249263
1.012622 0.431040 0.327394
1.027150 0.535669 0.418749
1.034947 0.619311 0.511334
1.038946 0.687116 0.593269
1.040964 0.742454 0.662975
1.042082 0.787826 0.721296
1.042888 0.824909 0.769376
1.043710 0.855878 0.809429
1.044636 0.881958 0.842942
1.045707 0.904087 0.871152
1.044118 0.923141 0.895088
1.043522 0.926806 0.899656
1.043522 0.926806 0.899656
1.043522 0.926806 0.899656
1.043522 0.926806 0.899656
1.043522 0.926806 0.899656
1.043522 0.926806 0.899656
1.043522 0.926806 0.899656
0.000000 0.039648 0.000000
0.000000 0.038947 0.000000
0.000000 0.040129 0.000000
0.046098 0.040200 0.000000
0.103515 0.032201 0.000000
0.180436 0.000000 0.000000
0.262388 0.000000 0.000000
0.358373 0.000000 0.000000
0.464467 0.000000 0.000000
0.581579 0.000000 0.000000
0.700512 0.000000 0.000000
0.800672 0.000000 0.081418
0.880792 0.000000 0.130842
0.942640 0.170876 0.184906
0.986243 0.306959 0.249033
1.012588 0.430805 0.327210
1.027136 0.535538 0.418611
1.034941 0.619235 0.511245
1.038943 0.687071 0.593214
1.040963 0.742427 0.662942
1.042082 0.787812 0.721278
1.042888 0.824900 0.769365
1.043710 0.855872 0.809422
1.044635 0.881955 0.842938
1.045707 0.904086 0.871150
1.044118 0.923140 0.895086
1.043522 0.926806 0.899656
1.043522 0.926806 0.899656
1.043522 0.926806 0.899656
1.043522 0.926806 0.899656
1.043522 0.926806 0.899656
1.043522 0.926806 0.899656
1.043522 0.926806 0.899656
0.000000 0.072827 0.000000
0.000000 0.071450 0.000000
0.000000 0.073100 0.000000
0.000000 0.074844 0.000000
0.088504 0.073848 0.000000
0.171839 0.064445 0.000000
0.257927 0.033076 0.000000
0.354589 0.000000 0.000000
0.462186 0.000000 0.000000
0.579572 0.000000 0.000000
0.698513 0.000000 0.000000
0.799731 0.000000 0.080920
0.880248 0.000000 0.130496
0.942336 0.170205 0.184643
0.986131 0.306392 0.248713
1.012542 0.430477 0.326954
1.027116 0.535355 0.418418
1.034934 0.619129 0.511122
1.038940 0.687009 0.593138
1.040962 0.742390 0.662895
1.042082 0.787792 0.721252
1.042888 0.824888 0.769350
1.043710 0.855865 0.809413
1.044635 0.881951 0.842932
1.045707 0.904083 0.871146
1.044118 0.923138 0.895084
1.043522 0.926806 0.899656
1.043522 0.926806 0.899656
1.043522 0.926806 0.899656
1.043522 0.926806 0.899656
1.043522 0.926806 0.899656
1.043522 0.926806 0.899656
1.043522 0.926806 0.899656
0.000000 0.129767 0.000000
0.000000 0.128658 0.000000
0.000000 0.129354 0.000000
0.000000 0.131829 0.000000
0.013787 0.133543 0.000000
0.149124 0.131970 0.000000
0.244271 0.125625 0.000000
0.343933 0.110014 0.000000
0.454616 0.081014 0.000000
0.573329 0.000000 0.000000
0.694077 0.000000 0.000000
0.796947 0.000000 0.068958
0.879487 0.000000 0.130010
0.941910 0.169261 0.184274
0.985975 0.305595 0.248263
1.012476 0.430017 0.326595
1.027089 0.535099 0.418148
1.034923 0.618981 0.510948
1.038936 0.686921 0.593031
1.040960 0.742338 0.662830
1.042081 0.787764 0.721215
1.042887 0.824871 0.769328
1.043709 0.855855 0.809400
1.044635 0.881944 0.842924
1.045707 0.904079 0.871141
1.044118 0.923136 0.895081
1.043522 0.926806 0.899656
1.043522 0.926806 0.899656
1.043522 0.926806 0.899656
1.043522 0.926806 0.899656
1.043522 0.926806 0.899656
1.043522 0.926806 0.899656
1.043522 0.926806 0.899656
0.000000 0.200945 0.000000
0.000000 0.199877 0.000000
0.000000 0.198727 0.000000
0.000000 0.200523 0.000000
0.000000 0.202239 0.000000
0.091315 0.201859 0.000000
0.216270 0.198800 0.000000
0.323900 0.191515 0.000000
0.440777 0.181824 0.000000
0.562933 0.160296 0.000000
0.685073 0.130114 0.000000
0.789370 0.096820 0.000000
0.874913 0.087243 0.114573
0.941312 0.167926 0.183757
0.985756 0.304475 0.247631
1.012384 0.429372 0.326092
1.027051 0.534741 0.417769
1.034907 0.618774 0.510706
1.038930 0.686800 0.592882
1.040957 0.742266 0.662739
1.042080 0.787725 0.721164
1.042887 0.824848 0.769297
1.043709 0.855840 0.809381
1.044635 0.881936 0.842913
1.045707 0.904073 0.871134
1.044119 0.923132 0.895077
1.043522 0.926806 0.899656
1.043522 0.926806 0.899656
1.043522 0.926806 0.899656
1.043522 0.926806 0.899656
1.043522 0.926806 0.899656
1.043522 0.926806 0.899656
1.043522 0.926806 0.899656
0.000000 0.276346 0.000000
0.000000 0.275238 0.000000
0.000000 0.273979 0.000000
0.000000 0.274509 0.000000
0.000000 0.276805 0.000000
0.000000 0.278065 0.000000
0.153081 0.277851 0.000000
0.286833 0.275487 0.000000
0.416653 0.269986 0.000000
0.545603 0.258149 0.000000
0.670912 0.243968 0.000000
0.777301 0.233890 0.000000
0.864174 0.234163 0.055763
0.933857 0.248532 0.164657
0.985448 0.302898 0.246743
1.012256 0.428468 0.325386
1.026998 0.534239 0.417239
1.034886 0.618484 0.510367
1.038922 0.686629 0.592673
1.040954 0.742164 0.662611
1.042079 0.787671 0.721093
1.042886 0.824815 0.769254
1.043708 0.855820 0.809355
1.044634 0.881923 0.842897
1.045706 0.904066 0.871125
1.044120 0.923127 0.895071
1.043522 0.926806 0.899656
1.043522 0.926806 0.899656
1.043522 0.926806 0.899656
1.043522 0.926806 0.899656
1.043522 0.926806 0.899656
1.043522 0.926806 0.899656
1.043522 0.926806 0.899656
0.000000 0.368623 0.000000
0.000000 0.367842 0.000000
0.000000 0.366743 0.000000
0.000000 0.365193 0.000000
0.000000 0.366455 0.000000
0.000000 0.367675 0.000000
0.000000 0.367122 0.000000
0.220697 0.365011 0.000000
0.375410 0.360225 0.000000
0.516884 0.355581 0.000000
0.647962 0.348364 0.000000
0.758423 0.342967 0.000000
0.847374 0.345536 0.000000
0.918608 0.356426 0.118673
0.974100 0.378031 0.224378
1.012076 0.427197 0.324393
1.026923 0.533536 0.416496
1.034856 0.618079 0.509893
1.038910 0.686391 0.592380
1.040950 0.742022 0.662433
1.042078 0.787595 0.720993
1.042885 0.824769 0.769195
1.043707 0.855792 0.809319
1.044633 0.881906 0.842875
1.045706 0.904055 0.871111
1.044121 0.923121 0.895062
1.043522 0.926806 0.899656
1.043522 0.926806 0.899656
1.043522 0.926806 0.899656
1.043522 0.926806 0.899656
1.043522 0.926806 0.899656
1.043522 0.926806 0.899656
1.043522 0.926806 0.899656
0.000000 0.470586 0.000000
0.000000 0.470012 0.000000
0.000000 0.469208 0.000000
0.000000 0.468077 0.000000
0.000000 0.467269 0.000000
0.000000 0.468773 0.000000
0.000000 0.469411 0.000000
0.000000 0.468669 0.000000
0.294085 0.466280 0.000000
0.468242 0.461751 0.000000
0.612296 0.454924 0.000000
0.729878 0.451546 0.000000
0.822545 0.454733 0.000000
0.896637 0.461250 0.000000
0.954214 0.476716 0.186783
0.996815 0.499739 0.303742
1.026819 0.532549 0.415451
1.034814 0.617510 0.509227
1.038894 0.686057 0.591971
1.040943 0.741824 0.662183
1.042075 0.787488 0.720854
1.042883 0.824705 0.769111
1.043706 0.855753 0.809269
1.044632 0.881882 0.842845
1.045705 0.904040 0.871092
1.044122 0.923111 0.895050
1.043522 0.926806 0.899656
1.043522 0.926806 0.899656
1.043522 0.926806 0.899656
1.043522 0.926806 0.899656
1.043522 0.926806 0.899656
1.043522 0.926806 0.899656
1.043522 0.926806 0.899656
0.000000 0.580742 0.000000
0.000000 0.580325 0.000000
0.000000 0.579742 0.000000
0.000000 0.578923 0.000000
0.000000 0.577774 0.000000
0.000000 0.577561 0.000000
0.000000 0.578765 0.000000
0.000000 0.578227 0.000000
0.085909 0.576380 0.000000
0.386719 0.572856 0.000000
0.557845 0.567857 0.000000
0.687868 0.563318 0.000000
0.788464 0.561995 0.000000
0.867014 0.564522 0.000000
0.928347 0.572057 0.146194
0.975030 0.582492 0.283511
1.010073 0.596254 0.400732
1.034756 0.616713 0.508293
1.038871 0.685589 0.591398
1.040934 0.741546 0.661834
1.042072 0.787339 0.720659
1.042881 0.824615 0.768994
1.043704 0.855699 0.809198
1.044631 0.881849 0.842802
1.045704 0.904020 0.871066
1.044124 0.923098 0.895034
1.043522 0.926806 0.899656
1.043522 0.926806 0.899656
1.043522 0.926806 0.899656
1.043522 0.926806 0.899656
1.043522 0.926806 0.899656
1.043522 0.926806 0.899656
1.043522 0.926806 0.899656
0.000000 0.687048 0.000000
0.000000 0.686763 0.000000
0.000000 0.686365 0.000000
0.000000 0.685803 0.000000
0.000000 0.685015 0.000000
0.000000 0.683910 0.000000
0.000000 0.683763 0.000000
0.000000 0.683422 0.000000
0.000000 0.681121 0.000000
0.240585 0.677083 0.000000
0.483593 0.670797 0.000000
0.634669 0.664880 0.000000
0.746227 0.660234 0.000000
0.831763 0.658100 0.000000
0.898394 0.658267 0.107686
0.949375 0.660716 0.273753
0.988496 0.664498 0.393115
1.018010 0.671416 0.497932
1.038839 0.684933 0.590593
1.040921 0.741158 0.661345
1.042068 0.787126 0.720381
1.042878 0.824490 0.768831
1.043702 0.855622 0.809099
1.044629 0.881802 0.842742
1.045702 0.903991 0.871029
1.044127 0.923080 0.895011
1.043522 0.926806 0.899656
1.043522 0.926806 0.899656
1.043522 0.926806 0.899656
1.043522 0.926806 0.899656
1.043522 0.926806 0.899656
1.043522 0.926806 0.899656
1.043522 0.926806 0.899656
0.000000 0.777810 0.000000
0.000000 0.777643 0.000000
0.000000 0.777410 0.000000
0.000000 0.777084 0.000000
0.000000 0.776627 0.000000
0.000000 0.775987 0.000000
0.000000 0.775089 0.000000
0.000000 0.774543 0.000000
0.000000 0.771720 0.000000
0.000000 0.766443 0.000000
0.382764 0.759291 0.000000
0.571095 0.751947 0.000000
0.698188 0.745248 0.000000
0.792572 0.739174 0.000000
0.865193 0.734612 0.113301
0.921368 0.730791 0.278691
0.964398 0.728156 0.396772
0.997711 0.727959 0.495704
1.022839 0.731701 0.582892
1.040904 0.740612 0.660659
1.042060 0.786799 0.719966
1.042874 0.824314 0.768602
1.043699 0.855516 0.808962
1.044626 0.881736 0.842658
1.045700 0.903950 0.870978
1.044132 0.923054 0.894980
1.043522 0.926806 0.899656
1.043522 0.926806 0.899656
1.043522 0.926806 0.899656
1.043522 0.926806 0.899656
1.043522 0.926806 0.899656
1.043522 0.926806 0.899656
1.043522 0.926806 0.899656
0.000000 0.850144 0.000000
0.000000 0.850054 0.000000
0.000000 0.849930 0.000000
0.000000 0.849755 0.000000
0.000000 0.849510 0.000000
0.000000 0.849168 0.000000
0.000000 0.848689 0.000000
0.000000 0.848018 0.000000
0.000000 0.845516 0.000000
0.000000 0.839878 0.000000
0.225901 0.832198 0.000000
0.495993 0.823575 0.000000
0.645618 0.815331 0.000000
0.750658 0.807349 0.000000
0.830068 0.799974 0.171790
0.891694 0.792222 0.305789
0.939023 0.784910 0.411786
0.975825 0.780276 0.502681
1.004475 0.778262 0.583071
1.026199 0.780136 0.654772
1.041933 0.786641 0.719349
1.042868 0.824068 0.768282
1.043694 0.855366 0.808769
1.044622 0.881644 0.842540
1.045697 0.903893 0.870906
1.044137 0.923019 0.894935
1.043522 0.926806 0.899656
1.043522 0.926806 0.899656
1.043522 0.926806 0.899656
1.043522 0.926806 0.899656
1.043522 0.926806 0.899656
1.043522 0.926806 0.899656
1.043522 0.926806 0.899656
0.000000 0.905251 0.000000
0.000000 0.905203 0.000000
0.000000 0.905136 0.000000
0.000000 0.905042 0.000000
0.000000 0.904911 0.000000
0.000000 0.904728 0.000000
0.000000 0.904471 0.000000
0.000000 0.904112 0.000000
0.000000 0.903608 0.000000
0.000000 0.898252 0.000000
0.000000 0.890257 0.000000
0.403667 0.881079 0.000000
0.587317 0.871599 0.000000
0.707106 0.862286 0.136321
0.794290 0.852952 0.259498
0.861191 0.843850 0.353129
0.912740 0.835085 0.438332
0.953377 0.826754 0.517888
0.985110 0.821263 0.590574
1.009986 0.818470 0.655854
1.028882 0.819521 0.714760
1.042652 0.824256 0.767775
1.043687 0.855157 0.808498
1.044617 0.881516 0.842376
1.045692 0.903814 0.870805
1.044145 0.922969 0.894873
1.043522 0.926806 0.899656
1.043522 0.926806 0.899656
1.043522 0.926806 0.899656
1.043522 0.926806 0.899656
1.043522 0.926806 0.899656
1.043522 0.926806 0.899656
1.043522 0.926806 0.899656
0.000000 0.944446 0.000000
0.000000 0.944422 0.000000
0.000000 0.944389 0.000000
0.000000 0.944343 0.000000
0.000000 0.944278 0.000000
0.000000 0.944188 0.000000
0.000000 0.944061 0.000000
0.000000 0.943885 0.000000
0.000000 0.943637 0.000000
0.000000 0.943143 0.000000
0.000000 0.935016 0.082410
0.269579 0.925286 0.162219
0.522205 0.915365 0.225512
0.661494 0.905556 0.286436
0.758016 0.895780 0.348621
0.830675 0.886139 0.412710
0.886867 0.876712 0.477262
0.930515 0.867848 0.541631
0.965419 0.859864 0.604089
0.993009 0.854200 0.662615
1.014678 0.851353 0.716127
1.031180 0.851795 0.764155
1.043415 0.855496 0.808044
1.044609 0.881337 0.842146
1.045686 0.903703 0.870664
1.044157 0.922899 0.894786
1.043522 0.926806 0.899656
1.043522 0.926806 0.899656
1.043522 0.926806 0.899656
1.043522 0.926806 0.899656
1.043522 0.926806 0.899656
1.043522 0.926806 0.899656
1.043522 0.926806 0.899656
0.000000 0.970305 0.327103
0.000000 0.970295 0.326988
0.000000 0.970281 0.326827
0.000000 0.970261 0.326602
0.000000 0.970233 0.326288
0.000000 0.970195 0.325847
0.000000 0.970138 0.325253
0.000000 0.970058 0.324435
0.000000 0.969945 0.323287
0.000000 0.969787 0.321670
0.000000 0.969012 0.320650
0.000000 0.959095 0.341162
0.443253 0.949090 0.366935
0.611901 0.939378 0.398308
0.721481 0.929912 0.435148
0.800280 0.920555 0.477090
0.861164 0.911261 0.524141
0.908251 0.902229 0.573319
0.945728 0.893772 0.624169
0.975765 0.886693 0.674243
0.999889 0.881251 0.721925
1.018776 0.878530 0.765605
1.033360 0.878698 0.805082
1.044325 0.881729 0.841750
1.045678 0.903548 0.870467
1.044173 0.922801 0.894664
1.043522 0.926806 0.899656
1.043522 0.926806 0.899656
1.043522 0.926806 0.899656
1.043522 0.926806 0.899656
1.043522 0.926806 0.899656
1.043522 0.926806 0.899656
1.043522 0.926806 0.899656
0.000000 0.986305 0.466574
0.000000 0.986302 0.466518
0.000000 0.986298 0.466439
0.000000 0.986292 0.466329
0.000000 0.986285 0.466175
0.000000 0.986274 0.465959
0.000000 0.986259 0.465658
0.000000 0.986237 0.465236
0.000000 0.986208 0.464645
0.000000 0.986166 0.463816
0.000000 0.986108 0.462651
0.000000 0.985113 0.462205
0.332593 0.975025 0.475787
0.556215 0.965615 0.493466
0.682576 0.956751 0.515794
0.770186 0.948119 0.542959
0.835533 0.939509 0.574753
0.886509 0.930947 0.611270
0.926511 0.922683 0.649994
0.958846 0.914939 0.690908
0.984931 0.908616 0.731579
1.005940 0.903806 0.770576
1.022514 0.901322 0.806388
1.035510 0.901412 0.839288
1.045388 0.903948 0.870120
1.044195 0.922665 0.894494
1.043522 0.926806 0.899656
1.043522 0.926806 0.899656
1.043522 0.926806 0.899656
1.043522 0.926806 0.899656
1.043522 0.926806 0.899656
1.043522 0.926806 0.899656
1.043522 0.926806 0.899656
0.000000 0.997075 0.567984
0.000000 0.997073 0.567954
0.000000 0.997072 0.567911
0.000000 0.997069 0.567851
0.000000 0.997066 0.567768
0.000000 0.997061 0.567651
0.000000 0.997055 0.567488
0.000000 0.997046 0.567259
0.000000 0.997033 0.566940
0.000000 0.997015 0.566493
0.000000 0.996991 0.565866
0.000000 0.996957 0.564986
0.000000 0.995778 0.564866
0.486743 0.986169 0.575114
0.640495 0.977573 0.588583
0.739424 0.969603 0.605756
0.810536 0.961969 0.626817
0.865175 0.954414 0.651998
0.907852 0.946908 0.680905
0.942230 0.939515 0.712063
0.970277 0.932614 0.745272
0.993069 0.926966 0.778713
1.011312 0.922852 0.810551
1.026035 0.920693 0.840392
1.037686 0.920717 0.868044
1.044003 0.923045 0.894188
1.043522 0.926806 0.899656
1.043522 0.926806 0.899656
1.043522 0.926806 0.899656
1.043522 0.926806 0.899656
1.043522 0.926806 0.899656
1.043522 0.926806 0.899656
1.043522 0.926806 0.899656
0.346076 1.004733 0.646951
0.346036 1.004733 0.646933
0.345980 1.004732 0.646909
0.345901 1.004731 0.646875
0.345791 1.004730 0.646827
0.345637 1.004728 0.646761
0.345422 1.004725 0.646668
0.345121 1.004721 0.646538
0.344699 1.004715 0.646356
0.344109 1.004707 0.646102
0.343282 1.004696 0.645746
0.342120 1.004681 0.645247
0.340484 1.004660 0.644548
0.381836 1.003420 0.644563
0.589785 0.994642 0.652604
0.706276 0.986965 0.663252
0.785674 0.979914 0.676881
0.844130 0.973210 0.693590
0.890141 0.966522 0.713862
0.926260 0.960020 0.737169
0.955859 0.953687 0.762753
0.980304 0.947620 0.789989
1.000130 0.942636 0.817322
1.016240 0.939152 0.843897
1.029373 0.937277 0.868964
1.038268 0.937343 0.892402
1.043257 0.927548 0.899567
1.043522 0.926806 0.899656
1.043522 0.926806 0.899656
1.043522 0.926806 0.899656
1.043522 0.926806 0.899656
1.043522 0.926806 0.899656
1.043522 0.926806 0.899656
0.495765 1.010565 0.710077
0.495747 1.010565 0.710067
0.495723 1.010564 0.710053
0.495688 1.010564 0.710033
0.495640 1.010563 0.710005
0.495573 1.010562 0.709966
0.495479 1.010561 0.709912
0.495348 1.010559 0.709836
0.495164 1.010556 0.709730
0.494907 1.010553 0.709581
0.494548 1.010547 0.709374
0.494045 1.010540 0.709083
0.493340 1.010530 0.708676
0.492351 1.010516 0.708105
0.520007 1.009290 0.708171
0.666633 1.001486 0.714578
0.758505 0.994727 0.723144
0.823407 0.988561 0.734119
0.872288 0.982692 0.747647
0.911041 0.976870 0.764035
0.942166 0.971180 0.783091
0.967855 0.965663 0.804399
0.989045 0.960544 0.826833
1.006492 0.956165 0.849521
1.020808 0.953176 0.871900
1.031980 0.951545 0.893161
1.036993 0.944682 0.897937
1.043143 0.927867 0.899532
1.043522 0.926806 0.899656
1.043522 0.926806 0.899656
1.043522 0.926806 0.899656
1.043522 0.926806 0.899656
1.043522 0.926806 0.899656
0.596415 1.015326 0.761288
0.596406 1.015326 0.761281
0.596393 1.015326 0.761273
0.596375 1.015326 0.761261
0.596350 1.015325 0.761245
0.596314 1.015325 0.761222
0.596265 1.015324 0.761189
0.596196 1.015323 0.761144
0.596099 1.015321 0.761081
0.595964 1.015319 0.760993
0.595776 1.015316 0.760870
0.595512 1.015312 0.760698
0.595142 1.015307 0.760457
0.594625 1.015299 0.760120
0.593900 1.015288 0.759647
0.614890 1.014153 0.759724
0.726807 1.007295 0.764914
0.800837 1.001408 0.771860
0.854596 0.996041 0.780788
0.896077 0.990903 0.791930
0.928967 0.985860 0.805297
0.955951 0.980887 0.821090
0.978393 0.976066 0.838855
0.996780 0.971734 0.857484
1.012258 0.967956 0.876584
1.025066 0.965307 0.895584
1.030554 0.960403 0.899751
1.034908 0.950203 0.897606
1.042984 0.928312 0.899480
1.043522 0.926806 0.899656
1.043522 0.926806 0.899656
1.043522 0.926806 0.899656
1.043522 0.926806 0.899656
0.671727 1.019520 0.803076
0.671722 1.019520 0.803072
0.671715 1.019520 0.803068
0.671705 1.019520 0.803061
0.671691 1.019519 0.803052
0.671671 1.019519 0.803039
0.671644 1.019518 0.803021
0.671606 1.019517 0.802995
0.671552 1.019515 0.802960
0.671478 1.019513 0.802911
0.671374 1.019510 0.802842
0.671228 1.019505 0.802745
0.671024 1.019499 0.802610
0.670739 1.019491 0.802421
0.670340 1.019479 0.802157
0.669781 1.019463 0.801786
0.686441 1.018420 0.801895
0.775109 1.012425 0.806205
0.835791 1.007305 0.811943
0.880820 1.002640 0.819285
0.916240 0.998160 0.828522
0.944435 0.993784 0.839566
0.967970 0.989442 0.852781
0.987492 0.985263 0.867511
1.003774 0.981461 0.883295
1.017495 0.978298 0.899531
1.023178 0.974686 0.903699
1.026685 0.968480 0.900780
1.032354 0.956843 0.897368
1.042760 0.928938 0.899408
1.043522 0.926806 0.899656
1.043522 0.926806 0.899656
1.043522 0.926806 0.899656
0.730455 1.023290 0.837582
0.730453 1.023290 0.837580
0.730449 1.023290 0.837578
0.730444 1.023290 0.837574
0.730436 1.023290 0.837569
0.730426 1.023289 0.837561
0.730412 1.023289 0.837551
0.730392 1.023288 0.837536
0.730364 1.023288 0.837516
0.730325 1.023287 0.837487
0.730270 1.023285 0.837447
0.730194 1.023283 0.837391
0.730088 1.023281 0.837313
0.729939 1.023277 0.837204
0.729730 1.023272 0.837051
0.729438 1.023265 0.836837
0.729029 1.023255 0.836538
0.742725 1.022327 0.836654
0.814537 1.017118 0.840246
0.864941 1.012668 0.845033
0.903044 1.008597 0.851211
0.933309 1.004685 0.858954
0.957866 1.000848 0.868269
0.978497 0.997049 0.879423
0.995564 0.993426 0.891718
1.010052 0.990093 0.905158
1.016015 0.987379 0.909314
1.018277 0.983643 0.906630
1.022056 0.977252 0.902552
1.029066 0.964566 0.897354
1.042453 0.929790 0.899315
1.043522 0.926806 0.899656
1.043522 0.926806 0.899656
0.777256 1.026733 0.866343
0.777255 1.026733 0.866342
0.777252 1.026732 0.866340
0.777249 1.026732 0.866338
0.777245 1.026732 0.866334
0.777239 1.026732 0.866330
0.777231 1.026732 0.866323
0.777219 1.026731 0.866314
0.777202 1.026731 0.866302
0.777179 1.026730 0.866284
0.777147 1.026729 0.866260
0.777102 1.026728 0.866226
0.777039 1.026726 0.866178
0.776951 1.026723 0.866111
0.776828 1.026719 0.866018
0.776657 1.026714 0.865887
0.776416 1.026706 0.865705
0.776079 1.026696 0.865448
0.787489 1.025866 0.865553
0.846983 1.021322 0.868593
0.889482 1.017459 0.872648
0.922042 1.013937 0.877889
0.948090 1.010571 0.884440
0.969590 1.007207 0.892452
0.987603 1.003899 0.901839
1.002771 1.000715 0.912341
1.009480 0.998467 0.916628
1.010907 0.996232 0.914253
1.013188 0.992640 0.910741
1.017094 0.986373 0.905295
1.024761 0.973211 0.897765
1.042038 0.930945 0.899187
1.043522 0.926806 0.899656
0.816753 1.027808 0.891089
0.816752 1.027808 0.891088
0.816750 1.027808 0.891087
0.816748 1.027808 0.891086
0.816745 1.027809 0.891084
0.816741 1.027809 0.891080
0.816736 1.027810 0.891076
0.816728 1.027811 0.891070
0.816717 1.027813 0.891062
0.816702 1.027815 0.891051
0.816681 1.027818 0.891035
0.816651 1.027822 0.891013
0.816609 1.027828 0.890982
0.816551 1.027837 0.890939
0.816470 1.027848 0.890879
0.816356 1.027865 0.890794
0.816197 1.027887 0.890676
0.815975 1.027919 0.890511
0.815663 1.027964 0.890279
0.825167 1.027387 0.890335
0.874647 1.023927 0.892802
0.910763 1.020913 0.896179
0.938669 1.018142 0.900577
0.961133 1.015475 0.906074
0.980003 1.012700 0.912951
0.995702 1.010046 0.920970
1.003666 1.008033 0.925103
1.004566 1.006674 0.923298
1.005924 1.004635 0.920491
1.008117 1.001341 0.916151
1.011981 0.995470 0.909222
1.019923 0.982531 0.898915
1.041477 0.932499 0.899018
0.838798 1.024956 0.908513
0.838798 1.024956 0.908513
0.838798 1.024956 0.908513
0.838798 1.024956 0.908512
0.838797 1.024956 0.908511
0.838797 1.024956 0.908510
0.838797 1.024957 0.908509
0.838796 1.024957 0.908507
0.838795 1.024958 0.908504
0.838794 1.024958 0.908500
0.838793 1.024960 0.908494
0.838791 1.024961 0.908486
0.838788 1.024963 0.908474
0.838785 1.024966 0.908458
0.838779 1.024971 0.908436
0.838772 1.024977 0.908405
0.838761 1.024985 0.908362
0.838747 1.024997 0.908301
