Assets/Data/Textures/70 CGC LUTs/LUTs_AgX_Filmic_ViewTransforms/ARRILogC4AWG4-to-AgX-NR2383-sRGB.cube
#  Baked from the PixelManager OCIO config by Joe Genco
#  https://github.com/Joegenco/PixelManager
#  Input Gamma: Arri LogC4
#  Input Color Space: Arri Wide Gamut 4
#  floating point data (range 0.0 - 1.0)   
#       
#  Output Gamma: Gamma 2.2 (Display)
#  Output Color Space: Rec.709
#  floating point data (range 0.0 - 1.0)
LUT_3D_SIZE 5
0.000000 0.000000 0.000000
0.441595 0.000000 0.000000
0.932812 0.526776 0.523731
1.008329 0.927445 0.928015
1.000266 0.996383 1.000217
0.000000 0.378389 0.184251
0.401885 0.368643 0.050097
0.945394 0.551468 0.476370
1.008324 0.927448 0.928136
1.000266 0.996385 1.000217
0.402272 0.897185 0.783552
0.402908 0.898209 0.779527
0.904162 0.895515 0.671705
1.008006 0.939603 0.914827
1.000264 0.996413 1.000216
0.903175 1.005649 0.994578
0.903184 1.005647 0.994603
0.903370 1.005750 0.993186
1.001150 1.002339 0.969493
1.000000 1.000000 1.000000
0.981534 1.000998 1.000606
0.981536 1.000998 1.000606
0.981557 1.000997 1.000605
0.982374 1.000953 1.000579
1.000000 1.000000 1.000000
0.000000 0.032281 0.198522
0.404575 0.047159 0.290735
0.928888 0.537203 0.597302
1.008258 0.927607 0.929496
1.000265 0.996407 1.000216
0.000000 0.401052 0.393341
0.372568 0.372568 0.372598
0.941697 0.563137 0.578186
1.008254 0.927610 0.929605
1.000265 0.996409 1.000216
0.407914 0.896814 0.797083
0.408790 0.897968 0.793339
0.904567 0.895950 0.672698
1.007910 0.939736 0.917015
1.000262 0.996437 1.000214
0.903307 1.005623 0.994828
0.903315 1.005621 0.994852
0.903502 1.005723 0.993438
1.001149 1.002338 0.969510
1.000000 1.000000 1.000000
0.981548 1.000998 1.000605
0.981550 1.000997 1.000605
0.981572 1.000996 1.000605
0.982391 1.000952 1.000578
1.000000 1.000000 1.000000
0.000000 0.515542 0.833179
0.439241 0.528159 0.834946
0.905769 0.661963 0.850903
1.007377 0.930092 0.946898
1.000240 0.996737 1.000196
0.121223 0.607996 0.849959
0.210436 0.625373 0.886629
0.916147 0.688372 0.865200
1.007357 0.930322 0.946990
1.000240 0.996738 1.000196
0.479525 0.898220 0.891043
0.484113 0.899703 0.892573
0.892394 0.892394 0.892406
1.006629 0.942258 0.944338
1.000238 0.996764 1.000195
0.905008 1.005299 0.997814
0.905014 1.005298 0.997831
0.905255 1.005389 0.996534
1.001143 1.002327 0.969663
1.000000 1.000000 1.000000
0.981750 1.000987 1.000599
0.981752 1.000987 1.000599
0.981772 1.000986 1.000598
0.982640 1.000939 1.000570
1.000000 1.000000 1.000000
0.741559 0.920192 1.003585
0.759474 0.919951 1.003286
0.895023 0.921203 1.001286
1.002625 0.963609 1.002143
1.000000 1.000000 1.000000
0.751067 0.924224 1.005128
0.751706 0.924495 1.005231
0.895267 0.924352 1.002661
1.002574 0.964333 1.002101
1.000000 1.000000 1.000000
0.789746 0.950838 1.008274
0.793074 0.951276 1.009138
0.838678 0.961663 1.007667
1.001994 0.972522 1.001627
1.000000 1.000000 1.000000
0.925251 1.003897 1.002367
0.925326 1.003893 1.002364
0.926512 1.003834 1.002329
1.000000 1.000000 1.000000
1.000000 1.000000 1.000000
0.984363 1.000847 1.000514
0.984365 1.000847 1.000514
0.984381 1.000846 1.000513
0.986005 1.000759 1.000460
1.000000 1.000000 1.000000
1.000000 1.000000 1.000000
1.000000 1.000000 1.000000
1.000000 1.000000 1.000000
1.000000 1.000000 1.000000
1.000000 1.000000 1.000000
1.000000 1.000000 1.000000
1.000000 1.000000 1.000000
1.000000 1.000000 1.000000
1.000000 1.000000 1.000000
1.000000 1.000000 1.000000
1.000000 1.000000 1.000000
1.000000 1.000000 1.000000
1.000000 1.000000 1.000000
1.000000 1.000000 1.000000
1.000000 1.000000 1.000000
0.985902 1.000764 1.000464
0.986379 1.000739 1.000448
0.992407 1.000413 1.000251
1.000000 1.000000 1.000000
1.000000 1.000000 1.000000
0.989921 1.000548 1.000332
0.989937 1.000547 1.000332
0.990152 1.000535 1.000325
1.000000 1.000000 1.000000
1.000000 1.000000 1.000000
