Assets/Data/Textures/70 CGC LUTs/LUTs_AgX_Filmic_ViewTransforms/ARRILogC4AWG4-to-JP2499DRT-PrintV2-sRGB.cube
#  Baked from the PixelManager OCIO config by Joe Genco
#  https://github.com/Joegenco/PixelManager
#  Input Gamma: Arri LogC4
#  Input Color Space: Arri Wide Gamut 4
#  floating point data (range 0.0 - 1.0)   
#       
#  Output Gamma: Gamma 2.2 (Display)
#  Output Color Space: Rec.709
#  floating point data (range 0.0 - 1.0)
LUT_3D_SIZE 5
0.044349 0.059667 0.049974
0.253249 0.053253 0.029946
0.818825 0.227279 0.085116
0.939556 0.765596 0.649268
0.940133 0.904115 0.887652
0.012414 0.255083 0.011672
0.333197 0.337897 0.004627
0.832910 0.262512 0.089067
0.939543 0.765729 0.650583
0.940132 0.904124 0.887660
0.339653 0.794315 0.081887
0.362377 0.802051 0.094246
0.848104 0.837654 0.143767
0.940242 0.792903 0.661016
0.940123 0.904251 0.887774
0.891236 0.930228 0.685626
0.891259 0.930235 0.685750
0.894893 0.931156 0.696341
0.934277 0.935830 0.751899
0.940180 0.926930 0.892103
0.927405 0.941068 0.886078
0.927405 0.941068 0.886086
0.927403 0.941067 0.886204
0.929978 0.942171 0.889968
0.939083 0.942618 0.898654
0.030862 0.080182 0.192711
0.322148 0.102573 0.304556
0.833105 0.261458 0.240963
0.939454 0.766861 0.660618
0.940127 0.904193 0.887722
0.005805 0.328941 0.330250
0.342226 0.381231 0.409424
0.847030 0.297721 0.261180
0.939442 0.766987 0.661868
0.940127 0.904202 0.887730
0.372351 0.806738 0.124432
0.394804 0.812995 0.146587
0.851806 0.842147 0.218006
0.940151 0.793928 0.671855
0.940118 0.904328 0.887844
0.891533 0.930315 0.687104
0.891555 0.930322 0.687224
0.895173 0.931222 0.697674
0.934298 0.935860 0.752311
0.940178 0.926941 0.892158
0.927404 0.941067 0.886170
0.927404 0.941067 0.886178
0.927402 0.941067 0.886296
0.929973 0.942170 0.890024
0.939083 0.942618 0.898668
0.042140 0.442066 0.755833
0.054610 0.475629 0.772335
0.844152 0.581220 0.791447
0.937976 0.785613 0.769357
0.940049 0.905294 0.888712
0.038826 0.487000 0.773428
0.040795 0.514646 0.786251
0.849579 0.597894 0.799093
0.937975 0.785919 0.769934
0.940048 0.905302 0.888720
0.472030 0.821661 0.785422
0.490026 0.826032 0.790405
0.839366 0.843006 0.810815
0.938837 0.808368 0.778811
0.940039 0.905423 0.888828
0.895061 0.931040 0.717744
0.895076 0.931043 0.717996
0.898566 0.931927 0.727243
0.934382 0.936049 0.774327
0.940150 0.927195 0.892888
0.927386 0.941063 0.887400
0.927386 0.941064 0.887405
0.927384 0.941064 0.887477
0.929916 0.942156 0.890829
0.939079 0.942615 0.898857
0.489574 0.862210 0.892188
0.496358 0.863021 0.892304
0.688631 0.870613 0.892087
0.932085 0.894744 0.890662
0.939201 0.916974 0.896278
0.492964 0.863221 0.892353
0.498872 0.864015 0.892473
0.685393 0.871493 0.892324
0.932122 0.894987 0.890725
0.939201 0.916979 0.896281
0.559139 0.876293 0.893909
0.561811 0.876899 0.894014
0.652809 0.882337 0.894571
0.932660 0.898538 0.891633
0.939241 0.917360 0.896404
0.900063 0.931884 0.887048
0.900182 0.931925 0.887115
0.901840 0.932503 0.888048
0.931622 0.934953 0.892375
0.939909 0.929462 0.898832
0.927056 0.941083 0.895591
0.927056 0.941083 0.895593
0.927052 0.941083 0.895619
0.929255 0.942035 0.897507
0.939054 0.942589 0.900436
0.901573 0.935383 0.901102
0.901608 0.935394 0.901108
0.902309 0.935546 0.901196
0.931174 0.935961 0.901103
0.939509 0.934337 0.900988
0.901748 0.935414 0.901096
0.901782 0.935425 0.901102
0.902474 0.935576 0.901191
0.931170 0.935998 0.901100
0.939509 0.934373 0.900986
0.904213 0.935844 0.901020
0.904247 0.935855 0.901026
0.904810 0.936007 0.901113
0.931110 0.936511 0.901067
0.939506 0.934890 0.900951
0.921682 0.939771 0.900090
0.921708 0.939778 0.900096
0.922045 0.939868 0.900173
0.930045 0.940675 0.900811
0.939209 0.940159 0.900599
0.926608 0.941151 0.899071
0.926624 0.941158 0.899078
0.926874 0.941259 0.899176
0.929383 0.942255 0.900175
0.939054 0.942589 0.900436
