Assets/Data/Textures/70 CGC LUTs/LUTs_AgX_Filmic_ViewTransforms/ARRILogC4AWG4-to-AgX-NR2383-sRGB.cube
#  Baked from the PixelManager OCIO config by Joe Genco
#  https://github.com/Joegenco/PixelManager
#  Input Gamma: Arri LogC4
#  Input Color Space: Arri Wide Gamut 4
#  floating point data (range 0.0 - 1.0)   
#       
#  Output Gamma: Gamma 2.2 (Display)
#  Output Color Space: Rec.709
#  floating point data (range 0.0 - 1.0)
LUT_3D_SIZE 33
0.000000 0.000000 0.000000
0.000000 0.000000 0.000000
0.000000 0.000000 0.000000
0.000000 0.000000 0.000000
0.077272 0.000000 0.000000
0.151585 0.000000 0.000000
0.239346 0.000000 0.000000
0.338575 0.000000 0.000000
0.441595 0.000000 0.000000
0.540242 0.000000 0.000000
0.627571 0.000000 0.000000
0.704838 0.074620 0.055446
0.770797 0.171830 0.160462
0.825491 0.261548 0.252269
0.869797 0.352412 0.345314
0.905078 0.441934 0.437122
0.932812 0.526776 0.523731
0.953932 0.602384 0.601168
0.969885 0.666482 0.666577
0.984189 0.728779 0.729617
0.996249 0.784076 0.785291
1.006180 0.830488 0.831840
1.014449 0.868826 0.870162
1.011153 0.901006 0.901967
1.008329 0.927445 0.928015
1.005925 0.949228 0.949408
1.003877 0.967267 0.967135
1.002131 0.982286 0.981961
1.001175 0.989245 0.991893
1.000815 0.990129 0.998545
1.000607 0.991731 1.000496
1.000451 0.993872 1.000368
1.000266 0.996383 1.000217
0.000000 0.000000 0.000000
0.000000 0.000000 0.000000
0.000000 0.000000 0.000000
0.000000 0.000000 0.000000
0.076663 0.000000 0.000000
0.151078 0.000000 0.000000
0.238922 0.000000 0.000000
0.338245 0.000000 0.000000
0.441361 0.000000 0.000000
0.539952 0.000000 0.000000
0.627383 0.000000 0.000000
0.704716 0.074855 0.057958
0.770712 0.171925 0.161509
0.825439 0.261595 0.252926
0.869764 0.352438 0.345754
0.905056 0.441948 0.437411
0.932798 0.526783 0.523916
0.953921 0.602391 0.601314
0.969878 0.666485 0.666667
0.984185 0.728781 0.729672
0.996247 0.784077 0.785323
1.006178 0.830489 0.831858
1.014448 0.868826 0.870173
1.011152 0.901006 0.901974
1.008329 0.927445 0.928019
1.005925 0.949228 0.949410
1.003877 0.967267 0.967136
1.002131 0.982286 0.981962
1.001175 0.989245 0.991894
1.000815 0.990129 0.998546
1.000607 0.991731 1.000496
1.000451 0.993872 1.000368
1.000266 0.996383 1.000217
0.000000 0.000000 0.000000
0.000000 0.000000 0.000000
0.000000 0.000000 0.000000
0.000000 0.000000 0.000000
0.075812 0.000000 0.000000
0.150369 0.000000 0.000000
0.238329 0.000000 0.000000
0.337783 0.000000 0.000000
0.441032 0.000000 0.000000
0.539533 0.000000 0.000000
0.627120 0.000000 0.000000
0.704545 0.075180 0.061294
0.770594 0.172056 0.162952
0.825365 0.261660 0.253837
0.869717 0.352474 0.346367
0.905026 0.441967 0.437813
0.932778 0.526792 0.524175
0.953906 0.602400 0.601518
0.969868 0.666490 0.666794
0.984179 0.728784 0.729748
0.996243 0.784079 0.785368
1.006176 0.830490 0.831884
1.014447 0.868827 0.870188
1.011152 0.901006 0.901982
1.008329 0.927445 0.928024
1.005925 0.949229 0.949413
1.003877 0.967267 0.967138
1.002131 0.982286 0.981963
1.001175 0.989245 0.991894
1.000815 0.990129 0.998546
1.000607 0.991731 1.000496
1.000451 0.993872 1.000368
1.000266 0.996384 1.000217
0.000000 0.000000 0.000000
0.000000 0.000000 0.000000
0.000000 0.000000 0.000000
0.000000 0.000000 0.000000
0.074616 0.000000 0.000000
0.149378 0.000000 0.000000
0.237498 0.000000 0.000000
0.337137 0.000000 0.000000
0.440573 0.000000 0.000000
0.538942 0.000000 0.000000
0.626724 0.000000 0.000000
0.704306 0.075621 0.065575
0.770431 0.172236 0.164929
0.825264 0.261750 0.255096
0.869653 0.352524 0.347217
0.904984 0.441995 0.438374
0.932747 0.526815 0.524615
0.953885 0.602412 0.601801
0.969855 0.666497 0.666970
0.984170 0.728787 0.729854
0.996238 0.784080 0.785429
1.006173 0.830490 0.831920
1.014445 0.868827 0.870208
1.011151 0.901007 0.901994
1.008328 0.927446 0.928031
1.005924 0.949228 0.949417
1.003877 0.967267 0.967140
1.002131 0.982286 0.981965
1.001175 0.989245 0.991896
1.000815 0.990130 0.998547
1.000607 0.991731 1.000496
1.000451 0.993872 1.000368
1.000266 0.996384 1.000217
0.000000 0.064286 0.031421
0.000000 0.064158 0.031360
0.000000 0.063978 0.031275
0.000000 0.063726 0.031156
0.066545 0.060955 0.010554
0.150485 0.057860 0.000000
0.244704 0.043663 0.000000
0.348312 0.000000 0.000000
0.453443 0.000000 0.000000
0.557343 0.000000 0.000000
0.643847 0.000000 0.000000
0.714351 0.081279 0.000000
0.775790 0.176362 0.151901
0.827736 0.264451 0.249928
0.870428 0.353712 0.346043
0.904925 0.442032 0.439151
0.932702 0.526849 0.525241
0.953856 0.602429 0.602196
0.969836 0.666507 0.667216
0.984158 0.728792 0.730001
0.996230 0.784083 0.785516
1.006169 0.830492 0.831970
1.014442 0.868828 0.870237
1.011151 0.901007 0.902011
1.008328 0.927446 0.928040
1.005924 0.949229 0.949423
1.003877 0.967267 0.967143
1.002131 0.982286 0.981967
1.001175 0.989245 0.991897
1.000815 0.990130 0.998548
1.000607 0.991732 1.000496
1.000451 0.993872 1.000368
1.000266 0.996384 1.000217
0.000000 0.125387 0.058918
0.000000 0.125280 0.058871
0.000000 0.125132 0.058807
0.000000 0.124925 0.058716
0.032599 0.119508 0.026653
0.133616 0.120250 0.015581
0.234706 0.117929 0.000000
0.343204 0.110814 0.000000
0.451597 0.101185 0.000000
0.557914 0.079881 0.000000
0.658104 0.000000 0.000000
0.733999 0.089506 0.000000
0.788554 0.185222 0.099671
0.835706 0.272463 0.225550
0.875464 0.360442 0.331794
0.907952 0.447043 0.430999
0.934006 0.529491 0.522249
0.954179 0.603262 0.601858
0.969810 0.666520 0.667558
0.984142 0.728798 0.730206
0.996220 0.784086 0.785637
1.006163 0.830494 0.832040
1.014439 0.868829 0.870278
1.011150 0.901008 0.902035
1.008327 0.927446 0.928054
1.005924 0.949229 0.949431
1.003877 0.967268 0.967148
1.002130 0.982286 0.981970
1.001175 0.989245 0.991899
1.000815 0.990130 0.998550
1.000607 0.991732 1.000496
1.000451 0.993873 1.000368
1.000266 0.996384 1.000217
0.000000 0.198223 0.090976
0.000000 0.198132 0.090935
0.000000 0.198005 0.090878
0.000000 0.197827 0.090798
0.000000 0.190519 0.045853
0.101279 0.191234 0.036592
0.213521 0.191600 0.013322
0.330220 0.190089 0.000000
0.444488 0.187733 0.000000
0.554675 0.178618 0.000000
0.654687 0.166738 0.000000
0.740678 0.154696 0.000000
0.804261 0.194627 0.000000
0.846497 0.282919 0.175268
0.882305 0.369395 0.305733
0.912268 0.454087 0.416441
0.936683 0.534777 0.514614
0.955900 0.607215 0.597898
0.970680 0.668745 0.665955
0.984307 0.729326 0.730207
0.996206 0.784092 0.785805
1.006154 0.830497 0.832138
1.014433 0.868831 0.870333
1.011148 0.901009 0.902068
1.008327 0.927447 0.928073
1.005923 0.949229 0.949441
1.003877 0.967268 0.967154
1.002130 0.982286 0.981975
1.001175 0.989246 0.991902
1.000815 0.990130 0.998552
1.000607 0.991732 1.000496
1.000451 0.993873 1.000368
1.000266 0.996384 1.000217
0.000000 0.283969 0.131644
0.000000 0.283895 0.131606
0.000000 0.283790 0.131553
0.000000 0.283644 0.131479
0.000000 0.279053 0.101403
0.000000 0.274947 0.054759
0.176793 0.276509 0.048894
0.305839 0.276470 0.018366
0.430156 0.274786 0.000000
0.545264 0.270066 0.000000
0.647792 0.264891 0.000000
0.734806 0.261503 0.000000
0.806394 0.260352 0.000000
0.858337 0.292579 0.000000
0.891619 0.380926 0.249713
0.918045 0.463465 0.390925
0.940274 0.541797 0.501891
0.958266 0.612599 0.591339
0.972202 0.672585 0.662622
0.985316 0.732172 0.728833
0.996583 0.785215 0.785473
1.006142 0.830501 0.832274
1.014426 0.868833 0.870412
1.011147 0.901010 0.902114
1.008326 0.927447 0.928099
1.005923 0.949229 0.949457
1.003876 0.967268 0.967163
1.002130 0.982287 0.981982
1.001175 0.989246 0.991906
1.000815 0.990131 0.998555
1.000607 0.991733 1.000496
1.000451 0.993873 1.000368
1.000266 0.996385 1.000217
0.000000 0.378389 0.184251
0.000000 0.378332 0.184216
0.000000 0.378253 0.184167
0.000000 0.378143 0.184099
0.000000 0.375781 0.163411
0.000000 0.370160 0.090232
0.103218 0.370660 0.079602
0.263964 0.370991 0.071730
0.401885 0.368643 0.050097
0.527382 0.365267 0.000000
0.635481 0.362417 0.000000
0.726194 0.360347 0.000000
0.799762 0.360809 0.000000
0.858528 0.364216 0.079091
0.900713 0.391594 0.149827
0.926039 0.475814 0.334885
0.945394 0.551468 0.476370
0.961550 0.620001 0.579898
0.974254 0.677704 0.657175
0.986689 0.735996 0.726506
0.997429 0.787665 0.784397
1.006596 0.831816 0.831782
1.014431 0.868946 0.870472
1.011144 0.901011 0.902178
1.008324 0.927448 0.928136
1.005922 0.949230 0.949477
1.003876 0.967268 0.967175
1.002130 0.982287 0.981991
1.001174 0.989247 0.991911
1.000814 0.990131 0.998559
1.000607 0.991734 1.000496
1.000451 0.993874 1.000368
1.000266 0.996385 1.000217
0.000000 0.473998 0.250383
0.000000 0.473959 0.250352
0.000000 0.473904 0.250309
0.000000 0.473827 0.250250
0.000000 0.472934 0.238136
0.000000 0.470325 0.191288
0.000000 0.467672 0.120042
0.175435 0.467714 0.119096
0.350352 0.465881 0.111859
0.495708 0.462594 0.099907
0.615884 0.459374 0.089318
0.713140 0.457342 0.089633
0.790594 0.457204 0.108087
0.851660 0.459308 0.142671
0.899568 0.463672 0.188808
0.933561 0.487297 0.247490
0.952230 0.563897 0.423190
0.966037 0.629759 0.557450
0.977247 0.685150 0.647333
0.988583 0.741210 0.722457
0.998579 0.790924 0.782462
1.007304 0.833839 0.830852
1.014368 0.870192 0.870021
1.011129 0.901247 0.902165
1.008322 0.927450 0.928187
1.005921 0.949231 0.949507
1.003875 0.967269 0.967192
1.002129 0.982287 0.982003
1.001174 0.989248 0.991919
1.000814 0.990132 0.998564
1.000607 0.991735 1.000495
1.000450 0.993875 1.000368
1.000266 0.996386 1.000217
0.000000 0.564348 0.331579
0.000000 0.564323 0.332272
0.000000 0.564287 0.333105
0.000000 0.564236 0.334276
0.000000 0.564026 0.331256
0.000000 0.563170 0.303843
0.000000 0.562059 0.252135
0.000000 0.560833 0.176088
0.252539 0.560176 0.175260
0.441450 0.556907 0.170220
0.583813 0.553136 0.166243
0.693014 0.550235 0.168484
0.777246 0.548940 0.180806
0.842178 0.549500 0.204810
0.892370 0.551915 0.240202
0.931326 0.556003 0.285836
0.958711 0.575806 0.343215
0.972164 0.642617 0.509445
0.981403 0.695490 0.629138
0.991159 0.748062 0.714577
1.000174 0.795362 0.779016
1.008275 0.836585 0.829300
1.014291 0.871848 0.869244
1.011077 0.902250 0.901776
1.008305 0.927727 0.928134
1.005919 0.949232 0.949548
1.003874 0.967269 0.967215
1.002128 0.982288 0.982021
1.001173 0.989249 0.991929
1.000814 0.990134 0.998572
1.000607 0.991737 1.000495
1.000450 0.993877 1.000368
1.000266 0.996387 1.000217
0.000000 0.645880 0.424933
0.000000 0.645859 0.425355
0.000000 0.645829 0.425922
0.000000 0.645788 0.426674
0.000000 0.645729 0.427675
0.000000 0.645718 0.411164
0.000000 0.645810 0.381513
0.000000 0.646255 0.321675
0.000000 0.646453 0.247547
0.340375 0.644342 0.246745
0.530627 0.639841 0.244409
0.662466 0.635894 0.246242
0.758272 0.633446 0.255318
0.829358 0.632514 0.273027
0.883078 0.633183 0.300203
0.924134 0.635286 0.336749
0.955811 0.638496 0.381862
0.977901 0.654569 0.436865
0.987062 0.708909 0.588039
0.994612 0.756900 0.699000
1.002291 0.801013 0.772421
1.009587 0.840147 0.826330
1.014186 0.874202 0.868009
1.011008 0.903645 0.901141
1.008260 0.928565 0.927813
1.005902 0.949507 0.949476
1.003872 0.967270 0.967248
1.002127 0.982288 0.982045
1.001172 0.989250 0.991944
1.000813 0.990135 0.998583
1.000607 0.991739 1.000495
1.000450 0.993878 1.000368
1.000266 0.996389 1.000217
0.000000 0.716684 0.514588
0.000000 0.716667 0.514890
0.000000 0.716644 0.515303
0.000000 0.716611 0.515864
0.000000 0.716566 0.516620
0.000000 0.716827 0.509757
0.000000 0.717441 0.492745
0.000000 0.718341 0.464604
0.000000 0.720104 0.402312
0.120408 0.721229 0.330193
0.431754 0.717533 0.329456
0.613419 0.712331 0.329642
0.730516 0.708447 0.335231
0.812196 0.706206 0.347770
0.871163 0.705489 0.367836
0.915239 0.705785 0.395540
0.948854 0.707488 0.431569
0.974447 0.709030 0.473403
0.992469 0.721667 0.524628
0.999484 0.768605 0.662246
1.005211 0.808469 0.759070
1.011355 0.844790 0.820855
1.014087 0.877143 0.865572
1.010923 0.905529 0.900080
1.008201 0.929710 0.927283
1.005864 0.950200 0.949206
1.003857 0.967529 0.967172
1.002125 0.982289 0.982080
1.001171 0.989253 0.991965
1.000812 0.990138 0.998598
1.000607 0.991742 1.000495
1.000450 0.993881 1.000367
1.000266 0.996391 1.000217
0.053277 0.775326 0.595483
0.053329 0.775314 0.595651
0.053402 0.775297 0.595882
0.053501 0.775274 0.596200
0.053632 0.775242 0.596635
0.053655 0.775410 0.595443
0.053167 0.776486 0.586521
0.049560 0.777608 0.571271
0.043382 0.779350 0.543697
0.032210 0.782313 0.483625
0.231662 0.784011 0.417753
0.521139 0.778968 0.417228
0.686220 0.773517 0.419160
0.787400 0.769655 0.426422
0.855847 0.767688 0.440368
0.904507 0.767203 0.461013
0.940280 0.766417 0.486430
0.967940 0.767872 0.520767
0.989271 0.770238 0.561385
1.004046 0.779659 0.607193
1.009428 0.818447 0.726549
1.013883 0.851118 0.809368
1.013993 0.881203 0.861005
1.010837 0.907976 0.898062
1.008134 0.931208 0.926380
1.005815 0.951142 0.948753
1.003825 0.968095 0.966941
1.002111 0.982521 0.982018
1.001170 0.989256 0.991994
1.000811 0.990141 0.998619
1.000606 0.991747 1.000495
1.000450 0.993885 1.000367
1.000266 0.996394 1.000217
0.193843 0.821346 0.663266
0.193859 0.821338 0.663362
0.193882 0.821326 0.663504
0.193930 0.821307 0.663763
0.193996 0.821280 0.664119
0.194086 0.821244 0.664607
0.194166 0.821907 0.660816
0.194220 0.823157 0.653048
0.194152 0.824965 0.640447
0.193583 0.827892 0.615508
0.192365 0.832710 0.561695
0.322673 0.835389 0.504295
0.603245 0.828840 0.503339
0.747957 0.823153 0.505677
0.833398 0.819322 0.513109
0.890481 0.817721 0.527400
0.930683 0.817420 0.547486
0.960679 0.817794 0.573232
0.983419 0.818893 0.604554
1.000976 0.820655 0.640745
1.013155 0.828343 0.680994
1.017489 0.859393 0.781497
1.013994 0.886521 0.851446
1.010757 0.911340 0.894229
1.008056 0.933294 0.924695
1.005758 0.952389 0.947971
1.003784 0.968875 0.966555
1.002083 0.983000 0.981842
1.001151 0.989522 0.991965
1.000809 0.990146 0.998649
1.000606 0.991753 1.000494
1.000449 0.993890 1.000367
1.000265 0.996399 1.000217
0.297556 0.861394 0.725563
0.297571 0.861387 0.725641
0.297594 0.861378 0.725750
0.297625 0.861365 0.725900
0.297668 0.861347 0.726109
0.297727 0.861323 0.726397
0.297861 0.861438 0.726112
0.298284 0.862379 0.721969
0.298747 0.863724 0.715383
0.299121 0.865678 0.704221
0.299099 0.868710 0.682773
0.298133 0.873651 0.635621
0.412015 0.876274 0.585135
0.676105 0.869054 0.584423
0.800696 0.864234 0.588226
0.872464 0.861459 0.596895
0.919404 0.860008 0.610248
0.952412 0.859593 0.628435
0.977036 0.859751 0.651312
0.995817 0.860477 0.678728
1.010393 0.861783 0.710005
1.018723 0.868174 0.744508
1.014366 0.893520 0.828008
1.010767 0.915688 0.886243
1.007992 0.936038 0.921495
1.005693 0.954115 0.946546
1.003735 0.969943 0.965873
1.002048 0.983638 0.981545
1.001117 0.990033 0.991858
1.000778 0.990524 0.998708
1.000605 0.991762 1.000494
1.000449 0.993897 1.000366
1.000265 0.996405 1.000216
0.402272 0.897185 0.783552
0.402284 0.897181 0.783597
0.402299 0.897176 0.783660
0.402320 0.897168 0.783747
0.402349 0.897157 0.783867
0.402391 0.897142 0.784034
0.402447 0.897121 0.784264
0.402622 0.897432 0.783026
0.402908 0.898209 0.779527
0.403196 0.899347 0.773874
0.403295 0.901050 0.764007
0.402853 0.903650 0.745584
0.401291 0.907966 0.705630
0.500105 0.909959 0.660987
0.740605 0.902255 0.659921
0.844966 0.897937 0.663736
0.904162 0.895515 0.671705
0.942741 0.894215 0.683572
0.969943 0.893749 0.699430
0.990283 0.893771 0.719127
1.005916 0.894244 0.742483
1.016211 0.895343 0.768981
1.014876 0.901120 0.798279
1.011109 0.921452 0.866580
1.008006 0.939603 0.914827
1.005642 0.956361 0.943869
1.003682 0.971355 0.964668
1.002002 0.984554 0.981007
1.001072 0.990733 0.991677
1.000723 0.991218 0.998770
1.000565 0.992311 1.000461
1.000448 0.993908 1.000366
1.000264 0.996413 1.000216
0.499159 0.925787 0.831430
0.499166 0.925785 0.831456
0.499176 0.925781 0.831491
0.499190 0.925777 0.831541
0.499210 0.925770 0.831610
0.499237 0.925761 0.831707
0.499274 0.925748 0.831840
0.499326 0.925730 0.832023
0.499501 0.926119 0.830394
0.499712 0.926781 0.827385
0.499880 0.927714 0.822712
0.499823 0.929169 0.814279
0.499190 0.931370 0.798851
0.497395 0.935073 0.765690
0.580636 0.936593 0.727164
0.794790 0.928882 0.725835
0.881207 0.925126 0.729368
0.929920 0.923048 0.736357
0.961714 0.921907 0.746551
0.984252 0.921436 0.760008
1.001162 0.921430 0.776647
1.013559 0.921742 0.796141
1.012702 0.923182 0.818577
1.011524 0.927961 0.842818
1.008314 0.944359 0.898385
1.005658 0.959295 0.938317
1.003636 0.973207 0.962533
1.001956 0.985714 0.980074
1.001022 0.991639 0.991265
1.000650 0.992159 0.998810
1.000494 0.993285 1.000403
1.000391 0.994684 1.000319
1.000263 0.996425 1.000215
0.587012 0.948645 0.870562
0.587016 0.948643 0.870576
0.587022 0.948641 0.870597
0.587032 0.948638 0.870625
0.587044 0.948634 0.870665
0.587061 0.948629 0.870720
0.587085 0.948621 0.870797
0.587118 0.948610 0.870902
0.587168 0.948610 0.870982
0.587319 0.948994 0.869352
0.587477 0.949548 0.866835
0.587567 0.950341 0.862849
0.587433 0.951550 0.855887
0.586821 0.953379 0.843428
0.584970 0.956530 0.816060
0.652239 0.957762 0.783369
0.839733 0.950384 0.781877
0.910827 0.947181 0.784986
0.950961 0.945417 0.790931
0.977281 0.944431 0.799493
0.996074 0.943986 0.810710
1.010228 0.943986 0.824569
1.010411 0.944799 0.841065
1.009665 0.945939 0.859503
1.008642 0.949922 0.879437
1.005923 0.963232 0.924720
1.003641 0.975636 0.958146
1.001916 0.987244 0.978338
1.000959 0.992901 0.990529
1.000566 0.993341 0.998666
1.000399 0.994576 1.000326
1.000293 0.996024 1.000239
1.000183 0.997512 1.000150
0.664388 0.967013 0.902412
0.664390 0.967013 0.902421
0.664394 0.967011 0.902432
0.664400 0.967010 0.902448
0.664408 0.967007 0.902471
0.664418 0.967004 0.902502
0.664433 0.966999 0.902546
0.664453 0.966993 0.902607
0.664481 0.966984 0.902691
0.664533 0.967029 0.902554
0.664653 0.967351 0.901194
0.664769 0.967808 0.899124
0.664810 0.968481 0.895752
0.664651 0.969483 0.890043
0.664122 0.970996 0.880042
0.662392 0.973648 0.857695
0.717530 0.974613 0.830136
0.876977 0.967899 0.828684
0.935130 0.965213 0.831338
0.968267 0.963727 0.836297
0.990178 0.962884 0.843390
1.005952 0.962479 0.852643
1.008256 0.963059 0.864485
1.007699 0.963756 0.878059
1.007054 0.964744 0.893135
1.006204 0.967732 0.909406
1.003840 0.978897 0.947583
1.001917 0.989261 0.974786
1.000902 0.994527 0.989003
1.000459 0.994972 0.998302
1.000283 0.996161 1.000231
1.000165 0.997757 1.000135
1.000049 0.999334 1.000040
0.730744 0.981919 0.928362
0.730746 0.981919 0.928367
0.730748 0.981918 0.928374
0.730752 0.981917 0.928383
0.730756 0.981916 0.928396
0.730762 0.981914 0.928414
0.730770 0.981911 0.928439
0.730783 0.981907 0.928473
0.730799 0.981902 0.928522
0.730822 0.981894 0.928589
0.730871 0.981959 0.928355
0.730964 0.982226 0.927235
0.731049 0.982606 0.925526
0.731063 0.983177 0.922682
0.730962 0.983997 0.918162
0.730486 0.985256 0.910015
0.728904 0.987491 0.891588
0.776922 0.988109 0.868589
0.907278 0.982340 0.867380
0.955115 0.980087 0.869594
0.982566 0.978847 0.873689
1.000961 0.978124 0.879524
1.006285 0.978219 0.887431
1.005858 0.978869 0.897279
1.005382 0.979419 0.908432
1.004833 0.980243 0.920742
1.004128 0.982498 0.934062
1.002075 0.991976 0.966301
1.000894 0.996615 0.985563
1.000354 0.997004 0.997173
1.000131 0.998224 1.000107
1.000010 0.999867 1.000008
1.000000 1.000000 1.000000
0.786499 0.994161 0.949596
0.786500 0.994161 0.949598
0.786502 0.994160 0.949602
0.786503 0.994160 0.949607
0.786506 0.994159 0.949615
0.786509 0.994158 0.949625
0.786515 0.994156 0.949639
0.786521 0.994154 0.949659
0.786531 0.994151 0.949686
0.786544 0.994146 0.949725
0.786563 0.994140 0.949778
0.786605 0.994210 0.949514
0.786676 0.994431 0.948590
0.786739 0.994749 0.947176
0.786766 0.995229 0.944850
0.786691 0.995905 0.941206
0.786285 0.996952 0.934567
0.784767 0.998880 0.918759
0.825989 0.999230 0.900196
0.932113 0.994355 0.899208
0.971642 0.992467 0.901037
0.994551 0.991426 0.904403
1.004469 0.991124 0.909405
1.004180 0.991462 0.916071
1.003815 0.992003 0.924161
1.003407 0.992474 0.933362
1.002939 0.993183 0.943484
1.002364 0.994793 0.954384
1.001085 0.999364 0.976305
1.000306 0.999497 0.993952
1.000000 1.000000 1.000000
1.000000 1.000000 1.000000
1.000000 1.000000 1.000000
0.832716 1.004339 0.967075
0.832716 1.004339 0.967077
0.832717 1.004339 0.967079
0.832718 1.004339 0.967082
0.832719 1.004338 0.967086
0.832721 1.004337 0.967092
0.832724 1.004336 0.967100
0.832728 1.004335 0.967112
0.832733 1.004333 0.967127
0.832741 1.004330 0.967149
0.832751 1.004327 0.967180
0.832765 1.004322 0.967222
0.832801 1.004392 0.966956
0.832855 1.004579 0.966176
0.832924 1.004844 0.965036
0.832957 1.005241 0.963159
0.832891 1.005803 0.960176
0.832493 1.006714 0.954414
0.831138 1.008356 0.941021
0.866179 1.008523 0.926170
0.952560 1.004443 0.925373
0.985398 1.002859 0.926877
1.002826 1.002081 0.929710
1.002629 1.002299 0.934138
1.002383 1.002578 0.939622
1.002075 1.003015 0.946275
1.001722 1.003466 0.953927
1.001413 1.002874 0.962345
1.001262 1.002568 0.966443
1.000497 1.001011 0.986963
1.000000 1.000000 1.000000
1.000000 1.000000 1.000000
1.000000 1.000000 1.000000
0.871150 1.008228 0.981857
0.871151 1.008228 0.981858
0.871151 1.008228 0.981859
0.871152 1.008227 0.981861
0.871152 1.008227 0.981863
0.871154 1.008227 0.981866
0.871155 1.008227 0.981871
0.871157 1.008226 0.981878
0.871160 1.008225 0.981887
0.871164 1.008224 0.981899
0.871170 1.008222 0.981916
0.871178 1.008220 0.981941
0.871192 1.008216 0.981982
0.871235 1.008231 0.981761
0.871302 1.008277 0.981136
0.871373 1.008347 0.980190
0.871415 1.008464 0.978661
0.871382 1.008655 0.976213
0.871041 1.009057 0.971203
0.869889 1.009986 0.959741
0.899592 1.009412 0.948026
0.970039 1.005765 0.947400
0.997487 1.004136 0.948657
1.001811 1.003684 0.951383
1.001678 1.003413 0.955070
1.001512 1.003076 0.959633
1.001308 1.002662 0.965190
1.001071 1.002179 0.971625
1.000960 1.001953 0.974621
1.000535 1.001088 0.985962
1.000000 1.000000 1.000000
1.000000 1.000000 1.000000
1.000000 1.000000 1.000000
0.903175 1.005649 0.994578
0.903175 1.005649 0.994579
0.903175 1.005649 0.994580
0.903176 1.005649 0.994581
0.903177 1.005649 0.994584
0.903177 1.005649 0.994586
0.903179 1.005648 0.994590
0.903181 1.005648 0.994596
0.903184 1.005647 0.994603
0.903187 1.005646 0.994614
0.903193 1.005644 0.994629
0.903200 1.005642 0.994649
0.903210 1.005640 0.994678
0.903224 1.005636 0.994717
0.903260 1.005650 0.994516
0.903313 1.005689 0.993988
0.903370 1.005750 0.993186
0.903402 1.005848 0.991923
0.903359 1.006020 0.989771
0.903057 1.006371 0.985507
0.902040 1.007203 0.975482
0.927186 1.006622 0.966340
0.984839 1.003546 0.965834
1.001238 1.002519 0.967103
1.001150 1.002339 0.969493
1.001036 1.002108 0.972562
1.000895 1.001822 0.976350
1.000722 1.001470 0.980970
1.000631 1.001285 0.983392
1.000383 1.000779 0.989981
1.000000 1.000000 1.000000
1.000000 1.000000 1.000000
1.000000 1.000000 1.000000
0.929597 1.003681 1.002235
0.929597 1.003681 1.002235
0.929597 1.003681 1.002235
0.929598 1.003681 1.002235
0.929598 1.003681 1.002235
0.929599 1.003681 1.002235
0.929600 1.003681 1.002235
0.929601 1.003681 1.002235
0.929603 1.003681 1.002235
0.929605 1.003680 1.002235
0.929608 1.003680 1.002235
0.929613 1.003680 1.002235
0.929619 1.003680 1.002234
0.929628 1.003679 1.002234
0.929640 1.003679 1.002234
0.929662 1.003678 1.002233
0.929685 1.003676 1.002232
0.929701 1.003676 1.002232
0.929681 1.003677 1.002233
0.929600 1.003767 1.001164
0.929339 1.004071 0.997526
0.928438 1.004828 0.988575
0.949769 1.004250 0.981574
0.997235 1.001654 0.981165
1.000662 1.001348 0.982577
1.000587 1.001195 0.984572
1.000490 1.000997 0.987147
1.000370 1.000753 0.990307
1.000302 1.000615 0.992098
1.000273 1.000556 0.992853
1.000000 1.000000 1.000000
1.000000 1.000000 1.000000
1.000000 1.000000 1.000000
0.951658 1.002564 1.001556
0.951658 1.002564 1.001556
0.951659 1.002564 1.001556
0.951659 1.002564 1.001556
0.951659 1.002564 1.001556
0.951659 1.002564 1.001556
0.951660 1.002564 1.001556
0.951661 1.002564 1.001556
0.951661 1.002564 1.001556
0.951663 1.002563 1.001556
0.951665 1.002563 1.001556
0.951667 1.002563 1.001556
0.951671 1.002563 1.001556
0.951676 1.002563 1.001556
0.951682 1.002563 1.001556
0.951692 1.002562 1.001555
0.951709 1.002561 1.001555
0.951727 1.002560 1.001554
