Assets/Data/Textures/70 CGC LUTs/LUTs_AgX_Filmic_ViewTransforms/ARRILogC4AWG4-to-AgX-KrakenPunchy-sRGB.cube
#  Baked from the PixelManager OCIO config by Joe Genco
#  https://github.com/Joegenco/PixelManager
#  Input Gamma: Arri LogC4
#  Input Color Space: Arri Wide Gamut 4
#  floating point data (range 0.0 - 1.0)   
#       
#  Output Gamma: Gamma 2.2 (Display)
#  Output Color Space: Rec.709
#  floating point data (range 0.0 - 1.0)
LUT_3D_SIZE 33
0.000000 0.000000 0.000000
0.000000 0.000000 0.000000
0.004029 -0.000261 -0.000261
0.077118 -0.002660 -0.002655
0.165865 -0.004072 -0.004061
0.261529 -0.004288 -0.004268
0.357932 -0.002226 -0.002194
0.452145 0.003216 0.003264
0.543520 0.013222 0.013293
0.632463 0.029057 0.029156
0.718577 0.051987 0.052120
0.800220 0.082984 0.083153
0.874969 0.122367 0.122571
0.940327 0.169619 0.169854
0.994451 0.223539 0.223799
1.036605 0.282663 0.282940
1.067154 0.345746 0.346036
1.087199 0.412090 0.412391
1.098274 0.481164 0.481473
1.102188 0.551877 0.552188
1.100846 0.622426 0.622731
1.089727 0.690863 0.691151
1.071207 0.754668 0.754928
1.054771 0.811291 0.811518
1.040735 0.859649 0.859839
1.029130 0.899632 0.899787
1.019765 0.931896 0.932020
1.012330 0.957515 0.957613
1.006479 0.977674 0.977751
1.001889 0.993486 0.993547
1.000000 1.000000 1.000000
1.000000 1.000000 1.000000
1.000000 1.000000 1.000000
0.000000 0.000000 0.000000
0.000000 0.000000 0.000000
0.000000 0.000000 0.000000
0.062148 -0.002351 -0.002347
0.153629 -0.003931 -0.003921
0.252483 -0.004348 -0.004329
0.351558 -0.002456 -0.002425
0.447730 0.002863 0.002911
0.540458 0.012794 0.012864
0.630333 0.028593 0.028691
0.717114 0.051522 0.051654
0.799243 0.082548 0.082716
0.874343 0.121981 0.122185
0.939946 0.169296 0.169531
0.994231 0.223281 0.223540
1.036487 0.282463 0.282740
1.067095 0.345595 0.345885
1.087173 0.411977 0.412278
1.098265 0.481080 0.481390
1.102187 0.551816 0.552128
1.100848 0.622383 0.622688
1.089736 0.690834 0.691122
1.071213 0.754648 0.754909
1.054775 0.811280 0.811507
1.040737 0.859642 0.859832
1.029131 0.899628 0.899783
1.019766 0.931894 0.932018
1.012330 0.957513 0.957611
1.006479 0.977673 0.977750
1.001889 0.993486 0.993546
1.000000 1.000000 1.000000
1.000000 1.000000 1.000000
1.000000 1.000000 1.000000
0.000000 0.000000 0.000000
0.000000 0.000000 0.000000
0.000000 0.000000 0.000000
0.040745 -0.001874 -0.001872
0.135831 -0.003691 -0.003682
0.239367 -0.004401 -0.004383
0.342391 -0.002761 -0.002731
0.441432 0.002379 0.002425
0.536117 0.012199 0.012267
0.627326 0.027946 0.028044
0.715054 0.050873 0.051004
0.797870 0.081937 0.082105
0.873465 0.121441 0.121645
0.939411 0.168845 0.169079
0.993924 0.222921 0.223179
1.036322 0.282185 0.282461
1.067013 0.345384 0.345674
1.087137 0.411819 0.412120
1.098253 0.480963 0.481273
1.102186 0.551731 0.552043
1.100851 0.622323 0.622629
1.089747 0.690793 0.691081
1.071220 0.754622 0.754883
1.054780 0.811263 0.811490
1.040740 0.859632 0.859822
1.029133 0.899622 0.899778
1.019767 0.931891 0.932015
1.012331 0.957511 0.957609
1.006479 0.977672 0.977749
1.001889 0.993485 0.993546
1.000000 1.000000 1.000000
1.000000 1.000000 1.000000
1.000000 1.000000 1.000000
-0.005166 0.026604 -0.005166
-0.004609 0.022970 -0.004609
-0.003818 0.017883 -0.003818
0.008496 0.010490 -0.002973
0.109289 -0.001662 -0.003511
0.220045 -0.004411 -0.004395
0.329040 -0.003152 -0.003124
0.432365 0.001719 0.001763
0.529924 0.011374 0.011441
0.623061 0.027044 0.027140
0.712144 0.049964 0.050094
0.795935 0.081083 0.081250
0.872228 0.120686 0.120888
0.938660 0.168212 0.168446
0.993493 0.222415 0.222674
1.036090 0.281795 0.282071
1.066899 0.345089 0.345379
1.087088 0.411598 0.411899
1.098236 0.480800 0.481109
1.102184 0.551613 0.551925
1.100855 0.622240 0.622545
1.089764 0.690736 0.691024
1.071231 0.754585 0.754846
1.054786 0.811240 0.811467
1.040744 0.859618 0.859808
1.029135 0.899614 0.899770
1.019768 0.931886 0.932010
1.012332 0.957509 0.957607
1.006480 0.977671 0.977748
1.001890 0.993484 0.993545
1.000000 1.000000 1.000000
1.000000 1.000000 1.000000
1.000000 1.000000 1.000000
-0.014359 0.088495 -0.014359
-0.013887 0.085203 -0.013887
-0.013218 0.080560 -0.013218
-0.012263 0.073987 -0.012263
0.059818 0.062864 -0.012415
0.181350 0.047577 -0.012111
0.302378 0.029214 -0.008526
0.417791 0.006777 -0.000016
0.521009 0.010236 0.010300
0.616975 0.025787 0.025881
0.708013 0.048694 0.048822
0.793198 0.079886 0.080052
0.870484 0.119626 0.119829
0.937602 0.167326 0.167560
0.992888 0.221708 0.221966
1.035765 0.281249 0.281525
1.066738 0.344676 0.344966
1.087018 0.411289 0.411590
1.098213 0.480571 0.480880
1.102182 0.551447 0.551759
1.100860 0.622124 0.622429
1.089787 0.690656 0.690944
1.071246 0.754533 0.754794
1.054796 0.811208 0.811435
1.040750 0.859599 0.859789
1.029139 0.899603 0.899758
1.019770 0.931880 0.932004
1.012333 0.957505 0.957603
1.006480 0.977669 0.977746
1.001890 0.993483 0.993544
1.000000 1.000000 1.000000
1.000000 1.000000 1.000000
1.000000 1.000000 1.000000
-0.023872 0.161488 -0.023872
-0.023567 0.158857 -0.023567
-0.023131 0.155141 -0.023131
-0.022501 0.149868 -0.022501
-0.009327 0.141932 -0.021834
0.123374 0.127265 -0.022650
0.256211 0.109978 -0.020358
0.379611 0.089460 -0.013079
0.495126 0.063703 0.000811
0.606901 0.029441 0.023330
0.702110 0.046917 0.047043
0.789308 0.078208 0.078372
0.868014 0.118141 0.118342
0.936108 0.166083 0.166316
0.992034 0.220715 0.220973
1.035308 0.280483 0.280760
1.066512 0.344098 0.344388
1.086919 0.410857 0.411157
1.098180 0.480251 0.480561
1.102179 0.551216 0.551528
1.100868 0.621961 0.622266
1.089819 0.690545 0.690833
1.071267 0.754461 0.754722
1.054809 0.811163 0.811390
1.040758 0.859572 0.859762
1.029143 0.899587 0.899742
1.019773 0.931871 0.931995
1.012334 0.957500 0.957598
1.006481 0.977666 0.977743
1.001890 0.993482 0.993542
1.000000 1.000000 1.000000
1.000000 1.000000 1.000000
1.000000 1.000000 1.000000
-0.031121 0.239664 -0.031121
-0.030990 0.237714 -0.030990
-0.030799 0.234963 -0.030799
-0.030520 0.231069 -0.030520
-0.030103 0.225525 -0.030103
0.041487 0.214707 -0.030684
0.193932 0.198347 -0.030304
0.330777 0.180151 -0.024856
0.453864 0.158592 -0.012916
0.569262 0.130986 0.007159
0.681635 0.093103 0.037683
0.783737 0.075852 0.076013
0.864496 0.116052 0.116251
0.933989 0.164336 0.164568
0.990826 0.219322 0.219580
1.034663 0.279410 0.279686
1.066194 0.343288 0.343578
1.086781 0.410251 0.410552
1.098133 0.479804 0.480113
1.102174 0.550892 0.551204
1.100879 0.621734 0.622039
1.089865 0.690389 0.690677
1.071296 0.754360 0.754621
1.054827 0.811100 0.811327
1.040769 0.859534 0.859724
1.029150 0.899565 0.899720
1.019777 0.931858 0.931982
1.012336 0.957493 0.957591
1.006482 0.977662 0.977739
1.001891 0.993479 0.993540
1.000000 1.000000 1.000000
1.000000 1.000000 1.000000
1.000000 1.000000 1.000000
-0.033698 0.318902 -0.033698
-0.033705 0.317512 -0.033705
-0.033712 0.315556 -0.033712
-0.033715 0.312795 -0.033715
-0.033705 0.308881 -0.033705
-0.033663 0.303299 -0.033663
0.105423 0.288944 -0.035039
0.267152 0.271830 -0.032096
0.404075 0.253386 -0.022433
0.526497 0.231461 -0.004970
0.641807 0.203107 0.021958
0.753054 0.163692 0.060735
0.859444 0.113109 0.113306
0.930963 0.161876 0.162106
0.989111 0.217362 0.217619
1.033749 0.277903 0.278178
1.065745 0.342152 0.342441
1.086586 0.409403 0.409703
1.098067 0.479177 0.479487
1.102167 0.550439 0.550751
1.100894 0.621415 0.621721
1.089928 0.690171 0.690459
1.071337 0.754219 0.754480
1.054852 0.811012 0.811240
1.040784 0.859481 0.859672
1.029158 0.899534 0.899690
1.019782 0.931840 0.931965
1.012339 0.957483 0.957581
1.006484 0.977656 0.977733
1.001892 0.993476 0.993537
1.000000 1.000000 1.000000
1.000000 1.000000 1.000000
1.000000 1.000000 1.000000
-0.029526 0.397168 -0.029526
-0.029628 0.396191 -0.029628
-0.029769 0.394819 -0.029769
-0.029962 0.392889 -0.029962
-0.030226 0.390164 -0.030226
-0.030583 0.386299 -0.030583
-0.031057 0.380784 -0.031057
0.176428 0.362627 -0.032054
0.340518 0.345311 -0.025389
0.476500 0.326862 -0.010696
0.598675 0.304859 0.012897
0.712706 0.276426 0.047024
0.820110 0.236860 0.093786
0.922044 0.176398 0.156031
0.986655 0.214597 0.214852
1.032448 0.275780 0.276055
1.065107 0.340556 0.340844
1.086309 0.408212 0.408512
1.097974 0.478299 0.478608
1.102158 0.549804 0.550116
1.100915 0.620970 0.621276
1.090017 0.689866 0.690154
1.071395 0.754021 0.754283
1.054888 0.810890 0.811117
1.040805 0.859407 0.859598
1.029171 0.899491 0.899647
1.019789 0.931816 0.931940
1.012343 0.957469 0.957567
1.006486 0.977648 0.977725
1.001893 0.993472 0.993532
1.000000 1.000000 1.000000
1.000000 1.000000 1.000000
1.000000 1.000000 1.000000
-0.016971 0.474081 -0.016971
-0.017125 0.473392 -0.017125
-0.017340 0.472427 -0.017340
-0.017639 0.471072 -0.017639
-0.018054 0.469165 -0.018054
-0.018631 0.466473 -0.018631
-0.019428 0.462657 -0.019428
0.024251 0.454718 -0.021076
0.249777 0.435380 -0.019615
0.413183 0.418046 -0.008496
0.548778 0.399560 0.011617
0.669952 0.377579 0.041523
0.780308 0.349389 0.082626
0.880727 0.310349 0.136502
0.972970 0.250475 0.205398
1.030579 0.272780 0.273054
1.064196 0.338306 0.338595
1.085916 0.406538 0.406839
1.097842 0.477067 0.477376
1.102143 0.548914 0.549226
1.100944 0.620346 0.620652
1.090141 0.689439 0.689727
1.071475 0.753745 0.754006
1.054938 0.810718 0.810945
1.040835 0.859304 0.859495
1.029188 0.899431 0.899587
1.019799 0.931782 0.931906
1.012349 0.957450 0.957548
1.006489 0.977638 0.977715
1.001895 0.993466 0.993526
1.000000 1.000000 1.000000
1.000000 1.000000 1.000000
1.000000 1.000000 1.000000
0.005024 0.550004 0.005024
0.004851 0.549518 0.004851
0.004609 0.548837 0.004609
0.004271 0.547882 0.004271
0.003799 0.546541 0.003799
0.003141 0.544654 0.003141
0.002222 0.541989 0.002222
0.000941 0.538211 0.000941
0.092720 0.527460 -0.001542
0.322854 0.507741 0.003336
0.485427 0.490360 0.019048
0.620429 0.471797 0.044470
0.738385 0.449905 0.080308
0.841973 0.422062 0.127576
0.932627 0.383670 0.187293
1.013472 0.324817 0.261208
1.062883 0.335126 0.335414
1.085351 0.404180 0.404480
1.097651 0.475334 0.475642
1.102121 0.547665 0.547976
1.100984 0.619471 0.619776
1.090314 0.688840 0.689129
1.071587 0.753358 0.753619
1.055008 0.810477 0.810705
1.040877 0.859160 0.859351
1.029213 0.899347 0.899503
1.019813 0.931734 0.931858
1.012357 0.957422 0.957521
1.006494 0.977622 0.977699
1.001898 0.993457 0.993518
1.000000 1.000000 1.000000
1.000000 1.000000 1.000000
1.000000 1.000000 1.000000
0.036886 0.624613 0.036886
0.036717 0.624274 0.036717
0.036480 0.623799 0.036480
0.036149 0.623133 0.036149
0.035687 0.622199 0.035687
0.035040 0.620887 0.035040
0.034135 0.619040 0.034135
0.032868 0.616431 0.032868
0.031093 0.612729 0.031093
0.165220 0.599471 0.028339
0.395145 0.579720 0.036782
0.557357 0.562311 0.056661
0.689803 0.543861 0.086793
0.801290 0.522335 0.127675
0.895070 0.495070 0.179905
0.974167 0.457356 0.244108
1.043348 0.399255 0.321847
1.084532 0.400844 0.401144
1.097375 0.472890 0.473199
1.102088 0.545907 0.546219
1.101040 0.618242 0.618547
1.090558 0.688000 0.688289
1.071745 0.752815 0.753077
1.055105 0.810140 0.810368
1.040936 0.858958 0.859149
1.029247 0.899230 0.899385
1.019832 0.931666 0.931791
1.012368 0.957385 0.957483
1.006500 0.977601 0.977678
1.001901 0.993445 0.993506
1.000000 1.000000 1.000000
1.000000 1.000000 1.000000
1.000000 1.000000 1.000000
0.078268 0.696617 0.078268
0.078117 0.696386 0.078117
0.077905 0.696062 0.077905
0.077610 0.695609 0.077610
0.077196 0.694974 0.077196
0.076617 0.694083 0.076617
0.075807 0.692830 0.075807
0.074672 0.691066 0.074672
0.073080 0.688571 0.073080
0.070841 0.685027 0.070841
0.238573 0.669846 0.068274
0.467456 0.650217 0.079778
0.628130 0.632997 0.103085
0.754656 0.615068 0.137052
0.856241 0.594380 0.181889
0.938025 0.568141 0.237857
1.004984 0.531465 0.305425
1.063219 0.474193 0.386285
1.096968 0.469432 0.469741
1.102035 0.543427 0.543739
1.101116 0.616511 0.616817
1.090901 0.686819 0.687108
1.071966 0.752053 0.752315
1.055243 0.809668 0.809896
1.041018 0.858676 0.858867
1.029295 0.899065 0.899221
1.019860 0.931572 0.931697
1.012383 0.957332 0.957430
1.006508 0.977571 0.977648
1.001906 0.993429 0.993489
1.000000 1.000000 1.000000
1.000000 1.000000 1.000000
1.000000 1.000000 1.000000
0.128153 0.764044 0.128153
0.128026 0.763892 0.128026
0.127848 0.763679 0.127848
0.127600 0.763381 0.127600
0.127254 0.762964 0.127254
0.126768 0.762379 0.126768
0.126089 0.761558 0.126089
0.125138 0.760404 0.125138
0.123802 0.758776 0.123802
0.121926 0.756472 0.121926
0.119283 0.753193 0.119283
0.312026 0.736714 0.117104
0.540113 0.717334 0.130888
0.696076 0.700706 0.156873
0.812771 0.683823 0.193835
0.901791 0.664522 0.241684
0.970702 0.639883 0.300499
1.026012 0.604903 0.370760
1.074496 0.549204 0.454050
1.101949 0.539913 0.540225
1.101221 0.614066 0.614373
1.091384 0.685155 0.685445
1.072277 0.750981 0.751244
1.055435 0.809004 0.809233
1.041133 0.858279 0.858470
1.029362 0.898834 0.898990
1.019898 0.931441 0.931565
1.012405 0.957257 0.957356
1.006521 0.977530 0.977607
1.001913 0.993405 0.993466
1.000000 1.000000 1.000000
1.000000 1.000000 1.000000
1.000000 1.000000 1.000000
0.185244 0.824755 0.185244
0.185142 0.824659 0.185142
0.185000 0.824525 0.185000
0.184801 0.824337 0.184801
0.184522 0.824074 0.184522
0.184133 0.823706 0.184133
0.183587 0.823190 0.183587
0.182824 0.822466 0.182824
0.181753 0.821446 0.181753
0.180250 0.820007 0.180250
0.178136 0.817967 0.178136
0.175153 0.815059 0.175153
0.386476 0.797780 0.173319
0.612285 0.778886 0.188762
0.759101 0.763335 0.216921
0.862595 0.748000 0.256317
0.937788 0.730574 0.306631
0.994202 0.708110 0.367797
1.039033 0.675661 0.439987
1.079064 0.622820 0.524284
1.101361 0.610598 0.610905
1.092067 0.682802 0.683093
1.072716 0.749470 0.749734
1.055706 0.808071 0.808300
1.041295 0.857722 0.857913
1.029456 0.898511 0.898667
1.019951 0.931256 0.931381
1.012435 0.957153 0.957252
1.006537 0.977471 0.977549
1.001922 0.993373 0.993433
1.000000 1.000000 1.000000
1.000000 1.000000 1.000000
1.000000 1.000000 1.000000
0.248411 0.877043 0.248411
0.248331 0.876985 0.248331
0.248220 0.876904 0.248220
0.248064 0.876791 0.248064
0.247846 0.876633 0.247846
0.247541 0.876412 0.247541
0.247115 0.876102 0.247115
0.246518 0.875667 0.246518
0.245682 0.875057 0.245682
0.244510 0.874196 0.244510
0.242863 0.872981 0.242863
0.240545 0.871256 0.240545
0.237272 0.868792 0.237272
0.462733 0.851056 0.235664
0.682111 0.833020 0.252570
0.815266 0.818985 0.282771
0.903611 0.805537 0.324399
0.965177 0.790301 0.376816
1.010350 0.770463 0.439574
1.046175 0.741349 0.512304
1.078954 0.692859 0.595394
1.093037 0.679458 0.679750
1.073337 0.747330 0.747595
1.056089 0.806753 0.806983
1.041523 0.856937 0.857130
1.029588 0.898056 0.898213
1.020026 0.930998 0.931122
1.012477 0.957008 0.957106
1.006561 0.977390 0.977467
1.001935 0.993327 0.993387
1.000000 1.000000 1.000000
1.000000 1.000000 1.000000
1.000000 1.000000 1.000000
0.316998 0.920057 0.316998
0.316936 0.920024 0.316936
0.316850 0.919977 0.316850
0.316729 0.919912 0.316729
0.316561 0.919822 0.316561
0.316325 0.919694 0.316325
0.315997 0.919516 0.315997
0.315536 0.919267 0.315536
0.314891 0.918917 0.314891
0.313988 0.918426 0.313988
0.312722 0.917733 0.312722
0.310943 0.916752 0.310943
0.308437 0.915359 0.308437
0.304898 0.913365 0.304898
0.540168 0.895464 0.303539
0.747173 0.878711 0.322122
0.863326 0.866472 0.354384
0.936276 0.855032 0.397899
0.985509 0.842086 0.451632
1.021129 0.825098 0.514646
1.049461 0.799864 0.585918
1.072926 0.757196 0.665279
1.074221 0.744284 0.744550
1.056631 0.804884 0.805116
1.041844 0.855829 0.856022
1.029774 0.897415 0.897573
1.020132 0.930634 0.930759
1.012536 0.956803 0.956902
1.006594 0.977275 0.977353
1.001954 0.993263 0.993323
1.000000 1.000000 1.000000
1.000000 1.000000 1.000000
1.000000 1.000000 1.000000
0.390526 0.953904 0.390526
0.390479 0.953885 0.390479
0.390413 0.953860 0.390413
0.390322 0.953824 0.390322
0.390194 0.953774 0.390194
0.390014 0.953704 0.390014
0.389764 0.953606 0.389764
0.389414 0.953469 0.389414
0.388924 0.953277 0.388924
0.388239 0.953007 0.388239
0.387278 0.952628 0.387278
0.385930 0.952093 0.385930
0.384035 0.951336 0.384035
0.381365 0.950258 0.381365
0.377591 0.948713 0.377591
0.616761 0.931000 0.376652
0.805235 0.915918 0.397053
0.902977 0.905557 0.431007
0.961686 0.896052 0.475563
1.000440 0.885300 0.529279
1.028270 0.871135 0.590693
1.048626 0.850068 0.658274
1.056072 0.814416 0.731709
1.057404 0.802220 0.802453
1.042301 0.854256 0.854451
1.030036 0.896510 0.896668
1.020281 0.930121 0.930247
1.012620 0.956516 0.956615
1.006641 0.977115 0.977193
1.001980 0.993173 0.993234
1.000000 1.000000 1.000000
1.000000 1.000000 1.000000
1.000000 1.000000 1.000000
0.467788 0.979485 0.467788
0.467753 0.979476 0.467753
0.467704 0.979462 0.467704
0.467636 0.979443 0.467636
0.467541 0.979417 0.467541
0.467408 0.979379 0.467408
0.467223 0.979327 0.467223
0.466963 0.979255 0.466963
0.466600 0.979153 0.466600
0.466091 0.979011 0.466091
0.465380 0.978810 0.465380
0.464382 0.978529 0.464382
0.462981 0.978131 0.462981
0.461012 0.977568 0.461012
0.458235 0.976766 0.458235
0.454303 0.975615 0.454303
0.689662 0.958536 0.453975
0.854901 0.945388 0.475935
0.934749 0.936819 0.510701
0.981177 0.929049 0.554951
1.011418 0.920269 0.606882
1.032997 0.908709 0.664587
1.035657 0.892325 0.726942
1.041716 0.862827 0.791512
1.042953 0.852010 0.852207
1.030410 0.895224 0.895383
1.020491 0.929397 0.929524
1.012737 0.956111 0.956211
1.006706 0.976890 0.976967
1.002017 0.993047 0.993108
1.000000 1.000000 1.000000
1.000000 1.000000 1.000000
1.000000 1.000000 1.000000
0.546617 0.998164 0.546617
0.546592 0.998159 0.546592
0.546557 0.998152 0.546557
0.546508 0.998143 0.546508
0.546440 0.998129 0.546440
0.546345 0.998110 0.546345
0.546211 0.998083 0.546211
0.546025 0.998046 0.546025
0.545765 0.997994 0.545765
0.545400 0.997921 0.545400
0.544890 0.997818 0.544890
0.544176 0.997674 0.544176
0.543174 0.997471 0.543174
0.541768 0.997185 0.541768
0.539787 0.996779 0.539787
0.536992 0.996201 0.536992
0.533028 0.995369 0.533028
0.756038 0.979418 0.533424
0.895859 0.968298 0.556212
0.959689 0.961326 0.590490
0.996042 0.955043 0.632784
1.019580 0.947959 0.681042
1.023025 0.939528 0.733975
1.025046 0.926361 0.788440
1.029868 0.902548 0.843187
1.030943 0.893386 0.893547
1.020790 0.928368 0.928495
1.012903 0.955539 0.955639
1.006799 0.976572 0.976650
1.002068 0.992871 0.992932
1.000000 1.000000 1.000000
1.000000 1.000000 1.000000
1.000000 1.000000 1.000000
0.624086 1.011449 0.624086
0.624069 1.011446 0.624069
0.624045 1.011443 0.624045
0.624011 1.011438 0.624011
0.623964 1.011431 0.623964
0.623899 1.011421 0.623899
0.623807 1.011408 0.623807
0.623679 1.011389 0.623679
0.623499 1.011363 0.623499
0.623249 1.011326 0.623249
0.622898 1.011275 0.622898
0.622406 1.011202 0.622406
0.621718 1.011101 0.621718
0.620753 1.010958 0.620753
0.619395 1.010756 0.619395
0.617484 1.010470 0.617484
0.614781 1.010062 0.614781
0.610942 1.009475 0.610942
0.813865 0.995098 0.612030
0.928705 0.985929 0.634564
0.979037 0.980321 0.666896
1.007399 0.975278 0.705629
1.014492 0.970338 0.749369
1.015003 0.963757 0.795337
1.016533 0.953318 0.841253
1.020320 0.934411 0.886287
1.021217 0.926895 0.927024
1.013139 0.954726 0.954826
1.006929 0.976122 0.976201
1.002140 0.992621 0.992683
1.000000 1.000000 1.000000
1.000000 1.000000 1.000000
1.000000 1.000000 1.000000
0.697016 1.020766 0.697016
0.697004 1.020764 0.697004
0.696989 1.020763 0.696989
0.696967 1.020760 0.696967
0.696935 1.020757 0.696935
0.696892 1.020752 0.696892
0.696832 1.020745 0.696832
0.696747 1.020736 0.696747
0.696629 1.020723 0.696629
0.696464 1.020704 0.696464
0.696233 1.020679 0.696233
0.695910 1.020642 0.695910
0.695458 1.020592 0.695458
0.694824 1.020521 0.694824
0.693933 1.020421 0.693933
0.692681 1.020279 0.692681
0.690916 1.020079 0.690916
0.688417 1.019793 0.688417
0.684860 1.019382 0.684860
0.862326 1.006881 0.686458
0.954567 0.999471 0.707592
0.993987 0.994993 0.736716
1.008339 0.991470 0.771211
1.008276 0.987894 0.809001
1.008625 0.982688 0.847446
1.009790 0.974473 0.885049
1.012747 0.959603 0.921269
1.013477 0.953562 0.953664
1.007114 0.975484 0.975563
1.002242 0.992269 0.992331
1.000000 1.000000 1.000000
1.000000 1.000000 1.000000
1.000000 1.000000 1.000000
0.764330 1.020875 0.764330
0.764323 1.020876 0.764323
0.764312 1.020877 0.764312
0.764298 1.020878 0.764298
0.764277 1.020880 0.764277
0.764249 1.020883 0.764249
0.764209 1.020886 0.764209
0.764153 1.020891 0.764153
0.764075 1.020898 0.764075
0.763966 1.020908 0.763966
0.763814 1.020921 0.763814
0.763601 1.020940 0.763601
0.763303 1.020966 0.763303
0.762886 1.021003 0.762886
0.762300 1.021055 0.762300
0.761478 1.021128 0.761478
0.760321 1.021231 0.760321
0.758688 1.021375 0.758688
0.756373 1.021580 0.756373
0.753072 1.021873 0.753072
0.902717 1.011940 0.754766
0.975559 1.006704 0.773425
1.004246 1.004246 0.798427
1.003625 1.003625 0.827909
1.003338 1.001575 0.858988
1.003587 0.997471 0.890278
1.004485 0.991022 0.920431
1.006793 0.979370 0.949138
1.007380 0.974569 0.974650
1.002388 0.991768 0.991830
1.000000 1.000000 1.000000
1.000000 1.000000 1.000000
1.000000 1.000000 1.000000
0.823573 1.015628 0.823573
0.823569 1.015628 0.823569
0.823562 1.015629 0.823562
0.823553 1.015630 0.823553
0.823541 1.015631 0.823541
0.823524 1.015632 0.823524
0.823500 1.015634 0.823500
0.823466 1.015637 0.823466
0.823419 1.015641 0.823419
0.823353 1.015647 0.823353
0.823261 1.015655 0.823261
0.823133 1.015667 0.823133
0.822953 1.015683 0.822953
0.822702 1.015705 0.822702
0.822349 1.015736 0.822349
0.821854 1.015780 0.821854
0.821160 1.015842 0.821160
0.820182 1.015928 0.820182
0.818800 1.016051 0.818800
0.816839 1.016224 0.816839
0.814038 1.016472 0.814038
0.936772 1.008318 0.815764
0.993982 1.004178 0.831676
1.003089 1.003089 0.853355
1.002581 1.002581 0.877486
1.002058 1.002058 0.902309
1.001546 1.001546 0.926594
1.001068 1.001068 0.949273
1.002128 0.994848 0.971100
1.002596 0.991051 0.991114
1.000000 1.000000 1.000000
1.000000 1.000000 1.000000
1.000000 1.000000 1.000000
0.872819 1.011266 0.872819
0.872816 1.011266 0.872816
0.872813 1.011266 0.872813
0.872807 1.011267 0.872807
0.872800 1.011267 0.872800
0.872790 1.011268 0.872790
0.872776 1.011269 0.872776
0.872756 1.011271 0.872756
0.872729 1.011274 0.872729
0.872690 1.011277 0.872690
0.872636 1.011282 0.872636
0.872561 1.011288 0.872561
0.872456 1.011298 0.872456
0.872309 1.011311 0.872309
0.872102 1.011329 0.872102
0.871813 1.011355 0.871813
0.871408 1.011391 0.871408
0.870838 1.011441 0.870838
0.870036 1.011512 0.870036
0.868902 1.011613 0.868902
0.867291 1.011755 0.867291
0.864988 1.011959 0.864988
0.963552 1.005406 0.866570
1.002527 1.002527 0.880043
1.002147 1.002147 0.898070
1.001740 1.001740 0.917403
1.001324 1.001324 0.937128
1.000921 1.000921 0.956297
1.000545 1.000545 0.974116
1.000209 1.000209 0.990066
1.000000 1.000000 1.000000
1.000000 1.000000 1.000000
1.000000 1.000000 1.000000
0.912709 1.007732 0.912709
0.912708 1.007732 0.912708
0.912706 1.007732 0.912706
0.912703 1.007733 0.912703
0.912699 1.007733 0.912699
0.912693 1.007734 0.912693
0.912685 1.007734 0.912685
0.912673 1.007735 0.912673
0.912658 1.007737 0.912658
0.912636 1.007739 0.912636
0.912605 1.007741 0.912605
0.912562 1.007745 0.912562
0.912501 1.007751 0.912501
0.912417 1.007758 0.912417
0.912299 1.007769 0.912299
0.912134 1.007783 0.912134
0.911902 1.007804 0.911902
0.911577 1.007833 0.911577
0.911120 1.007873 0.911120
0.910476 1.007930 0.910476
0.909565 1.008011 0.909565
0.908272 1.008125 0.908272
0.906421 1.008289 0.906421
0.984513 1.003095 0.907770
1.001697 1.001697 0.919443
1.001395 1.001395 0.933770
1.001073 1.001073 0.949055
1.000746 1.000746 0.964581
1.000429 1.000429 0.979625
1.000135 1.000135 0.993598
1.000000 1.000000 1.000000
1.000000 1.000000 1.000000
1.000000 1.000000 1.000000
0.944457 1.004920 0.944457
0.944456 1.004920 0.944456
0.944455 1.004920 0.944455
0.944453 1.004920 0.944453
0.944451 1.004920 0.944451
0.944448 1.004921 0.944448
0.944443 1.004921 0.944443
0.944437 1.004922 0.944437
0.944428 1.004923 0.944428
0.944415 1.004924 0.944415
0.944398 1.004925 0.944398
0.944373 1.004927 0.944373
0.944339 1.004930 0.944339
