Assets/Data/Textures/70 CGC LUTs/LUTs_AgX_Filmic_ViewTransforms/ARRILogC4AWG4-to-JP2499DRT-PrintV3-sRGB.cube
#  Baked from the PixelManager OCIO config by Joe Genco
#  https://github.com/Joegenco/PixelManager
#  Input Gamma: Arri LogC4
#  Input Color Space: Arri Wide Gamut 4
#  floating point data (range 0.0 - 1.0)   
#       
#  Output Gamma: Gamma 2.2 (Display)
#  Output Color Space: Rec.709
#  floating point data (range 0.0 - 1.0)
LUT_3D_SIZE 5
0.025112 0.022922 0.025485
0.209861 0.021331 0.017817
0.839548 0.144671 0.071832
0.942348 0.828648 0.649742
0.937366 0.938800 0.909012
0.007043 0.195823 0.006061
0.293199 0.280621 0.004271
0.855554 0.177710 0.074060
0.942326 0.828806 0.651554
0.937366 0.938803 0.909016
0.256719 0.849405 0.032667
0.287208 0.856741 0.035687
0.864981 0.890495 0.036950
0.941760 0.856526 0.666509
0.937361 0.938859 0.909063
0.910020 0.949640 0.705694
0.910035 0.949641 0.705865
0.912474 0.949701 0.720470
0.936161 0.949661 0.790663
0.937322 0.946422 0.910777
0.932196 0.949038 0.908708
0.932196 0.949038 0.908711
0.932195 0.949037 0.908760
0.933502 0.949104 0.910205
0.937117 0.949046 0.912897
0.017861 0.039319 0.150171
0.279456 0.047729 0.247451
0.857679 0.176161 0.160997
0.942158 0.830146 0.665380
0.937363 0.938834 0.909041
0.002876 0.271092 0.273222
0.302822 0.328830 0.353125
0.872516 0.217518 0.180646
0.942137 0.830296 0.667101
0.937363 0.938838 0.909045
0.299891 0.861065 0.043744
0.328412 0.868387 0.051112
0.871022 0.896771 0.072987
0.941591 0.857510 0.680788
0.937359 0.938893 0.909092
0.910215 0.949646 0.707722
0.910229 0.949647 0.707886
0.912657 0.949698 0.722297
0.936167 0.949662 0.791131
0.937322 0.946425 0.910795
0.932195 0.949038 0.908746
0.932195 0.949038 0.908750
0.932195 0.949037 0.908799
0.933500 0.949104 0.910226
0.937117 0.949046 0.912901
0.049332 0.399235 0.786153
0.054275 0.441492 0.806541
0.870216 0.587438 0.830349
0.939819 0.849207 0.804946
0.937326 0.939315 0.909451
0.045365 0.456941 0.808894
0.044736 0.493555 0.823853
0.875168 0.610964 0.838898
0.939804 0.849498 0.805606
0.937326 0.939319 0.909454
0.426364 0.884798 0.821745
0.449722 0.888424 0.827538
0.862285 0.902030 0.849868
0.939405 0.872786 0.815779
0.937322 0.939371 0.909499
0.912442 0.949429 0.746986
0.912451 0.949426 0.747287
0.914808 0.949489 0.758496
0.936001 0.949428 0.815966
0.937314 0.946483 0.911028
0.932188 0.949031 0.909255
0.932188 0.949031 0.909257
0.932187 0.949031 0.909283
0.933473 0.949099 0.910520
0.937116 0.949046 0.912959
0.451726 0.917648 0.915617
0.460304 0.918211 0.915621
0.697201 0.922244 0.913840
0.934045 0.934353 0.910297
0.936984 0.943810 0.912060
0.456146 0.918366 0.915661
0.463470 0.918918 0.915669
0.693295 0.922822 0.913979
0.934064 0.934457 0.910319
0.936983 0.943811 0.912061
0.539674 0.926639 0.915808
0.543010 0.927007 0.915820
0.655050 0.930377 0.915072
0.934338 0.935979 0.910631
0.936998 0.943918 0.912095
0.915455 0.947875 0.909052
0.915548 0.947881 0.909079
0.916845 0.947968 0.909462
0.934121 0.948148 0.910934
0.937250 0.947009 0.912820
0.932044 0.949005 0.912012
0.932043 0.949005 0.912013
0.932041 0.949005 0.912020
0.933164 0.949071 0.912561
0.937110 0.949039 0.913378
0.916856 0.948482 0.913726
0.916883 0.948484 0.913727
0.917427 0.948498 0.913743
0.933964 0.948288 0.913511
0.937157 0.947990 0.913447
0.916991 0.948485 0.913722
0.917018 0.948486 0.913724
0.917554 0.948500 0.913740
0.933963 0.948294 0.913511
0.937158 0.947996 0.913447
0.918895 0.948518 0.913675
0.918922 0.948520 0.913677
0.919359 0.948535 0.913694
0.933946 0.948375 0.913506
0.937162 0.948076 0.913441
0.929199 0.948900 0.913329
0.929212 0.948900 0.913330
0.929379 0.948907 0.913350
0.933532 0.948918 0.913480
0.937125 0.948801 0.913393
0.931815 0.949006 0.913033
0.931824 0.949007 0.913035
0.931964 0.949015 0.913065
0.933242 0.949080 0.913333
0.937110 0.949039 0.913378
