Assets/Data/Textures/70 CGC LUTs/LUTs_AgX_Filmic_ViewTransforms/ARRILogC4AWG4-to-JP2499DRT-PrintV1-sRGB.cube
#  Baked from the PixelManager OCIO config by Joe Genco
#  https://github.com/Joegenco/PixelManager
#  Input Gamma: Arri LogC4
#  Input Color Space: Arri Wide Gamut 4
#  floating point data (range 0.0 - 1.0)   
#       
#  Output Gamma: Gamma 2.2 (Display)
#  Output Color Space: Rec.709
#  floating point data (range 0.0 - 1.0)
LUT_3D_SIZE 9
0.053154 0.077342 0.101401
0.083673 0.077885 0.101116
0.335134 0.061816 0.077326
0.689049 0.076766 0.067911
0.881724 0.252149 0.113542
0.942175 0.619036 0.373288
0.949824 0.831281 0.668391
0.950598 0.885536 0.771440
0.949884 0.896300 0.790958
0.052477 0.095421 0.101445
0.097565 0.103693 0.100742
0.377680 0.059682 0.070079
0.695247 0.078010 0.069210
0.882100 0.253129 0.116162
0.942172 0.619241 0.375091
0.949822 0.831301 0.668628
0.950598 0.885538 0.771451
0.949884 0.896300 0.790958
0.022168 0.280872 0.070153
0.019134 0.302107 0.062650
0.432676 0.380310 0.022434
0.771618 0.214543 0.066003
0.892282 0.296028 0.119303
0.942405 0.623411 0.380962
0.949812 0.831374 0.669518
0.950597 0.885543 0.771495
0.949884 0.896302 0.790959
0.041606 0.648358 0.025953
0.041819 0.649711 0.026079
0.076270 0.711985 0.029859
0.755389 0.734156 0.014747
0.901917 0.617338 0.068305
0.944127 0.666103 0.392250
0.949855 0.833786 0.672358
0.950595 0.885563 0.771661
0.949884 0.896310 0.790961
0.458164 0.851298 0.092710
0.458812 0.851434 0.093061
0.481532 0.855493 0.106779
0.584015 0.872596 0.179729
0.895785 0.872725 0.174226
0.941510 0.842497 0.390117
0.950052 0.847291 0.678680
0.950617 0.886323 0.772181
0.949882 0.896339 0.790968
0.830104 0.896736 0.469409
0.830168 0.896740 0.469584
0.830409 0.896756 0.470247
0.840733 0.897586 0.487147
0.871224 0.899855 0.547218
0.936759 0.899759 0.581588
0.949102 0.892624 0.683951
0.950683 0.890699 0.773703
0.949988 0.897123 0.791045
0.924456 0.903458 0.701695
0.924459 0.903458 0.701714
0.924470 0.903458 0.701787
0.924512 0.903459 0.702063
0.926667 0.903501 0.709656
0.932494 0.903693 0.732250
0.947739 0.903482 0.745281
0.950295 0.902422 0.773962
0.950114 0.901776 0.791006
0.943665 0.903881 0.772318
0.943665 0.903881 0.772319
0.943666 0.903881 0.772324
0.943670 0.903881 0.772344
0.943684 0.903880 0.772418
0.944411 0.903880 0.774574
0.946443 0.903896 0.780042
0.950103 0.903835 0.782826
0.950004 0.903727 0.790741
0.944734 0.903704 0.790612
0.944734 0.903704 0.790612
0.944734 0.903704 0.790613
0.944734 0.903704 0.790615
0.944735 0.903704 0.790624
0.944735 0.903704 0.790657
0.946237 0.903761 0.790883
0.950001 0.903724 0.790967
0.949997 0.903720 0.791280
0.052535 0.078626 0.110979
0.097582 0.080895 0.125973
0.381624 0.060283 0.095590
0.704056 0.080744 0.080763
0.885067 0.260652 0.135925
0.942163 0.620978 0.388900
0.949803 0.831469 0.670454
0.950596 0.885549 0.771542
0.949884 0.896305 0.790959
0.048868 0.107839 0.130520
0.099557 0.116253 0.149698
0.438367 0.061213 0.095901
0.711884 0.082363 0.081934
0.885387 0.261456 0.138303
0.942160 0.621175 0.390626
0.949801 0.831488 0.670686
0.950596 0.885550 0.771553
0.949884 0.896305 0.790959
0.020917 0.333535 0.059045
0.019490 0.360688 0.049676
0.472179 0.419207 0.021837
0.782779 0.224810 0.079179
0.895258 0.304990 0.139654
0.942415 0.625574 0.396209
0.949791 0.831561 0.671566
0.950596 0.885556 0.771597
0.949884 0.896307 0.790960
0.046501 0.664806 0.027836
0.047195 0.665952 0.028009
0.086080 0.723573 0.031202
0.760882 0.740147 0.015175
0.904498 0.621883 0.086880
0.944103 0.667805 0.406986
0.949835 0.833994 0.674377
0.950593 0.885576 0.771763
0.949883 0.896315 0.790962
0.466037 0.852904 0.098949
0.466603 0.853016 0.099734
0.488892 0.856923 0.115651
0.589278 0.873438 0.186113
0.896321 0.873222 0.179549
0.941501 0.842664 0.404434
0.950034 0.847402 0.680493
0.950616 0.886336 0.772281
0.949882 0.896343 0.790969
0.830913 0.896789 0.471492
0.830975 0.896793 0.471661
0.831208 0.896808 0.472303
0.841374 0.897639 0.489034
0.871578 0.899882 0.548330
0.936793 0.899773 0.582290
0.949088 0.892622 0.685643
0.950681 0.890711 0.773828
0.949988 0.897128 0.791046
0.924493 0.903459 0.701926
0.924496 0.903459 0.701945
0.924507 0.903459 0.702017
0.924549 0.903460 0.702291
0.926702 0.903501 0.709862
0.932511 0.903693 0.732349
0.947741 0.903482 0.745325
0.950294 0.902421 0.774053
0.950114 0.901776 0.791007
0.943668 0.903881 0.772333
0.943668 0.903881 0.772335
0.943669 0.903881 0.772340
0.943673 0.903881 0.772359
0.943686 0.903880 0.772433
0.944414 0.903879 0.774587
0.946444 0.903896 0.780060
0.950103 0.903835 0.782828
0.950004 0.903727 0.790742
0.944734 0.903704 0.790614
0.944734 0.903704 0.790614
0.944735 0.903704 0.790615
0.944734 0.903704 0.790617
0.944735 0.903704 0.790626
0.944735 0.903704 0.790659
0.946236 0.903761 0.790884
0.950001 0.903724 0.790968
0.949997 0.903720 0.791280
0.041434 0.093367 0.231517
0.061852 0.100283 0.275530
0.415924 0.099053 0.330116
0.732732 0.111916 0.280747
0.892315 0.293550 0.267530
0.942091 0.627673 0.440468
0.949724 0.832166 0.677970
0.950591 0.885596 0.771929
0.949883 0.896322 0.790964
0.037888 0.114258 0.323298
0.042352 0.121038 0.363936
0.465114 0.111361 0.378765
0.747869 0.119378 0.295960
0.892571 0.295064 0.271661
0.942087 0.627839 0.441853
0.949722 0.832185 0.678176
0.950591 0.885598 0.771940
0.949883 0.896323 0.790964
0.009545 0.367904 0.355622
0.009557 0.385304 0.375259
0.442497 0.432632 0.431529
0.800575 0.268165 0.348210
0.901527 0.339220 0.285760
0.942398 0.632878 0.446437
0.949712 0.832255 0.678958
0.950590 0.885603 0.771983
0.949883 0.896325 0.790964
0.064539 0.706313 0.195181
0.064993 0.707487 0.205047
0.114984 0.753402 0.251572
0.779669 0.761200 0.210812
0.912486 0.636129 0.262177
0.943967 0.673805 0.455813
0.949760 0.834771 0.681442
0.950588 0.885623 0.772148
0.949882 0.896332 0.790966
0.491380 0.858234 0.149854
0.491874 0.858363 0.152047
0.513786 0.862203 0.169895
0.607299 0.875877 0.239284
0.898774 0.875521 0.251428
0.941417 0.843180 0.460468
0.949966 0.847817 0.687239
0.950611 0.886391 0.772661
0.949881 0.896361 0.790973
0.833765 0.896980 0.478902
0.833817 0.896983 0.479056
0.834013 0.896997 0.479637
0.843593 0.897831 0.495825
0.872853 0.899978 0.552329
0.936916 0.899824 0.584861
0.949039 0.892617 0.691534
0.950675 0.890758 0.774301
0.949987 0.897147 0.791050
0.924635 0.903463 0.702790
0.924638 0.903463 0.702808
0.924648 0.903463 0.702878
0.924688 0.903463 0.703144
0.926835 0.903500 0.710643
0.932575 0.903692 0.732718
0.947748 0.903484 0.745493
0.950290 0.902419 0.774396
0.950113 0.901778 0.791009
0.943679 0.903880 0.772391
0.943679 0.903881 0.772392
0.943680 0.903881 0.772397
0.943683 0.903880 0.772417
0.943697 0.903880 0.772490
0.944424 0.903879 0.774638
0.946451 0.903895 0.780129
0.950102 0.903834 0.782894
0.950003 0.903727 0.790747
0.944735 0.903704 0.790621
0.944735 0.903704 0.790621
0.944735 0.903704 0.790622
0.944735 0.903704 0.790624
0.944735 0.903704 0.790633
0.944735 0.903704 0.790666
0.946235 0.903761 0.790887
0.950001 0.903724 0.790970
0.949997 0.903720 0.791280
0.048205 0.190736 0.548691
0.050336 0.210318 0.575875
0.356364 0.262475 0.628166
0.758541 0.313169 0.638533
0.895639 0.416405 0.596511
0.941145 0.654817 0.593935
0.949458 0.834626 0.701040
0.950567 0.885819 0.773489
0.949879 0.896388 0.790980
0.049411 0.217264 0.584055
0.050263 0.235713 0.606266
0.355820 0.287309 0.650816
0.767852 0.331514 0.650623
0.897377 0.425714 0.602211
0.941135 0.654991 0.594830
0.949456 0.834643 0.701182
0.950567 0.885821 0.773502
0.949879 0.896389 0.790980
0.037878 0.385771 0.639439
0.037631 0.399601 0.652221
0.234627 0.438911 0.689724
0.789725 0.402620 0.683638
0.903367 0.460554 0.622052
0.941501 0.662963 0.599287
0.949450 0.834705 0.701723
0.950566 0.885830 0.773552
0.949879 0.896391 0.790980
0.044955 0.717358 0.640054
0.046550 0.721037 0.644022
0.078974 0.748352 0.670691
0.754786 0.760198 0.688964
0.911009 0.669380 0.653842
0.942794 0.696691 0.613496
0.949498 0.837284 0.703443
0.950563 0.885862 0.773744
0.949878 0.896398 0.790982
0.538991 0.865032 0.546765
0.539019 0.865015 0.548345
0.558393 0.867843 0.559691
0.634721 0.877143 0.600060
0.898762 0.875919 0.606344
0.940681 0.844546 0.618528
0.949757 0.849374 0.707733
0.950582 0.886702 0.774386
0.949877 0.896426 0.790989
0.842099 0.897489 0.525297
0.842138 0.897490 0.525690
0.842283 0.897495 0.527177
0.850428 0.898187 0.542183
0.876942 0.900197 0.586360
0.937105 0.899752 0.621466
0.948870 0.892588 0.711733
0.950649 0.890933 0.776061
0.949984 0.897217 0.791064
0.925140 0.903459 0.705863
0.925142 0.903459 0.705879
0.925151 0.903459 0.705942
0.925187 0.903458 0.706179
0.927312 0.903497 0.713430
0.932806 0.903692 0.734046
0.947774 0.903489 0.746106
0.950275 0.902411 0.775679
0.950113 0.901787 0.791018
0.943719 0.903879 0.772607
0.943719 0.903879 0.772608
0.943720 0.903879 0.772614
0.943723 0.903879 0.772632
0.943736 0.903879 0.772703
0.944461 0.903878 0.774832
0.946476 0.903893 0.780389
0.950099 0.903831 0.783169
0.950003 0.903727 0.790762
0.944735 0.903704 0.790647
0.944735 0.903704 0.790647
0.944735 0.903704 0.790647
0.944735 0.903704 0.790650
0.944735 0.903704 0.790658
0.944736 0.903704 0.790691
0.946228 0.903761 0.790900
0.950001 0.903724 0.790979
0.949997 0.903720 0.791283
0.035248 0.513675 0.757695
0.034858 0.523226 0.759959
0.061552 0.554947 0.768316
0.703971 0.613927 0.773887
0.894301 0.675647 0.770280
0.937787 0.745650 0.757490
0.948648 0.843341 0.753215
0.950468 0.886851 0.778813
0.949865 0.896635 0.791039
0.033994 0.525481 0.760275
0.033487 0.534625 0.762347
0.052567 0.564902 0.770089
0.704153 0.621252 0.775162
0.894985 0.679260 0.771020
0.937900 0.747032 0.757858
0.948647 0.843354 0.753275
0.950467 0.886853 0.778821
0.949865 0.896635 0.791039
0.029707 0.567654 0.767342
0.029264 0.574948 0.769130
0.033674 0.600257 0.774080
0.701228 0.645969 0.779298
0.897468 0.692456 0.773621
0.938264 0.751863 0.759140
0.948648 0.843501 0.753513
0.950467 0.886861 0.778852
0.949865 0.896637 0.791040
0.041797 0.734966 0.772710
0.043062 0.738361 0.773778
0.056874 0.749102 0.777767
0.630332 0.765288 0.781995
0.901934 0.746018 0.777797
0.939160 0.770767 0.763602
0.948755 0.846083 0.754627
0.950464 0.886890 0.778967
0.949865 0.896644 0.791041
0.590986 0.865991 0.765106
0.593334 0.866280 0.765462
0.607938 0.868101 0.767511
0.654004 0.874123 0.772544
0.889552 0.874484 0.773169
0.938863 0.851932 0.767362
0.949064 0.856452 0.757898
0.950493 0.887809 0.779392
0.949863 0.896671 0.791048
0.854601 0.896677 0.731451
0.854604 0.896675 0.731585
0.854616 0.896668 0.732095
0.861942 0.897218 0.736410
0.881414 0.898975 0.748610
0.936090 0.898722 0.753916
0.948441 0.892650 0.758636
0.950581 0.891578 0.780551
0.949974 0.897478 0.791098
0.926754 0.903348 0.724629
0.926756 0.903348 0.724662
0.926763 0.903347 0.724786
0.926791 0.903343 0.725258
0.928703 0.903406 0.730595
0.933607 0.903617 0.744720
0.947767 0.903402 0.756777
0.950230 0.902391 0.779343
0.950110 0.901821 0.791049
0.943860 0.903875 0.773375
0.943860 0.903875 0.773376
0.943861 0.903875 0.773381
0.943864 0.903875 0.773398
0.943876 0.903874 0.773461
0.944597 0.903873 0.775650
0.946567 0.903884 0.781308
0.950088 0.903819 0.784062
0.950002 0.903726 0.790821
0.944734 0.903704 0.790735
0.944734 0.903704 0.790735
0.944735 0.903704 0.790735
0.944734 0.903704 0.790736
0.944734 0.903704 0.790741
0.944732 0.903704 0.790757
0.946209 0.903761 0.790948
0.950000 0.903724 0.791012
0.949997 0.903720 0.791292
0.069249 0.795068 0.798783
0.073287 0.796425 0.799039
0.112131 0.801272 0.799908
0.469975 0.812997 0.799662
0.866059 0.830657 0.793002
0.933691 0.850556 0.790306
0.947291 0.870348 0.787468
0.950257 0.889769 0.787139
0.949817 0.897496 0.791180
0.070896 0.796561 0.798950
0.074917 0.797914 0.799205
0.114727 0.802586 0.799968
0.464111 0.814159 0.799762
0.866026 0.831423 0.793015
0.933731 0.850835 0.790319
0.947300 0.870468 0.787477
0.950257 0.889771 0.787141
0.949817 0.897496 0.791180
0.077041 0.801752 0.799439
0.080975 0.802946 0.799643
0.123790 0.806972 0.800215
0.445136 0.818367 0.800093
0.865869 0.834124 0.793059
0.933913 0.851959 0.790367
0.947329 0.870876 0.787506
0.950257 0.889776 0.787149
0.949817 0.897498 0.791180
0.169184 0.820598 0.800721
0.174965 0.821488 0.800812
0.198312 0.824225 0.801189
0.384196 0.832087 0.800934
0.864619 0.842299 0.793254
0.934501 0.856068 0.790547
0.947459 0.872178 0.787633
0.950262 0.889868 0.787187
0.949817 0.897504 0.791181
0.615018 0.871229 0.795915
0.616344 0.871439 0.795922
0.620921 0.872225 0.795953
0.637481 0.874952 0.796058
0.847010 0.875953 0.792531
0.935711 0.871587 0.790492
0.947948 0.876059 0.788114
0.950308 0.890695 0.787374
0.949815 0.897528 0.791184
0.865965 0.896774 0.788302
0.866276 0.896802 0.788317
0.867349 0.896912 0.788373
0.871164 0.897320 0.788586
0.881356 0.898508 0.789384
0.933491 0.898393 0.788853
0.948013 0.893990 0.788075
0.950424 0.893654 0.787858
0.949936 0.898390 0.791218
0.928897 0.902846 0.780711
0.928897 0.902846 0.780720
0.928896 0.902846 0.780752
0.928918 0.902846 0.780884
0.930361 0.902953 0.781995
0.934257 0.903201 0.784440
0.947521 0.903086 0.785522
0.950125 0.902372 0.787555
0.950102 0.901944 0.791161
0.944329 0.903819 0.779310
0.944329 0.903819 0.779312
0.944329 0.903819 0.779320
0.944332 0.903819 0.779349
0.944341 0.903818 0.779459
0.945000 0.903830 0.780663
0.946817 0.903864 0.783712
0.950060 0.903790 0.786232
0.950001 0.903724 0.790968
0.944714 0.903705 0.790910
0.944714 0.903705 0.790910
0.944714 0.903705 0.790910
0.944714 0.903705 0.790911
0.944713 0.903705 0.790915
0.944712 0.903705 0.790929
0.946145 0.903760 0.791071
0.949999 0.903722 0.791105
0.949996 0.903719 0.791313
0.613927 0.885472 0.799492
0.615028 0.885534 0.799475
0.619816 0.885757 0.799401
0.641222 0.886493 0.799041
0.781581 0.886872 0.796319
0.925053 0.889202 0.792361
0.946363 0.893478 0.791494
0.949929 0.896939 0.791053
0.949675 0.899748 0.791379
0.614564 0.885555 0.799482
0.615666 0.885617 0.799465
0.620295 0.885840 0.799393
0.641329 0.886578 0.799039
0.780983 0.886943 0.796334
0.925055 0.889238 0.792361
0.946368 0.893491 0.791494
0.949930 0.896944 0.791054
0.949675 0.899748 0.791379
0.616936 0.885865 0.799443
0.618041 0.885927 0.799426
0.622075 0.886149 0.799364
0.641913 0.886895 0.799027
0.778899 0.887207 0.796386
0.925059 0.889374 0.792363
0.946389 0.893544 0.791494
0.949933 0.896964 0.791055
0.949675 0.899749 0.791379
0.625256 0.886955 0.799303
0.626371 0.887019 0.799285
0.630178 0.887241 0.799220
0.648147 0.887729 0.798935
0.773131 0.888140 0.796506
0.925071 0.889849 0.792371
0.946476 0.893759 0.791493
0.949945 0.897051 0.791064
0.949675 0.899752 0.791380
0.675683 0.890033 0.798433
0.676249 0.890072 0.798423
0.678096 0.890218 0.798390
0.685925 0.890718 0.798246
0.753470 0.891713 0.796870
0.924866 0.891576 0.792374
0.946758 0.894525 0.791492
0.949991 0.897369 0.791077
0.949694 0.899837 0.791379
0.858332 0.898566 0.793683
0.858431 0.898574 0.793682
0.858766 0.898606 0.793679
0.860112 0.898723 0.793666
0.865012 0.899134 0.793614
0.921330 0.898845 0.792095
0.947275 0.897691 0.791415
0.950140 0.898551 0.791100
0.949841 0.900509 0.791372
0.929928 0.902936 0.791134
0.929942 0.902937 0.791135
0.929995 0.902940 0.791139
0.930194 0.902954 0.791152
0.930931 0.903004 0.791198
0.933316 0.903168 0.791292
0.946920 0.903031 0.791050
0.950072 0.902500 0.790984
0.950084 0.902203 0.791350
0.944727 0.903706 0.790141
0.944727 0.903706 0.790141
0.944727 0.903706 0.790142
0.944727 0.903706 0.790146
0.944742 0.903707 0.790164
0.945248 0.903732 0.790303
0.946784 0.903782 0.790628
0.950003 0.903726 0.790807
0.949997 0.903720 0.791242
0.944618 0.903711 0.791272
0.944618 0.903711 0.791272
0.944618 0.903711 0.791272
0.944617 0.903711 0.791273
0.944616 0.903711 0.791274
0.944610 0.903711 0.791278
0.945893 0.903761 0.791326
0.949997 0.903720 0.791290
0.949996 0.903719 0.791362
0.843204 0.901774 0.794643
0.843298 0.901775 0.794640
0.843645 0.901782 0.794631
0.845307 0.901801 0.794586
0.852695 0.901842 0.794382
0.901595 0.901396 0.792994
0.944153 0.901453 0.791668
0.949718 0.901940 0.791463
0.949656 0.901840 0.791463
0.843263 0.901777 0.794641
0.843356 0.901779 0.794639
0.843704 0.901786 0.794629
0.845351 0.901805 0.794584
0.852708 0.901846 0.794382
0.901541 0.901402 0.792996
0.944153 0.901455 0.791668
0.949718 0.901940 0.791463
0.949656 0.901841 0.791463
0.843485 0.901790 0.794635
0.843578 0.901791 0.794633
0.843926 0.901798 0.794623
0.845520 0.901818 0.794580
0.852753 0.901861 0.794380
0.901334 0.901422 0.793001
0.944155 0.901462 0.791667
0.949720 0.901944 0.791463
0.949659 0.901844 0.791463
0.844309 0.901837 0.794612
0.844403 0.901838 0.794610
0.844752 0.901845 0.794600
0.846149 0.901868 0.794562
0.852921 0.901919 0.794375
0.900618 0.901495 0.793021
0.944160 0.901488 0.791667
0.949728 0.901956 0.791463
0.949667 0.901858 0.791463
0.847204 0.902002 0.794530
0.847299 0.902004 0.794527
0.847652 0.902011 0.794517
0.848893 0.902036 0.794483
0.855098 0.902095 0.794311
0.898723 0.901748 0.793072
0.944179 0.901581 0.791666
0.949755 0.902001 0.791463
0.949695 0.901903 0.791463
0.866906 0.902556 0.793960
0.866950 0.902558 0.793959
0.867115 0.902567 0.793955
0.867690 0.902589 0.793939
0.870392 0.902644 0.793867
0.892219 0.902523 0.793253
0.944195 0.901900 0.791662
0.949847 0.902160 0.791463
0.949796 0.902070 0.791463
0.927386 0.903263 0.792086
0.927392 0.903263 0.792086
0.927415 0.903265 0.792086
0.927501 0.903271 0.792084
0.927848 0.903293 0.792077
0.929062 0.903369 0.792051
0.943598 0.903158 0.791617
0.950025 0.902950 0.791419
0.950014 0.902826 0.791429
0.944323 0.903722 0.791464
0.944325 0.903722 0.791464
0.944333 0.903722 0.791464
0.944364 0.903723 0.791464
0.944484 0.903727 0.791465
0.944855 0.903742 0.791468
0.945949 0.903776 0.791466
0.949996 0.903719 0.791362
0.949996 0.903719 0.791362
0.944300 0.903721 0.791464
0.944300 0.903721 0.791464
0.944300 0.903721 0.791464
0.944300 0.903721 0.791464
0.944300 0.903721 0.791464
0.944355 0.903723 0.791464
0.945607 0.903766 0.791467
0.949996 0.903719 0.791362
0.949996 0.903719 0.791362
0.930983 0.903415 0.791991
0.930987 0.903415 0.791991
0.931002 0.903416 0.791990
0.931059 0.903418 0.791989
0.931393 0.903425 0.791981
0.933510 0.903425 0.791924
0.946800 0.903160 0.791509
0.950032 0.903011 0.791414
0.950021 0.902912 0.791422
0.931003 0.903415 0.791990
0.931007 0.903415 0.791990
0.931022 0.903416 0.791990
0.931079 0.903418 0.791988
0.931412 0.903426 0.791981
0.933518 0.903426 0.791923
0.946800 0.903161 0.791508
0.950032 0.903012 0.791414
0.950021 0.902912 0.791422
0.931079 0.903416 0.791987
0.931083 0.903416 0.791987
0.931098 0.903417 0.791987
0.931155 0.903420 0.791986
0.931485 0.903427 0.791978
0.933547 0.903428 0.791922
0.946799 0.903164 0.791508
0.950033 0.903015 0.791414
0.950021 0.902916 0.791422
0.931369 0.903421 0.791977
0.931373 0.903421 0.791977
0.931388 0.903422 0.791977
0.931445 0.903424 0.791976
0.931759 0.903432 0.791969
0.933655 0.903438 0.791918
0.946796 0.903177 0.791507
0.950034 0.903027 0.791413
0.950023 0.902928 0.791421
0.932448 0.903438 0.791940
0.932452 0.903438 0.791940
0.932467 0.903439 0.791940
0.932524 0.903441 0.791938
0.932782 0.903450 0.791933
0.934058 0.903472 0.791902
0.946782 0.903224 0.791504
0.950033 0.903071 0.791410
0.950028 0.902975 0.791417
0.935382 0.903509 0.791833
0.935385 0.903509 0.791833
0.935398 0.903510 0.791833
0.935445 0.903513 0.791832
0.935618 0.903524 0.791829
0.936503 0.903556 0.791811
0.946668 0.903360 0.791498
0.950023 0.903235 0.791398
0.950028 0.903145 0.791404
0.941625 0.903666 0.791602
0.941627 0.903666 0.791602
0.941637 0.903666 0.791602
0.941675 0.903667 0.791601
0.941806 0.903670 0.791600
0.942273 0.903684 0.791595
0.946321 0.903642 0.791488
0.950005 0.903551 0.791374
0.950007 0.903522 0.791376
0.944876 0.903743 0.791468
0.944877 0.903743 0.791468
0.944883 0.903743 0.791468
0.944908 0.903744 0.791468
0.944996 0.903747 0.791468
0.945299 0.903757 0.791467
0.946358 0.903785 0.791463
0.949996 0.903719 0.791362
0.949996 0.903719 0.791362
0.944389 0.903724 0.791464
0.944391 0.903724 0.791464
0.944399 0.903724 0.791465
0.944431 0.903725 0.791465
0.944550 0.903730 0.791466
0.944900 0.903744 0.791468
0.945995 0.903777 0.791465
0.949996 0.903719 0.791362
0.949996 0.903719 0.791362
