Assets/Data/Textures/70 CGC LUTs/LUTs_AgX_Filmic_ViewTransforms/ARRILogC4AWG4-to-JP2499DRT-ClassicCinemaNegative-sRGB.cube
#  Baked from the PixelManager OCIO config by Joe Genco
#  https://github.com/Joegenco/PixelManager
#  Input Gamma: Arri LogC4
#  Input Color Space: Arri Wide Gamut 4
#  floating point data (range 0.0 - 1.0)   
#       
#  Output Gamma: Gamma 2.2 (Display)
#  Output Color Space: Rec.709
#  floating point data (range 0.0 - 1.0)
LUT_3D_SIZE 5
0.005105 0.019901 0.031404
0.253782 0.022240 0.021531
0.840753 0.181686 0.069692
0.990667 0.771231 0.607447
0.988177 0.944345 0.961884
0.005114 0.223389 0.005950
0.334095 0.307589 0.005056
0.858906 0.217152 0.071786
0.990656 0.771399 0.609285
0.988176 0.944356 0.961895
0.328431 0.800074 0.034494
0.350115 0.808707 0.037678
0.877918 0.853936 0.041140
0.991066 0.804719 0.623379
0.988164 0.944520 0.962061
0.937297 0.976193 0.657536
0.937325 0.976202 0.657728
0.941691 0.977499 0.672874
0.983257 0.983411 0.755296
0.987842 0.971774 0.968829
0.975376 0.988854 0.960209
0.975375 0.988854 0.960220
0.975373 0.988852 0.960390
0.977836 0.990176 0.966187
0.986474 0.990650 0.979117
0.012884 0.040323 0.149004
0.324060 0.057235 0.243817
0.859348 0.216930 0.156280
0.990569 0.772828 0.622817
0.988170 0.944446 0.961986
0.003784 0.299224 0.267555
0.345015 0.351188 0.340573
0.877200 0.254745 0.174121
0.990556 0.772987 0.624468
0.988169 0.944457 0.961997
0.359359 0.813576 0.047229
0.380116 0.822092 0.054602
0.884375 0.861128 0.074567
0.990967 0.805936 0.637639
0.988157 0.944621 0.962162
0.937654 0.976301 0.659813
0.937681 0.976309 0.659997
0.942026 0.977594 0.674735
0.983277 0.983446 0.755946
0.987840 0.971790 0.968908
0.975374 0.988853 0.960342
0.975374 0.988853 0.960353
0.975371 0.988851 0.960523
0.977831 0.990174 0.966258
0.986474 0.990649 0.979141
0.043458 0.410701 0.750589
0.059613 0.444491 0.775097
0.878549 0.553854 0.808015
0.988657 0.795934 0.779527
0.988064 0.945869 0.963424
0.041665 0.456284 0.777262
0.045043 0.484962 0.797045
0.885335 0.572504 0.818733
0.988650 0.796283 0.780435
0.988063 0.945880 0.963435
0.455237 0.841071 0.800883
0.473858 0.846675 0.807780
0.874082 0.868261 0.842428
0.989186 0.824846 0.793850
0.988051 0.946035 0.963592
0.941871 0.977366 0.703379
0.941889 0.977370 0.703754
0.945393 0.978638 0.717506
0.983274 0.983632 0.788527
0.987800 0.972144 0.969958
0.975346 0.988840 0.962116
0.975346 0.988840 0.962124
0.975343 0.988840 0.962242
0.977771 0.990155 0.967260
0.986468 0.990644 0.979483
0.467849 0.891452 0.964304
0.474819 0.892462 0.964568
0.687651 0.902826 0.965835
0.980570 0.932756 0.965973
0.986994 0.960141 0.974606
0.471293 0.892697 0.964631
0.477356 0.893685 0.964895
0.683735 0.903927 0.966132
0.980602 0.933050 0.966086
0.986994 0.960146 0.974610
0.541198 0.908994 0.967719
0.544105 0.909641 0.967902
0.645615 0.916918 0.969352
0.981067 0.937351 0.967708
0.987027 0.960572 0.974829
0.945769 0.977939 0.961105
0.945919 0.977989 0.961202
0.948004 0.978689 0.962566
0.979550 0.981867 0.969234
0.987451 0.975266 0.978826
0.974952 0.988802 0.974105
0.974951 0.988802 0.974108
0.974947 0.988802 0.974152
0.977068 0.989971 0.976785
0.986420 0.990596 0.982332
0.947588 0.982201 0.982552
0.947632 0.982217 0.982566
0.948513 0.982434 0.982720
0.978987 0.982906 0.983017
0.986972 0.981046 0.982933
0.947807 0.982245 0.982546
0.947851 0.982261 0.982561
0.948720 0.982478 0.982713
0.978983 0.982945 0.983014
0.986970 0.981098 0.982930
0.950915 0.982774 0.982473
0.950959 0.982785 0.982485
0.951669 0.982944 0.982632
0.978920 0.983493 0.982981
0.986949 0.981784 0.982887
0.969055 0.987315 0.981306
0.969077 0.987322 0.981319
0.969366 0.987422 0.981498
0.977811 0.988311 0.982699
0.986597 0.987772 0.982511
0.974475 0.988847 0.979503
0.974496 0.988855 0.979516
0.974741 0.988966 0.979704
0.977145 0.990230 0.981740
0.986420 0.990596 0.982332
