Assets/Data/Textures/70 CGC LUTs/LUTs_AgX_Filmic_ViewTransforms/ARRILogC4AWG4-to-JP2499DRT-PrintV1-sRGB.cube
#  Baked from the PixelManager OCIO config by Joe Genco
#  https://github.com/Joegenco/PixelManager
#  Input Gamma: Arri LogC4
#  Input Color Space: Arri Wide Gamut 4
#  floating point data (range 0.0 - 1.0)   
#       
#  Output Gamma: Gamma 2.2 (Display)
#  Output Color Space: Rec.709
#  floating point data (range 0.0 - 1.0)
LUT_3D_SIZE 5
0.053154 0.077342 0.101401
0.335134 0.061816 0.077326
0.881724 0.252149 0.113542
0.949824 0.831281 0.668391
0.949884 0.896300 0.790958
0.022168 0.280872 0.070153
0.432676 0.380310 0.022434
0.892282 0.296028 0.119303
0.949812 0.831374 0.669518
0.949884 0.896302 0.790959
0.458164 0.851298 0.092710
0.481532 0.855493 0.106779
0.895785 0.872725 0.174226
0.950052 0.847291 0.678680
0.949882 0.896339 0.790968
0.924456 0.903458 0.701695
0.924470 0.903458 0.701787
0.926667 0.903501 0.709656
0.947739 0.903482 0.745281
0.950114 0.901776 0.791006
0.944734 0.903704 0.790612
0.944734 0.903704 0.790613
0.944735 0.903704 0.790624
0.946237 0.903761 0.790883
0.949997 0.903720 0.791280
0.041434 0.093367 0.231517
0.415924 0.099053 0.330116
0.892315 0.293550 0.267530
0.949724 0.832166 0.677970
0.949883 0.896322 0.790964
0.009545 0.367904 0.355622
0.442497 0.432632 0.431529
0.901527 0.339220 0.285760
0.949712 0.832255 0.678958
0.949883 0.896325 0.790964
0.491380 0.858234 0.149854
0.513786 0.862203 0.169895
0.898774 0.875521 0.251428
0.949966 0.847817 0.687239
0.949881 0.896361 0.790973
0.924635 0.903463 0.702790
0.924648 0.903463 0.702878
0.926835 0.903500 0.710643
0.947748 0.903484 0.745493
0.950113 0.901778 0.791009
0.944735 0.903704 0.790621
0.944735 0.903704 0.790622
0.944735 0.903704 0.790633
0.946235 0.903761 0.790887
0.949997 0.903720 0.791280
0.035248 0.513675 0.757695
0.061552 0.554947 0.768316
0.894301 0.675647 0.770280
0.948648 0.843341 0.753215
0.949865 0.896635 0.791039
0.029707 0.567654 0.767342
0.033674 0.600257 0.774080
0.897468 0.692456 0.773621
0.948648 0.843501 0.753513
0.949865 0.896637 0.791040
0.590986 0.865991 0.765106
0.607938 0.868101 0.767511
0.889552 0.874484 0.773169
0.949064 0.856452 0.757898
0.949863 0.896671 0.791048
0.926754 0.903348 0.724629
0.926763 0.903347 0.724786
0.928703 0.903406 0.730595
0.947767 0.903402 0.756777
0.950110 0.901821 0.791049
0.944734 0.903704 0.790735
0.944735 0.903704 0.790735
0.944734 0.903704 0.790741
0.946209 0.903761 0.790948
0.949997 0.903720 0.791292
0.613927 0.885472 0.799492
0.619816 0.885757 0.799401
0.781581 0.886872 0.796319
0.946363 0.893478 0.791494
0.949675 0.899748 0.791379
0.616936 0.885865 0.799443
0.622075 0.886149 0.799364
0.778899 0.887207 0.796386
0.946389 0.893544 0.791494
0.949675 0.899749 0.791379
0.675683 0.890033 0.798433
0.678096 0.890218 0.798390
0.753470 0.891713 0.796870
0.946758 0.894525 0.791492
0.949694 0.899837 0.791379
0.929928 0.902936 0.791134
0.929995 0.902940 0.791139
0.930931 0.903004 0.791198
0.946920 0.903031 0.791050
0.950084 0.902203 0.791350
0.944618 0.903711 0.791272
0.944618 0.903711 0.791272
0.944616 0.903711 0.791274
0.945893 0.903761 0.791326
0.949996 0.903719 0.791362
0.930983 0.903415 0.791991
0.931002 0.903416 0.791990
0.931393 0.903425 0.791981
0.946800 0.903160 0.791509
0.950021 0.902912 0.791422
0.931079 0.903416 0.791987
0.931098 0.903417 0.791987
0.931485 0.903427 0.791978
0.946799 0.903164 0.791508
0.950021 0.902916 0.791422
0.932448 0.903438 0.791940
0.932467 0.903439 0.791940
0.932782 0.903450 0.791933
0.946782 0.903224 0.791504
0.950028 0.902975 0.791417
0.941625 0.903666 0.791602
0.941637 0.903666 0.791602
0.941806 0.903670 0.791600
0.946321 0.903642 0.791488
0.950007 0.903522 0.791376
0.944389 0.903724 0.791464
0.944399 0.903724 0.791465
0.944550 0.903730 0.791466
0.945995 0.903777 0.791465
0.949996 0.903719 0.791362
