Assets/Data/Textures/70 CGC LUTs/LUTs_AgX_Filmic_ViewTransforms/ARRILogC4AWG4-to-Filmic-sRGB.cube
#  Baked from the PixelManager OCIO config by Joe Genco
#  https://github.com/Joegenco/PixelManager
#  Input Gamma: Arri LogC4
#  Input Color Space: Arri Wide Gamut 4
#  floating point data (range 0.0 - 1.0)   
#       
#  Output Gamma: Gamma 2.2 (Display)
#  Output Color Space: Rec.709
#  floating point data (range 0.0 - 1.0)
LUT_3D_SIZE 5
1.4778452168684e-05 1.4778452168684e-05 1.4778452168684e-05
0.56685620546341 1.4778452168684e-05 1.4778452168684e-05
0.95231300592422 1.4778452168684e-05 1.4778452168684e-05
1 0.6107457280159 0.6107457280159
1 1 1
1.4778452168684e-05 0.49369657039642 1.4778452168684e-05
0.45325180888176 0.45756241679192 1.4778452168684e-05
0.95061987638474 1.4778452168684e-05 1.4778452168684e-05
1 0.60991358757019 0.60991358757019
1 1 1
1.4778452168684e-05 0.92781579494476 1.4778452168684e-05
1.4778452168684e-05 0.9270161986351 1.4778452168684e-05
0.91190379858017 0.91369336843491 1.4778452168684e-05
1 0.5976380109787 0.5976380109787
1 1 1
0.44929349422455 1 0.44929349422455
0.44894510507584 1 0.44894510507584
0.44387865066528 1 0.44387865066528
1 1 0.36699134111404
1 1 1
1 1 1
1 1 1
1 1 1
1 1 1
1 1 1
1.4778452168684e-05 1.4778452168684e-05 0.46328833699226
0.55406355857849 1.4778452168684e-05 0.46090838313103
0.95207458734512 1.4778452168684e-05 0.42313700914383
1 0.6106259226799 0.6106259226799
1 1 1
1.4778452168684e-05 0.47076034545898 0.43292829394341
0.43019610643387 0.43019610643387 0.43019610643387
0.95036965608597 1.4778452168684e-05 0.3862983584404
1 0.60979378223419 0.60979378223419
1 1 1
1.4778452168684e-05 0.92729437351227 1.4778452168684e-05
1.4778452168684e-05 0.92648583650589 1.4778452168684e-05
0.91131049394608 0.9130043387413 1.4778452168684e-05
1 0.59751468896866 0.59751468896866
1 1 1
0.44906571507454 1 0.44906571507454
0.44871723651886 1 0.44871723651886
0.44364967942238 1 0.44364967942238
1 1 0.3667431473732
1 1 1
1 1 1
1 1 1
1 1 1
1 1 1
1 1 1
1.4778452168684e-05 1.4778452168684e-05 0.91603511571884
0.051291085779667 1.4778452168684e-05 0.91597300767899
0.94842338562012 1.4778452168684e-05 0.91506665945053
1 0.60888904333115 0.9134458899498
1 1 1
1.4778452168684e-05 1.4778452168684e-05 0.91528844833374
1.4778452168684e-05 1.4778452168684e-05 0.91522550582886
0.94653314352036 1.4778452168684e-05 0.91430628299713
1 0.60805332660675 0.91266065835953
1 1 1
1.4778452168684e-05 0.91903066635132 0.9031440615654
1.4778452168684e-05 0.9180753827095 0.90306615829468
0.90192461013794 0.90192461013794 0.90192461013794
1 0.59571659564972 0.89975523948669
1 1 1
0.44575574994087 1 0.44575574994087
0.44540596008301 1 0.44540596008301
0.4403167963028 1 0.4403167963028
1 1 0.36314034461975
1 1 1
1 1 1
1 1 1
1 1 1
1 1 1
1 1 1
0.37955570220947 0.37955570220947 1
0.37953242659569 0.37953242659569 1
0.74344158172607 0.37919628620148 1
1 0.58277171850204 1
1 1 1
0.37927788496017 0.37927788496017 1
0.37925460934639 0.37925460934639 1
0.71129804849625 0.37891840934753 1
1 0.58187782764435 1
1 1 1
0.37524315714836 0.37524315714836 1
0.37521997094154 0.37521997094154 1
0.37488257884979 0.37488257884979 1
1 0.5686851143837 1
1 1 1
0.39624360203743 1 1
0.39587408304214 1 1
0.39049884676933 1 1
1 1 1
1 1 1
1 1 1
1 1 1
1 1 1
1 1 1
1 1 1
1 1 1
1 1 1
1 1 1
1 1 1
1 1 1
1 1 1
1 1 1
1 1 1
1 1 1
1 1 1
1 1 1
1 1 1
1 1 1
1 1 1
1 1 1
1 1 1
1 1 1
1 1 1
1 1 1
1 1 1
1 1 1
1 1 1
1 1 1
1 1 1
1 1 1
