Assets/Data/Textures/70 CGC LUTs/LUTs_AgX_Filmic_ViewTransforms/ARRILogC4AWG4-to-JzDT-sRGB.cube
#  Baked from the PixelManager OCIO config by Joe Genco
#  https://github.com/Joegenco/PixelManager
#  Input Gamma: Arri LogC4
#  Input Color Space: Arri Wide Gamut 4
#  floating point data (range 0.0 - 1.0)   
#       
#  Output Gamma: Gamma 2.2 (Display)
#  Output Color Space: Rec.709
#  floating point data (range 0.0 - 1.0)
LUT_3D_SIZE 33
0.000000 0.000000 0.000000
0.000000 0.000000 0.000000
0.000000 0.000000 0.000000
0.000000 0.000000 0.000000
0.042389 0.000000 0.000000
0.143428 0.000000 0.000000
0.237464 0.000000 0.000000
0.337744 0.000000 0.000000
0.439054 0.000000 0.000000
0.545725 0.000000 0.000000
0.655180 0.000000 0.000000
0.761436 0.000000 0.000000
0.859640 0.000000 0.000000
0.949695 0.000000 0.079764
1.000000 0.235149 0.215693
1.000000 0.352498 0.313960
1.000000 0.449752 0.399043
1.000000 0.535290 0.476150
1.000000 0.611819 0.547375
1.000000 0.681651 0.615058
1.000000 0.744112 0.678470
1.000000 0.795838 0.733270
1.000000 0.838404 0.779955
1.000000 0.873199 0.819494
1.000000 0.901518 0.852767
1.000000 0.924563 0.880688
1.000000 0.928898 0.885982
1.000000 0.928898 0.885982
1.000000 0.928898 0.885982
1.000000 0.928898 0.885982
1.000000 0.928898 0.885982
1.000000 0.928898 0.885982
1.000000 0.928898 0.885982
0.000000 0.000000 0.000000
0.000000 0.000000 0.000000
0.000000 0.000000 0.000000
0.000000 0.000000 0.000000
0.043957 0.000000 0.000000
0.140557 0.000000 0.000000
0.235093 0.000000 0.000000
0.336284 0.000000 0.000000
0.438052 0.000000 0.000000
0.544843 0.000000 0.000000
0.654581 0.000000 0.000000
0.761043 0.000000 0.000000
0.859385 0.000000 0.000000
0.949527 0.000000 0.079672
1.000000 0.234941 0.215524
1.000000 0.352389 0.313866
1.000000 0.449686 0.398984
1.000000 0.535248 0.476112
1.000000 0.611793 0.547350
1.000000 0.681634 0.615041
1.000000 0.744102 0.678459
1.000000 0.795832 0.733263
1.000000 0.838400 0.779951
1.000000 0.873197 0.819492
1.000000 0.901517 0.852766
1.000000 0.924562 0.880687
1.000000 0.928898 0.885982
1.000000 0.928898 0.885982
1.000000 0.928898 0.885982
1.000000 0.928898 0.885982
1.000000 0.928898 0.885982
1.000000 0.928898 0.885982
1.000000 0.928898 0.885982
0.000000 0.000000 0.000000
0.000000 0.000000 0.000000
0.000000 0.000000 0.000000
0.009994 0.000000 0.000000
0.057614 0.000000 0.000000
0.144352 0.000000 0.000000
0.233760 0.000000 0.000000
0.334218 0.000000 0.000000
0.436640 0.000000 0.000000
0.543605 0.000000 0.000000
0.653742 0.000000 0.000000
0.760493 0.000000 0.000000
0.859028 0.000000 0.000000
0.949293 0.000000 0.079544
1.000000 0.234651 0.215288
1.000000 0.352236 0.313734
1.000000 0.449594 0.398902
1.000000 0.535190 0.476059
1.000000 0.611755 0.547315
1.000000 0.681609 0.615017
1.000000 0.744087 0.678443
1.000000 0.795823 0.733254
1.000000 0.838395 0.779945
1.000000 0.873194 0.819488
1.000000 0.901515 0.852763
1.000000 0.924561 0.880686
1.000000 0.928898 0.885982
1.000000 0.928898 0.885982
1.000000 0.928898 0.885982
1.000000 0.928898 0.885982
1.000000 0.928898 0.885982
1.000000 0.928898 0.885982
1.000000 0.928898 0.885982
0.000000 0.000000 0.000000
0.000000 0.000000 0.000000
0.000000 0.000000 0.000000
0.005549 0.005646 0.000000
0.068444 0.023877 0.000000
0.146624 0.015707 0.000000
0.233555 0.000000 0.000000
0.331560 0.000000 0.000000
0.434386 0.000000 0.000000
0.541862 0.000000 0.000000
0.652563 0.000000 0.000000
0.759721 0.000000 0.000000
0.858529 0.000000 0.000000
0.948966 0.000000 0.079364
1.000000 0.234245 0.214957
1.000000 0.352023 0.313549
1.000000 0.449465 0.398787
1.000000 0.535109 0.475985
1.000000 0.611704 0.547266
1.000000 0.681575 0.614984
1.000000 0.744067 0.678422
1.000000 0.795811 0.733241
1.000000 0.838388 0.779937
1.000000 0.873190 0.819483
1.000000 0.901513 0.852760
1.000000 0.924559 0.880684
1.000000 0.928898 0.885982
1.000000 0.928898 0.885982
1.000000 0.928898 0.885982
1.000000 0.928898 0.885982
1.000000 0.928898 0.885982
1.000000 0.928898 0.885982
1.000000 0.928898 0.885982
0.000000 0.031001 0.000000
0.000000 0.028386 0.000000
0.000000 0.043179 0.000000
0.000000 0.056391 0.000000
0.065467 0.072087 0.000000
0.144058 0.081427 0.000000
0.230767 0.067515 0.000000
0.327291 0.013858 0.000000
0.430703 0.000000 0.000000
0.537766 0.000000 0.000000
0.650341 0.000000 0.000000
0.758639 0.000000 0.000000
0.857829 0.000000 0.000000
0.948507 0.000000 0.079111
1.000000 0.233676 0.214493
1.000000 0.351724 0.313291
1.000000 0.449285 0.398627
1.000000 0.534996 0.475882
1.000000 0.611631 0.547198
1.000000 0.681527 0.614937
1.000000 0.744039 0.678392
1.000000 0.795795 0.733223
1.000000 0.838378 0.779926
1.000000 0.873184 0.819476
1.000000 0.901509 0.852756
1.000000 0.924557 0.880681
1.000000 0.928898 0.885982
1.000000 0.928898 0.885982
1.000000 0.928898 0.885982
1.000000 0.928898 0.885982
1.000000 0.928898 0.885982
1.000000 0.928898 0.885982
1.000000 0.928898 0.885982
0.000000 0.118831 0.000000
0.000000 0.117468 0.000000
0.000000 0.120079 0.000000
0.000000 0.126183 0.000000
0.029662 0.132376 0.000000
0.133428 0.141679 0.000000
0.224072 0.142758 0.000000
0.320316 0.123089 0.000000
0.424667 0.062245 0.000000
0.531287 0.000000 0.000000
0.643328 0.000000 0.000000
0.755501 0.000000 0.000000
0.856847 0.000000 0.000000
0.947864 0.000000 0.078756
1.000000 0.232876 0.213842
1.000000 0.351305 0.312929
1.000000 0.449033 0.398403
1.000000 0.534838 0.475737
1.000000 0.611530 0.547102
1.000000 0.681461 0.614872
1.000000 0.743999 0.678350
1.000000 0.795771 0.733197
1.000000 0.838364 0.779910
1.000000 0.873176 0.819467
1.000000 0.901504 0.852750
1.000000 0.924554 0.880678
1.000000 0.928898 0.885982
1.000000 0.928898 0.885982
1.000000 0.928898 0.885982
1.000000 0.928898 0.885982
1.000000 0.928898 0.885982
1.000000 0.928898 0.885982
1.000000 0.928898 0.885982
0.000000 0.203686 0.000000
0.000000 0.202476 0.000000
0.000000 0.201174 0.000000
0.000000 0.203518 0.000000
0.000000 0.205860 0.000000
0.093888 0.207338 0.000000
0.206495 0.208564 0.000000
0.307067 0.200493 0.000000
0.413602 0.178469 0.000000
0.520706 0.132294 0.000000
0.632594 0.057602 0.000000
0.746868 0.000000 0.000000
0.853138 0.000000 0.000000
0.946963 0.000000 0.078254
1.000000 0.231751 0.212927
1.000000 0.350718 0.312422
1.000000 0.448680 0.398089
1.000000 0.534616 0.475535
1.000000 0.611388 0.546969
1.000000 0.681368 0.614781
1.000000 0.743944 0.678292
1.000000 0.795739 0.733162
1.000000 0.838345 0.779888
1.000000 0.873164 0.819453
1.000000 0.901497 0.852742
1.000000 0.924550 0.880673
1.000000 0.928898 0.885982
1.000000 0.928898 0.885982
1.000000 0.928898 0.885982
1.000000 0.928898 0.885982
1.000000 0.928898 0.885982
1.000000 0.928898 0.885982
1.000000 0.928898 0.885982
0.000000 0.285378 0.000000
0.000000 0.284273 0.000000
0.000000 0.282985 0.000000
0.000000 0.282976 0.000000
0.000000 0.284030 0.000000
0.000000 0.284366 0.000000
0.154686 0.282767 0.000000
0.276677 0.278993 0.000000
0.391774 0.266692 0.000000
0.502761 0.243561 0.000000
0.616633 0.210521 0.000000
0.733164 0.163496 0.000000
0.844032 0.124012 0.000000
0.942198 0.149264 0.038381
1.000000 0.230164 0.211636
1.000000 0.349895 0.311711
1.000000 0.448186 0.397649
1.000000 0.534306 0.475252
1.000000 0.611190 0.546783
1.000000 0.681238 0.614654
1.000000 0.743868 0.678211
1.000000 0.795693 0.733112
1.000000 0.838318 0.779858
1.000000 0.873148 0.819435
1.000000 0.901488 0.852731
1.000000 0.924545 0.880666
1.000000 0.928898 0.885982
1.000000 0.928898 0.885982
1.000000 0.928898 0.885982
1.000000 0.928898 0.885982
1.000000 0.928898 0.885982
1.000000 0.928898 0.885982
1.000000 0.928898 0.885982
0.000000 0.375343 0.000000
0.000000 0.374628 0.000000
0.000000 0.373624 0.000000
0.000000 0.372207 0.000000
0.000000 0.371368 0.000000
0.000000 0.369807 0.000000
0.000000 0.366726 0.000000
0.218657 0.360593 0.000000
0.353412 0.351116 0.000000
0.473997 0.337069 0.000000
0.592233 0.315756 0.000000
0.712329 0.286897 0.000000
0.828409 0.258383 0.000000
0.931804 0.254324 0.000000
1.000000 0.284290 0.197505
1.000000 0.348737 0.310711
1.000000 0.447494 0.397032
1.000000 0.533872 0.474856
1.000000 0.610912 0.546522
1.000000 0.681056 0.614477
1.000000 0.743760 0.678097
1.000000 0.795629 0.733042
1.000000 0.838280 0.779815
1.000000 0.873126 0.819409
1.000000 0.901474 0.852715
1.000000 0.924536 0.880656
1.000000 0.928898 0.885982
1.000000 0.928898 0.885982
1.000000 0.928898 0.885982
1.000000 0.928898 0.885982
1.000000 0.928898 0.885982
1.000000 0.928898 0.885982
1.000000 0.928898 0.885982
0.000000 0.465607 0.000000
0.000000 0.465121 0.000000
0.000000 0.464440 0.000000
0.000000 0.463484 0.000000
0.000000 0.462052 0.000000
0.000000 0.460033 0.000000
0.000000 0.456795 0.000000
0.053721 0.451520 0.000000
0.282606 0.443512 0.000000
0.428388 0.430895 0.000000
0.556312 0.412314 0.000000
0.682916 0.389443 0.000000
0.802934 0.366186 0.000000
0.914639 0.349244 0.000000
1.000000 0.357723 0.178852
1.000000 0.392620 0.301106
1.000000 0.446521 0.396165
1.000000 0.533264 0.474301
1.000000 0.610524 0.546157
1.000000 0.680801 0.614228
1.000000 0.743610 0.677937
1.000000 0.795540 0.732945
1.000000 0.838227 0.779756
1.000000 0.873094 0.819372
1.000000 0.901456 0.852693
1.000000 0.924525 0.880643
1.000000 0.928898 0.885982
1.000000 0.928898 0.885982
1.000000 0.928898 0.885982
1.000000 0.928898 0.885982
1.000000 0.928898 0.885982
1.000000 0.928898 0.885982
1.000000 0.928898 0.885982
0.000000 0.554867 0.000000
0.000000 0.554536 0.000000
0.000000 0.554071 0.000000
0.000000 0.553420 0.000000
0.000000 0.552505 0.000000
0.000000 0.551303 0.000000
0.000000 0.549160 0.000000
0.000000 0.544987 0.000000
0.132600 0.537887 0.000000
0.354528 0.527474 0.000000
0.504590 0.511679 0.000000
0.640184 0.490740 0.000000
0.767524 0.467565 0.000000
0.885644 0.446702 0.000000
0.989308 0.439126 0.168534
1.000000 0.452826 0.291980
1.000000 0.485614 0.389194
1.000000 0.532410 0.473522
1.000000 0.609980 0.545645
1.000000 0.680444 0.613881
1.000000 0.743400 0.677714
1.000000 0.795415 0.732808
1.000000 0.838153 0.779672
1.000000 0.873051 0.819322
1.000000 0.901430 0.852662
1.000000 0.924510 0.880624
1.000000 0.928898 0.885982
1.000000 0.928898 0.885982
1.000000 0.928898 0.885982
1.000000 0.928898 0.885982
1.000000 0.928898 0.885982
1.000000 0.928898 0.885982
1.000000 0.928898 0.885982
0.000000 0.641841 0.000000
0.000000 0.641585 0.000000
0.000000 0.641226 0.000000
0.000000 0.640725 0.000000
0.000000 0.640023 0.000000
0.000000 0.639038 0.000000
0.000000 0.638004 0.000000
0.000000 0.636003 0.000000
0.000000 0.631793 0.000000
0.219092 0.624248 0.000000
0.427498 0.611611 0.000000
0.581535 0.592204 0.000000
0.719263 0.568948 0.000000
0.843686 0.546454 0.000000
0.956734 0.527580 0.174988
1.000000 0.524524 0.289607
1.000000 0.538650 0.385053
1.000000 0.568293 0.469084
1.000000 0.609217 0.544928
1.000000 0.679945 0.613394
1.000000 0.743100 0.677400
1.000000 0.795241 0.732618
1.000000 0.838049 0.779556
1.000000 0.872989 0.819250
1.000000 0.901394 0.852619
1.000000 0.924488 0.880597
1.000000 0.928898 0.885982
1.000000 0.928898 0.885982
1.000000 0.928898 0.885982
1.000000 0.928898 0.885982
1.000000 0.928898 0.885982
1.000000 0.928898 0.885982
1.000000 0.928898 0.885982
0.000000 0.726646 0.000000
0.000000 0.726474 0.000000
0.000000 0.726233 0.000000
0.000000 0.725897 0.000000
0.000000 0.725426 0.000000
0.000000 0.724766 0.000000
0.000000 0.723839 0.000000
0.000000 0.722891 0.000000
0.000000 0.720832 0.000000
0.012644 0.716343 0.000000
0.311075 0.707889 0.000000
0.501059 0.693876 0.000000
0.657224 0.670050 0.000000
0.791000 0.644882 0.093130
0.909329 0.622656 0.206266
0.997824 0.606213 0.302221
1.000000 0.603496 0.388794
1.000000 0.616303 0.469168
1.000000 0.642903 0.543473
1.000000 0.679244 0.612710
1.000000 0.742652 0.676946
1.000000 0.794996 0.732351
1.000000 0.837905 0.779393
1.000000 0.872904 0.819151
1.000000 0.901343 0.852558
1.000000 0.924458 0.880560
1.000000 0.928898 0.885982
1.000000 0.928898 0.885982
1.000000 0.928898 0.885982
1.000000 0.928898 0.885982
1.000000 0.928898 0.885982
1.000000 0.928898 0.885982
1.000000 0.928898 0.885982
0.000000 0.807220 0.000000
0.000000 0.807105 0.000000
0.000000 0.806945 0.000000
0.000000 0.806722 0.000000
0.000000 0.806409 0.000000
0.000000 0.805970 0.000000
0.000000 0.805356 0.000000
0.000000 0.804494 0.000000
0.000000 0.803297 0.000000
0.000000 0.800716 0.000000
0.154051 0.795558 0.000000
0.398436 0.786076 0.000000
0.574202 0.770963 0.000000
0.725921 0.743760 0.127345
0.853229 0.716146 0.242331
0.962468 0.693790 0.331995
1.000000 0.678548 0.407837
1.000000 0.675837 0.479316
1.000000 0.686986 0.548615
1.000000 0.710627 0.614617
1.000000 0.742229 0.676329
1.000000 0.794654 0.731978
1.000000 0.837702 0.779165
1.000000 0.872784 0.819012
1.000000 0.901272 0.852474
1.000000 0.924416 0.880509
1.000000 0.928898 0.885982
1.000000 0.928898 0.885982
1.000000 0.928898 0.885982
1.000000 0.928898 0.885982
1.000000 0.928898 0.885982
1.000000 0.928898 0.885982
1.000000 0.928898 0.885982
0.000000 0.881566 0.141287
0.000000 0.881492 0.141123
0.000000 0.881388 0.140893
0.000000 0.881243 0.140571
0.000000 0.881040 0.140119
0.000000 0.880756 0.139484
0.000000 0.880358 0.138588
0.000000 0.879801 0.137322
0.000000 0.879020 0.135521
0.000000 0.877200 0.131705
0.000000 0.873784 0.128246
0.285698 0.867493 0.126806
0.481334 0.856438 0.134772
0.645045 0.839512 0.166517
0.787045 0.809440 0.276919
0.904427 0.780524 0.367024
0.992220 0.757689 0.437232
1.000000 0.742751 0.500236
1.000000 0.739780 0.561578
1.000000 0.749085 0.621629
1.000000 0.768960 0.678749
1.000000 0.794545 0.731453
1.000000 0.837419 0.778846
1.000000 0.872616 0.818818
1.000000 0.901172 0.852355
1.000000 0.924357 0.880437
1.000000 0.928898 0.885982
1.000000 0.928898 0.885982
1.000000 0.928898 0.885982
1.000000 0.928898 0.885982
1.000000 0.928898 0.885982
1.000000 0.928898 0.885982
1.000000 0.928898 0.885982
0.000000 0.947498 0.272331
0.000000 0.947451 0.272242
0.000000 0.947386 0.272116
0.000000 0.947294 0.271940
0.000000 0.947166 0.271694
0.000000 0.946988 0.271350
0.000000 0.946737 0.270867
0.000000 0.946387 0.270190
0.000000 0.945896 0.269238
0.000000 0.945182 0.267886
0.000000 0.942510 0.266015
0.173577 0.937830 0.265411
0.396059 0.929862 0.269081
0.558822 0.917109 0.283111
0.709746 0.897979 0.317151
0.839849 0.865392 0.398487
0.944946 0.835595 0.471394
1.000000 0.812760 0.529407
1.000000 0.798029 0.581782
1.000000 0.794125 0.634009
1.000000 0.801289 0.685434
1.000000 0.817022 0.733871
1.000000 0.837486 0.778478
1.000000 0.872381 0.818545
1.000000 0.901033 0.852190
1.000000 0.924274 0.880336
1.000000 0.928898 0.885982
1.000000 0.928898 0.885982
1.000000 0.928898 0.885982
1.000000 0.928898 0.885982
1.000000 0.928898 0.885982
1.000000 0.928898 0.885982
1.000000 0.928898 0.885982
0.000000 0.999469 0.374274
0.000000 0.999443 0.374220
0.000000 0.999407 0.374145
0.000000 0.999356 0.374040
0.000000 0.999286 0.373893
0.000000 0.999187 0.373687
0.000000 0.999048 0.373404
0.000000 0.998851 0.373011
0.000000 0.998576 0.372461
0.000000 0.998192 0.371688
0.000000 0.997648 0.370594
0.113455 0.996724 0.370547
0.335618 0.991267 0.372276
0.488965 0.981460 0.378656
0.630557 0.966524 0.395164
0.767354 0.945244 0.430819
0.883887 0.911188 0.500482
0.975126 0.881114 0.561731
1.000000 0.858643 0.609669
1.000000 0.844343 0.652929
1.000000 0.839403 0.696834
1.000000 0.844198 0.740016
1.000000 0.856290 0.780702
1.000000 0.872502 0.818205
1.000000 0.900839 0.851958
1.000000 0.924159 0.880194
1.000000 0.928898 0.885982
1.000000 0.928898 0.885982
1.000000 0.928898 0.885982
1.000000 0.928898 0.885982
1.000000 0.928898 0.885982
1.000000 0.928898 0.885982
1.000000 0.928898 0.885982
0.148252 1.000000 0.461092
0.148120 1.000000 0.461057
0.147935 1.000000 0.461009
0.147676 1.000000 0.460940
0.147314 1.000000 0.460844
0.146806 1.000000 0.460711
0.146093 1.000000 0.460524
0.145088 1.000000 0.460262
0.143670 1.000000 0.459896
0.141655 1.000000 0.459383
0.138776 1.000000 0.458664
0.156165 1.000000 0.457787
0.319313 1.000000 0.458779
0.447030 1.000000 0.462181
0.570902 1.000000 0.471191
0.695741 0.997983 0.492617
0.817460 0.981400 0.528653
0.918955 0.947162 0.588359
0.990822 0.917744 0.639481
1.000000 0.895989 0.678718
1.000000 0.882056 0.714144
1.000000 0.876379 0.750455
1.000000 0.879099 0.786273
1.000000 0.888302 0.820227
1.000000 0.901013 0.851690
1.000000 0.923997 0.879997
1.000000 0.928898 0.885982
1.000000 0.928898 0.885982
1.000000 0.928898 0.885982
1.000000 0.928898 0.885982
1.000000 0.928898 0.885982
1.000000 0.928898 0.885982
1.000000 0.928898 0.885982
0.345498 1.000000 0.536860
0.345461 1.000000 0.536838
0.345410 1.000000 0.536807
0.345337 1.000000 0.536765
0.345237 1.000000 0.536705
0.345096 1.000000 0.536622
0.344900 1.000000 0.536505
0.344625 1.000000 0.536342
0.344240 1.000000 0.536113
0.343700 1.000000 0.535794
0.342945 1.000000 0.535346
0.341883 1.000000 0.534719
0.350451 1.000000 0.534094
0.442211 1.000000 0.536474
0.539879 1.000000 0.542138
0.645238 1.000000 0.555409
0.754522 1.000000 0.580931
0.859781 1.000000 0.612742
0.946079 0.974492 0.663404
0.995377 0.946476 0.705721
1.000000 0.925799 0.737392
1.000000 0.912230 0.766163
1.000000 0.906151 0.795518
1.000000 0.907398 0.825188
1.000000 0.914201 0.853449
1.000000 0.924150 0.879760
1.000000 0.928898 0.885982
1.000000 0.928898 0.885982
1.000000 0.928898 0.885982
1.000000 0.928898 0.885982
1.000000 0.928898 0.885982
1.000000 0.928898 0.885982
1.000000 0.928898 0.885982
0.466487 1.000000 0.604874
0.466467 1.000000 0.604860
0.466439 1.000000 0.604840
0.466400 1.000000 0.604812
0.466345 1.000000 0.604774
0.466269 1.000000 0.604720
0.466163 1.000000 0.604645
0.466014 1.000000 0.604540
0.465806 1.000000 0.604392
0.465515 1.000000 0.604187
0.465107 1.000000 0.603899
0.464536 1.000000 0.603495
0.463736 1.000000 0.602930
0.470864 1.000000 0.602608
0.540844 1.000000 0.606959
0.622455 1.000000 0.616119
0.713012 1.000000 0.633263
0.804830 1.000000 0.656388
0.894596 1.000000 0.683904
0.967041 0.993001 0.726591
0.998939 0.968526 0.761481
1.000000 0.949182 0.786815
1.000000 0.936167 0.809396
1.000000 0.930092 0.833359
1.000000 0.930211 0.857854
1.000000 0.935150 0.881351
1.000000 0.929369 0.886045
1.000000 0.928898 0.885982
1.000000 0.928898 0.885982
1.000000 0.928898 0.885982
1.000000 0.928898 0.885982
1.000000 0.928898 0.885982
1.000000 0.928898 0.885982
0.566505 1.000000 0.668490
0.566492 1.000000 0.668480
0.566474 1.000000 0.668466
0.566450 1.000000 0.668448
0.566415 1.000000 0.668422
0.566367 1.000000 0.668385
0.566300 1.000000 0.668334
0.566206 1.000000 0.668263
0.566075 1.000000 0.668163
0.565891 1.000000 0.668023
0.565634 1.000000 0.667829
0.565275 1.000000 0.667556
0.564772 1.000000 0.667173
0.564066 1.000000 0.666637
0.570417 1.000000 0.666705
0.628160 1.000000 0.673551
0.696143 1.000000 0.684640
0.770156 1.000000 0.699986
0.846801 1.000000 0.719888
0.922161 1.000000 0.743443
0.981258 0.998016 0.779249
1.000000 0.984231 0.807877
1.000000 0.967347 0.827804
1.000000 0.955151 0.845573
1.000000 0.949175 0.865028
1.000000 0.948442 0.885155
1.000000 0.942949 0.888580
1.000000 0.929603 0.886101
1.000000 0.928898 0.885982
1.000000 0.928898 0.885982
1.000000 0.928898 0.885982
1.000000 0.928898 0.885982
1.000000 0.928898 0.885982
0.653417 1.000000 0.727835
0.653409 1.000000 0.727829
0.653398 1.000000 0.727820
0.653382 1.000000 0.727808
0.653361 1.000000 0.727791
0.653331 1.000000 0.727767
0.653289 1.000000 0.727734
0.653231 1.000000 0.727687
0.653149 1.000000 0.727622
0.653035 1.000000 0.727530
0.652875 1.000000 0.727403
0.652652 1.000000 0.727225
0.652340 1.000000 0.726975
0.651902 1.000000 0.726625
0.651289 1.000000 0.726136
0.656508 1.000000 0.726349
0.702592 1.000000 0.733173
0.756777 1.000000 0.742750
0.817208 1.000000 0.755838
0.881271 1.000000 0.772915
0.944131 1.000000 0.792943
0.991183 1.000000 0.822855
1.000000 0.993486 0.846192
1.000000 0.981247 0.861653
1.000000 0.970133 0.875687
1.000000 0.964274 0.891420
1.000000 0.958508 0.894045
1.000000 0.948022 0.889840
1.000000 0.929922 0.886135
1.000000 0.928898 0.885982
1.000000 0.928898 0.885982
1.000000 0.928898 0.885982
1.000000 0.928898 0.885982
0.723686 1.000000 0.778488
0.723681 1.000000 0.778484
0.723675 1.000000 0.778479
0.723666 1.000000 0.778471
0.723653 1.000000 0.778461
0.723636 1.000000 0.778447
0.723612 1.000000 0.778427
0.723578 1.000000 0.778400
0.723530 1.000000 0.778361
0.723464 1.000000 0.778307
0.723371 1.000000 0.778232
0.723242 1.000000 0.778126
0.723061 1.000000 0.777979
0.722807 1.000000 0.777772
0.722452 1.000000 0.777483
0.721955 1.000000 0.777079
0.726282 1.000000 0.777355
0.762620 1.000000 0.783082
0.806280 1.000000 0.791190
0.855770 1.000000 0.802319
0.909234 1.000000 0.816926
0.961546 1.000000 0.833840
0.998580 1.000000 0.858788
1.000000 0.999817 0.877420
1.000000 0.991670 0.889568
1.000000 0.981924 0.900727
1.000000 0.975893 0.902627
1.000000 0.967932 0.898006
1.000000 0.954652 0.891732
1.000000 0.930368 0.886171
1.000000 0.928898 0.885982
1.000000 0.928898 0.885982
1.000000 0.928898 0.885982
0.779676 1.000000 0.820454
0.779673 1.000000 0.820452
0.779670 1.000000 0.820449
0.779665 1.000000 0.820445
0.779659 1.000000 0.820440
0.779650 1.000000 0.820432
0.779637 1.000000 0.820421
0.779620 1.000000 0.820405
0.779595 1.000000 0.820384
0.779561 1.000000 0.820354
0.779513 1.000000 0.820312
0.779446 1.000000 0.820253
0.779352 1.000000 0.820171
0.779222 1.000000 0.820057
0.779038 1.000000 0.819896
0.778782 1.000000 0.819672
0.778423 1.000000 0.819357
0.781972 1.000000 0.819604
0.811250 1.000000 0.824492
0.846617 1.000000 0.831313
0.887300 1.000000 0.840787
0.931373 1.000000 0.853134
0.975235 1.000000 0.867542
1.000000 1.000000 0.888281
1.000000 1.000000 0.903116
1.000000 0.998062 0.912659
1.000000 0.993452 0.914071
1.000000 0.988111 0.909973
1.000000 0.979082 0.903644
1.000000 0.963076 0.894605
1.000000 0.930979 0.886298
1.000000 0.928898 0.885982
1.000000 0.928898 0.885982
0.824366 1.000000 0.855025
0.824365 1.000000 0.855024
0.824363 1.000000 0.855022
0.824360 1.000000 0.855020
0.824356 1.000000 0.855016
0.824351 1.000000 0.855011
0.824344 1.000000 0.855005
0.824334 1.000000 0.854996
0.824319 1.000000 0.854983
0.824299 1.000000 0.854965
0.824271 1.000000 0.854939
0.824232 1.000000 0.854904
0.824178 1.000000 0.854855
0.824102 1.000000 0.854786
0.823995 1.000000 0.854690
0.823846 1.000000 0.854556
0.823638 1.000000 0.854368
0.823346 1.000000 0.854104
0.826281 1.000000 0.854315
0.850183 1.000000 0.858461
0.879277 1.000000 0.864303
0.912840 1.000000 0.872341
0.949296 1.000000 0.882912
0.985999 1.000000 0.895194
1.000000 1.000000 0.912228
1.000000 1.000000 0.924264
1.000000 1.000000 0.926920
1.000000 1.000000 0.923931
1.000000 0.997779 0.919222
1.000000 0.991557 0.911406
1.000000 0.973334 0.898958
1.000000 0.931796 0.886422
1.000000 0.928898 0.885982
0.860502 1.000000 0.883617
0.860501 1.000000 0.883616
0.860500 1.000000 0.883615
0.860499 1.000000 0.883614
0.860496 1.000000 0.883612
0.860493 1.000000 0.883609
0.860489 1.000000 0.883605
0.860483 1.000000 0.883599
0.860475 1.000000 0.883592
0.860463 1.000000 0.883581
0.860446 1.000000 0.883565
0.860423 1.000000 0.883544
0.860391 1.000000 0.883515
0.860346 1.000000 0.883473
0.860284 1.000000 0.883415
0.860196 1.000000 0.883334
0.860073 1.000000 0.883221
0.859901 1.000000 0.883062
0.859661 1.000000 0.882840
0.862120 1.000000 0.883036
0.881610 1.000000 0.886507
0.905774 1.000000 0.891486
0.933633 1.000000 0.898319
0.963834 1.000000 0.907220
0.994658 1.000000 0.917753
1.000000 1.000000 0.931834
1.000000 1.000000 0.937514
1.000000 1.000000 0.935862
1.000000 1.000000 0.933342
1.000000 1.000000 0.929066
1.000000 0.999623 0.920930
1.000000 0.985428 0.905572
1.000000 0.932965 0.886599
0.877418 1.000000 0.899901
0.877418 1.000000 0.899901
0.877418 1.000000 0.899901
0.877418 1.000000 0.899901
0.877418 1.000000 0.899900
0.877418 1.000000 0.899900
0.877419 1.000000 0.899899
0.877419 1.000000 0.899898
0.877420 1.000000 0.899897
0.877420 1.000000 0.899895
0.877422 1.000000 0.899892
0.877423 1.000000 0.899888
0.877426 1.000000 0.899883
0.877429 1.000000 0.899875
0.877433 1.000000 0.899865
0.877439 1.000000 0.899851
0.877448 1.000000 0.899830
0.877460 1.000000 0.899802
