Assets/Data/Textures/70 CGC LUTs/LUTs_AgX_Filmic_ViewTransforms/ARRILogC4AWG4-to-AgX-Resolve-Default-sRGB.cube
#  Baked from the PixelManager OCIO config by Joe Genco
#  https://github.com/Joegenco/PixelManager
#  Input Gamma: Arri LogC4
#  Input Color Space: Arri Wide Gamut 4
#  floating point data (range 0.0 - 1.0)   
#       
#  Output Gamma: Gamma 2.2 (Display)
#  Output Color Space: Rec.709
#  floating point data (range 0.0 - 1.0)
LUT_3D_SIZE 9
0.000000 0.000000 0.000000
0.113150 0.000000 0.000000
0.468581 0.000000 0.000000
0.881654 0.000000 0.131388
1.027167 0.535829 0.418919
1.042083 0.787844 0.721319
1.045707 0.904090 0.871155
1.043522 0.926806 0.899656
1.043522 0.926806 0.899656
0.000000 0.072827 0.000000
0.088504 0.073848 0.000000
0.462186 0.000000 0.000000
0.880248 0.000000 0.130496
1.027116 0.535355 0.418418
1.042082 0.787792 0.721252
1.045707 0.904083 0.871146
1.043522 0.926806 0.899656
1.043522 0.926806 0.899656
0.000000 0.368623 0.000000
0.000000 0.366455 0.000000
0.375410 0.360225 0.000000
0.847374 0.345536 0.000000
1.026923 0.533536 0.416496
1.042078 0.787595 0.720993
1.045706 0.904055 0.871111
1.043522 0.926806 0.899656
1.043522 0.926806 0.899656
0.000000 0.777810 0.000000
0.000000 0.776627 0.000000
0.000000 0.771720 0.000000
0.698188 0.745248 0.000000
0.964398 0.728156 0.396772
1.042060 0.786799 0.719966
1.045700 0.903950 0.870978
1.043522 0.926806 0.899656
1.043522 0.926806 0.899656
0.000000 0.970305 0.327103
0.000000 0.970233 0.326288
0.000000 0.969945 0.323287
0.443253 0.949090 0.366935
0.861164 0.911261 0.524141
0.999889 0.881251 0.721925
1.045678 0.903548 0.870467
1.043522 0.926806 0.899656
1.043522 0.926806 0.899656
0.495765 1.010565 0.710077
0.495640 1.010563 0.710005
0.495164 1.010556 0.709730
0.493340 1.010530 0.708676
0.758505 0.994727 0.723144
0.942166 0.971180 0.783091
1.020808 0.953176 0.871900
1.043522 0.926806 0.899656
1.043522 0.926806 0.899656
0.777256 1.026733 0.866343
0.777245 1.026732 0.866334
0.777202 1.026731 0.866302
0.777039 1.026726 0.866178
0.776416 1.026706 0.865705
0.889482 1.017459 0.872648
0.987603 1.003899 0.901839
1.013188 0.992640 0.910741
1.043522 0.926806 0.899656
0.846049 1.020414 0.931147
0.846049 1.020414 0.931146
0.846046 1.020415 0.931141
0.846038 1.020419 0.931123
0.846008 1.020433 0.931054
0.845890 1.020488 0.930791
0.958095 1.014804 0.936869
0.999596 1.011203 0.945787
0.999886 1.013291 0.935086
0.878909 1.009431 0.978307
0.878909 1.009431 0.978307
0.878907 1.009431 0.978306
0.878903 1.009432 0.978302
0.878886 1.009437 0.978286
0.878820 1.009454 0.978224
0.878570 1.009522 0.977987
0.999615 1.003050 0.981489
0.999574 1.003683 0.978446
0.000000 0.000000 0.081768
0.127151 0.000000 0.091877
0.474291 0.000000 0.125105
0.880984 0.000000 0.214410
1.026711 0.534260 0.433425
1.042083 0.787846 0.721322
1.045707 0.904090 0.871156
1.043522 0.926806 0.899656
1.043522 0.926806 0.899656
0.000000 0.095619 0.082921
0.092514 0.092513 0.092521
0.466424 0.000000 0.127272
0.879536 0.000000 0.219065
1.026556 0.533483 0.435889
1.042082 0.787795 0.721255
1.045707 0.904083 0.871147
1.043522 0.926806 0.899656
1.043522 0.926806 0.899656
0.000000 0.381788 0.000000
0.000000 0.379486 0.000000
0.376035 0.370038 0.000000
0.845236 0.349426 0.177307
1.026011 0.530488 0.444589
1.042078 0.787597 0.720996
1.045706 0.904056 0.871112
1.043522 0.926806 0.899656
1.043522 0.926806 0.899656
0.000000 0.775491 0.000000
0.000000 0.774388 0.000000
0.000000 0.768700 0.000000
0.697930 0.741043 0.000000
0.963411 0.723711 0.441000
1.042060 0.786802 0.719969
1.045700 0.903950 0.870978
1.043522 0.926806 0.899656
1.043522 0.926806 0.899656
0.000000 0.965436 0.378674
0.000000 0.965355 0.378077
0.000000 0.965046 0.375785
0.446645 0.944578 0.409958
0.861148 0.908251 0.544136
0.999733 0.880271 0.727196
1.045678 0.903548 0.870468
1.043522 0.926806 0.899656
1.043522 0.926806 0.899656
0.497825 1.009465 0.715112
0.497701 1.009462 0.715043
0.497232 1.009453 0.714780
0.495431 1.009419 0.713771
0.758818 0.993778 0.727575
0.942160 0.970685 0.785308
1.020787 0.953053 0.872501
1.043522 0.926806 0.899656
1.043522 0.926806 0.899656
0.777447 1.026567 0.866954
0.777436 1.026566 0.866945
0.777393 1.026565 0.866913
0.777230 1.026559 0.866790
0.776609 1.026539 0.866322
0.889520 1.017319 0.873188
0.987602 1.003819 0.902154
1.013182 0.992579 0.910994
1.043522 0.926806 0.899656
0.846112 1.020384 0.931289
0.846112 1.020384 0.931288
0.846110 1.020385 0.931283
0.846102 1.020389 0.931265
0.846071 1.020404 0.931197
0.845954 1.020458 0.930934
0.958097 1.014781 0.936985
0.999593 1.011186 0.945877
0.999883 1.013268 0.935210
0.878944 1.009421 0.978341
0.878944 1.009421 0.978341
0.878943 1.009421 0.978339
0.878938 1.009423 0.978335
0.878921 1.009427 0.978319
0.878856 1.009445 0.978257
0.878605 1.009512 0.978021
0.999615 1.003045 0.981517
0.999575 1.003677 0.978478
0.000000 0.000000 0.376587
0.159322 0.000000 0.381187
0.492060 0.000000 0.397026
0.877271 0.000000 0.445269
1.021258 0.519606 0.561579
1.041409 0.785553 0.735212
1.045707 0.904092 0.871157
1.043522 0.926806 0.899656
1.043522 0.926806 0.899656
0.000000 0.000000 0.376676
0.081888 0.000000 0.380464
0.476990 0.000000 0.396255
0.875836 0.000000 0.448088
1.021106 0.518950 0.562976
1.041389 0.785441 0.735516
1.045707 0.904084 0.871148
1.043522 0.926806 0.899656
1.043522 0.926806 0.899656
0.000000 0.390285 0.358760
0.000000 0.387911 0.360882
0.376883 0.376877 0.376910
0.836685 0.351237 0.432572
1.020538 0.516460 0.568032
1.041315 0.785031 0.736577
1.045706 0.904057 0.871113
1.043522 0.926806 0.899656
1.043522 0.926806 0.899656
0.000000 0.760169 0.311125
0.000000 0.759121 0.310796
0.000000 0.752071 0.324824
0.697211 0.722788 0.396565
0.959777 0.711173 0.554135
1.041035 0.783425 0.740640
1.045700 0.903952 0.870980
1.043522 0.926806 0.899656
1.043522 0.926806 0.899656
0.000000 0.950188 0.501991
0.000000 0.950113 0.501674
0.000000 0.949754 0.500480
0.458903 0.930464 0.519082
0.861094 0.898574 0.604019
0.999168 0.876932 0.745255
1.045678 0.903550 0.870470
1.043522 0.926806 0.899656
1.043522 0.926806 0.899656
0.504325 1.006066 0.730384
0.504207 1.006062 0.730326
0.503757 1.006044 0.730104
0.502032 1.005979 0.729257
0.759972 0.990757 0.741421
0.942166 0.968802 0.793554
1.020699 0.952505 0.875051
1.043522 0.926806 0.899656
1.043522 0.926806 0.899656
0.778148 1.025957 0.869196
0.778137 1.025956 0.869188
0.778095 1.025954 0.869157
0.777934 1.025948 0.869039
0.777317 1.025923 0.868587
0.889663 1.016803 0.875171
0.987600 1.003546 0.903234
1.013166 0.992332 0.911993
1.043522 0.926806 0.899656
0.846352 1.020273 0.931823
0.846351 1.020273 0.931822
0.846349 1.020274 0.931817
0.846341 1.020278 0.931800
0.846311 1.020292 0.931732
0.846195 1.020346 0.931474
0.958106 1.014696 0.937422
0.999585 1.011118 0.946219
0.999869 1.013178 0.935672
0.879079 1.009385 0.978468
0.879079 1.009385 0.978468
0.879078 1.009385 0.978467
0.879073 1.009386 0.978462
0.879056 1.009391 0.978446
0.878991 1.009409 0.978385
0.878742 1.009476 0.978150
0.999617 1.003022 0.981624
0.999576 1.003652 0.978598
0.000000 0.000000 0.742731
0.140185 0.000000 0.743283
0.510672 0.000000 0.745090
0.856868 0.000000 0.750319
1.003027 0.520949 0.751023
1.037326 0.777323 0.796512
1.045267 0.902761 0.878692
1.043522 0.926806 0.899656
1.043522 0.926806 0.899656
0.000000 0.183270 0.737838
0.000000 0.177321 0.738403
0.487137 0.151311 0.740027
0.847082 0.152263 0.746344
1.002872 0.520600 0.751439
1.037306 0.777247 0.796677
1.045263 0.902744 0.878737
1.043522 0.926806 0.899656
1.043522 0.926806 0.899656
0.000000 0.448323 0.719465
0.000000 0.445201 0.719933
0.385966 0.433575 0.721950
0.805264 0.423460 0.729362
1.002285 0.519285 0.752904
1.037231 0.776959 0.797298
1.045248 0.902683 0.878907
1.043522 0.926806 0.899656
1.043522 0.926806 0.899656
0.000000 0.729082 0.684399
0.000000 0.728163 0.684475
0.000000 0.720079 0.686336
0.696542 0.696533 0.696593
0.947887 0.697966 0.730524
1.036948 0.775830 0.799549
1.045196 0.902460 0.879482
1.043522 0.926806 0.899656
1.043522 0.926806 0.899656
0.000000 0.917124 0.690037
0.000000 0.917019 0.689963
0.000000 0.916618 0.689682
0.498913 0.900461 0.695198
0.860807 0.877198 0.724843
0.997051 0.868529 0.794415
1.045010 0.901636 0.881506
1.043522 0.926806 0.899656
1.043522 0.926806 0.899656
0.528806 0.995313 0.776229
0.528705 0.995303 0.776195
0.528318 0.995267 0.776066
0.526839 0.995130 0.775570
0.764271 0.981340 0.783256
0.942152 0.962978 0.819082
1.020376 0.950703 0.883679
1.043501 0.926749 0.899984
1.043522 0.926806 0.899656
0.780542 1.023939 0.876571
0.780532 1.023938 0.876565
0.780491 1.023935 0.876538
0.780335 1.023924 0.876438
0.779739 1.023881 0.876056
0.890241 1.015034 0.881912
0.987604 1.002493 0.907327
1.013104 0.991474 0.915526
1.043522 0.926806 0.899656
0.847230 1.019862 0.933786
0.847230 1.019862 0.933785
0.847228 1.019863 0.933781
0.847221 1.019866 0.933764
0.847192 1.019880 0.933700
0.847083 1.019931 0.933456
0.958173 1.014282 0.939074
0.999553 1.010872 0.947467
0.999819 1.012861 0.937306
0.879587 1.009248 0.978947
0.879587 1.009248 0.978947
0.879586 1.009248 0.978946
0.879581 1.009249 0.978942
0.879564 1.009254 0.978926
0.879500 1.009271 0.978865
0.879255 1.009337 0.978634
0.999622 1.002938 0.982028
0.999582 1.003558 0.979052
0.290935 0.616150 0.898066
0.375319 0.613789 0.897970
0.551003 0.606974 0.897681
0.782456 0.598907 0.896986
0.959986 0.628199 0.895212
1.024461 0.780745 0.887604
1.042854 0.898635 0.909020
1.042502 0.924315 0.914499
1.043522 0.926806 0.899656
0.269909 0.628509 0.896322
0.360258 0.625968 0.896256
0.542663 0.618764 0.896042
0.777640 0.610493 0.895391
0.958854 0.631401 0.894800
1.024439 0.780711 0.887658
1.042851 0.898625 0.909040
1.042501 0.924312 0.914520
1.043522 0.926806 0.899656
0.208772 0.668643 0.890309
0.301992 0.666571 0.890290
0.511081 0.659494 0.890114
0.761006 0.648582 0.889946
0.948739 0.662040 0.890327
1.024355 0.780580 0.887860
1.042839 0.898586 0.909116
1.042495 0.924300 0.914599
1.043522 0.926806 0.899656
0.177266 0.761872 0.874745
0.177105 0.761445 0.874816
0.404492 0.755816 0.874910
0.710909 0.742575 0.875363
0.919176 0.740378 0.878203
1.024034 0.780059 0.888625
1.042793 0.898438 0.909403
1.042472 0.924255 0.914894
1.043522 0.926806 0.899656
0.334574 0.885428 0.854781
0.334303 0.885323 0.854789
0.333265 0.884919 0.854820
0.597183 0.874669 0.855611
0.860292 0.860281 0.860355
0.990064 0.861115 0.876582
1.042622 0.897875 0.910451
1.042390 0.924095 0.915959
1.043522 0.926806 0.899656
0.597340 0.974630 0.857516
0.597275 0.974615 0.857507
0.597026 0.974557 0.857472
0.596074 0.974335 0.857342
0.778738 0.963549 0.859961
0.942020 0.950958 0.873967
1.019189 0.946152 0.907981
1.042061 0.923526 0.920019
1.043522 0.926806 0.899656
0.789556 1.017739 0.898793
0.789547 1.017738 0.898788
0.789510 1.017733 0.898771
0.789369 1.017712 0.898706
0.788832 1.017634 0.898457
0.892334 1.009700 0.902241
0.987589 0.999262 0.920196
1.012854 0.988816 0.926795
1.043412 0.926493 0.901398
0.850192 1.018472 0.940383
0.850192 1.018472 0.940382
0.850190 1.018473 0.940378
0.850184 1.018476 0.940365
0.850161 1.018487 0.940312
0.850070 1.018530 0.940111
0.958477 1.012852 0.944827
0.999447 1.009978 0.951981
0.999663 1.011724 0.943139
0.881453 1.008744 0.980708
0.881453 1.008744 0.980707
0.881452 1.008744 0.980707
0.881448 1.008746 0.980703
0.881432 1.008750 0.980687
0.881371 1.008766 0.980630
0.881139 1.008829 0.980411
0.999642 1.002629 0.983509
0.999605 1.003213 0.980709
0.690506 0.824721 0.962943
0.698339 0.824313 0.962923
0.725015 0.822931 0.962845
0.794368 0.819355 0.962631
0.902995 0.815904 0.962163
0.997372 0.829309 0.960968
1.035323 0.900438 0.956676
1.037897 0.921588 0.955684
1.039965 0.921566 0.940860
0.689163 0.826048 0.962703
0.697015 0.825642 0.962683
0.723892 0.824261 0.962603
0.793478 0.820813 0.962363
0.902371 0.817140 0.961937
0.997348 0.829302 0.960979
1.035319 0.900433 0.956684
1.037896 0.921588 0.955691
1.039964 0.921565 0.940872
0.684496 0.831835 0.961631
0.692479 0.831396 0.961614
0.719353 0.829895 0.961567
0.790090 0.825983 0.961413
0.899822 0.822298 0.960988
0.996243 0.831833 0.960526
1.035305 0.900414 0.956711
1.037892 0.921589 0.955719
1.039958 0.921564 0.940916
0.674350 0.849827 0.958220
0.675958 0.849667 0.958232
0.704411 0.848151 0.958182
0.777570 0.844239 0.958034
0.891317 0.838982 0.957912
0.990462 0.845341 0.958041
1.035253 0.900342 0.956816
1.037876 0.921592 0.955823
1.039937 0.921560 0.941083
0.679766 0.893669 0.949573
0.679747 0.893611 0.949584
0.679678 0.893391 0.949625
0.741971 0.889654 0.949663
0.867511 0.882443 0.949928
0.973867 0.881534 0.951448
1.035054 0.900062 0.957211
1.037817 0.921602 0.956216
1.039857 0.921542 0.941709
0.724119 0.956062 0.938868
0.724097 0.956046 0.938869
0.724016 0.955986 0.938874
0.723704 0.955756 0.938895
0.817448 0.949667 0.939326
0.941817 0.941804 0.941885
1.015266 0.942149 0.950611
1.037550 0.921751 0.957724
1.039569 0.921480 0.943966
0.816475 1.005964 0.940396
0.816469 1.005962 0.940395
0.816443 1.005953 0.940391
0.816346 1.005920 0.940374
0.815973 1.005791 0.940309
0.899437 0.999663 0.941716
0.987491 0.992548 0.949259
1.011938 0.983322 0.953242
1.038544 0.921469 0.951378
0.860921 1.014559 0.958138
0.860920 1.014559 0.958137
0.860919 1.014559 0.958135
0.860913 1.014561 0.958127
0.860890 1.014568 0.958095
0.860805 1.014596 0.957973
0.959725 1.008698 0.960725
0.999442 1.006850 0.965051
0.999400 1.008273 0.959378
0.888316 1.007239 0.986349
0.888316 1.007239 0.986348
0.888314 1.007240 0.986348
0.888311 1.007240 0.986345
0.888296 1.007244 0.986333
0.888240 1.007255 0.986288
0.888027 1.007300 0.986118
0.999724 1.001707 0.988433
0.999683 1.002101 0.986180
0.857638 0.922939 0.999424
0.858640 0.922881 0.999421
0.862197 0.922668 0.999409
0.874522 0.921940 0.999374
0.908083 0.920105 0.999259
0.965270 0.918339 0.999016
1.019656 0.925032 0.998421
1.026854 0.935077 0.996732
1.027898 0.933364 0.994124
0.857497 0.923132 0.999385
0.858485 0.923075 0.999382
0.862057 0.922861 0.999370
0.874389 0.922135 0.999335
0.907961 0.920302 0.999220
0.965177 0.918520 0.998979
1.019652 0.925031 0.998423
1.026853 0.935078 0.996733
1.027898 0.933365 0.994126
0.856943 0.923852 0.999241
0.857876 0.923797 0.999239
0.861526 0.923582 0.999226
0.873887 0.922860 0.999189
0.907508 0.921034 0.999073
0.964829 0.919183 0.998846
1.019636 0.925027 0.998430
1.026851 0.935082 0.996739
1.027895 0.933370 0.994133
0.854777 0.926816 0.998645
0.855751 0.926753 0.998646
0.859371 0.926528 0.998640
0.871889 0.925760 0.998608
0.905825 0.923800 0.998518
0.963456 0.921829 0.998317
1.018928 0.926497 0.998148
1.026842 0.935096 0.996761
1.027885 0.933386 0.994157
0.850302 0.936194 0.996732
0.850302 0.936180 0.996735
0.851966 0.936044 0.996740
0.864843 0.935239 0.996716
0.899800 0.933150 0.996653
0.958809 0.930544 0.996579
1.015583 0.933561 0.996757
1.026809 0.935151 0.996844
1.027848 0.933446 0.994249
0.852712 0.959680 0.991881
0.852710 0.959672 0.991882
0.852702 0.959642 0.991888
0.852673 0.959526 0.991910
0.882212 0.957493 0.991930
0.945642 0.953706 0.992082
1.005989 0.953059 0.993023
1.026682 0.935357 0.997158
1.027709 0.933675 0.994598
0.872376 0.995375 0.985696
0.872373 0.995373 0.985696
0.872364 0.995364 0.985696
0.872328 0.995329 0.985700
0.872191 0.995198 0.985711
0.918915 0.991774 0.985963
0.987389 0.987376 0.987461
1.009156 0.980465 0.989343
1.027195 0.934519 0.995882
0.890646 1.006749 0.988212
0.890646 1.006749 0.988212
0.890645 1.006749 0.988211
0.890642 1.006750 0.988208
0.890628 1.006752 0.988197
0.890576 1.006763 0.988156
0.964024 1.002295 0.988868
0.999754 1.001421 0.990064
0.999715 1.001790 0.987959
0.905508 1.004268 0.998814
0.905508 1.004268 0.998814
0.905508 1.004268 0.998814
0.905508 1.004268 0.998814
0.905508 1.004268 0.998814
0.905508 1.004268 0.998814
0.905508 1.004268 0.998814
1.000004 0.999991 1.000077
0.999997 1.000024 0.999822
0.903200 0.963075 1.007614
0.903542 0.963052 1.007614
0.904824 0.962966 1.007614
0.909556 0.962660 1.007610
0.924507 0.961716 1.007600
0.958817 0.959829 1.007602
1.004935 0.959554 1.006987
1.019796 0.948671 1.008494
1.019796 0.948671 1.008494
0.903149 0.963138 1.007600
0.903494 0.963115 1.007600
0.904773 0.963029 1.007601
0.909508 0.962723 1.007597
0.924461 0.961777 1.007587
0.958780 0.959890 1.007590
1.004908 0.959607 1.006978
1.019796 0.948671 1.008494
1.019796 0.948671 1.008494
0.902956 0.963374 1.007550
0.903308 0.963351 1.007550
0.904577 0.963266 1.007551
0.909326 0.962957 1.007547
0.924292 0.962011 1.007538
0.958639 0.960118 1.007541
1.004803 0.959807 1.006947
1.019796 0.948671 1.008494
1.019796 0.948671 1.008494
0.902234 0.964252 1.007365
0.902597 0.964229 1.007364
0.903879 0.964145 1.007363
0.908644 0.963833 1.007361
0.923682 0.962884 1.007351
0.958119 0.960972 1.007359
1.004416 0.960543 1.006831
1.019796 0.948671 1.008494
1.019796 0.948671 1.008494
0.899575 0.967347 1.006706
0.899910 0.967324 1.006707
0.901265 0.967233 1.006711
0.906101 0.966913 1.006704
0.921331 0.965926 1.006701
0.956295 0.963981 1.006715
1.003016 0.963201 1.006411
1.018800 0.951363 1.008068
1.019796 0.948671 1.008494
0.894897 0.977212 1.004588
0.894896 0.977209 1.004589
0.894894 0.977194 1.004592
0.897469 0.976991 1.004595
0.913677 0.975901 1.004601
0.950163 0.973586 1.004680
0.998372 0.971822 1.005003
1.014524 0.962782 1.006241
1.019796 0.948671 1.008494
0.901822 0.998164 1.000042
0.901821 0.998163 1.000042
0.901817 0.998156 1.000044
0.901802 0.998132 1.000049
0.901745 0.998038 1.000067
0.933581 0.995719 1.000208
0.986706 0.992354 1.000953
1.005056 0.987308 1.002215
1.019796 0.948671 1.008494
0.905508 1.004268 0.998814
0.905508 1.004268 0.998814
0.905508 1.004268 0.998814
0.905508 1.004268 0.998814
0.905508 1.004268 0.998814
0.905508 1.004268 0.998814
0.967669 1.000652 0.999226
1.000004 0.999991 1.000077
1.000004 0.999991 1.000077
0.905508 1.004268 0.998814
0.905508 1.004268 0.998814
0.905508 1.004268 0.998814
0.905508 1.004268 0.998814
0.905508 1.004268 0.998814
0.905508 1.004268 0.998814
0.905508 1.004268 0.998814
1.000004 0.999991 1.000077
1.000004 0.999991 1.000077
0.921233 0.995446 1.000366
0.921423 0.995432 1.000367
0.922130 0.995383 1.000371
0.924584 0.995209 1.000383
0.933073 0.994619 1.000424
0.955670 0.993074 1.000607
0.993568 0.990928 1.001369
1.005720 0.985622 1.002496
1.019796 0.948671 1.008494
0.921210 0.995466 1.000362
0.921401 0.995453 1.000363
0.922109 0.995404 1.000366
0.924566 0.995229 1.000379
0.933054 0.994640 1.000420
0.955655 0.993094 1.000603
0.993557 0.990946 1.001365
1.005711 0.985644 1.002493
1.019796 0.948671 1.008494
0.921126 0.995545 1.000346
0.921317 0.995532 1.000347
0.922029 0.995482 1.000351
0.924498 0.995307 1.000364
0.932981 0.994718 1.000404
0.955597 0.993169 1.000588
0.993515 0.991017 1.001351
1.005679 0.985725 1.002479
1.019796 0.948671 1.008494
0.920815 0.995844 1.000292
0.921011 0.995830 1.000293
0.921736 0.995780 1.000296
0.924249 0.995602 1.000309
0.932706 0.995012 1.000348
0.955376 0.993455 1.000532
0.993354 0.991285 1.001299
1.005558 0.986034 1.002427
1.019796 0.948671 1.008494
0.919846 0.996943 1.000090
0.920019 0.996930 1.000090
0.920661 0.996884 1.000093
0.923257 0.996701 1.000107
0.931752 0.996106 1.000147
0.954641 0.994529 1.000330
0.992756 0.992290 1.001101
1.005097 0.987205 1.002232
1.019796 0.948671 1.008494
0.915938 1.000803 0.999381
0.916119 1.000790 0.999382
0.916820 1.000740 0.999385
0.919459 1.000553 0.999397
0.928345 0.999921 0.999447
0.951793 0.998266 0.999639
0.990646 0.995853 1.000434
1.003472 0.991315 1.001544
1.016281 0.958118 1.006991
0.905508 1.004268 0.998814
0.905508 1.004268 0.998814
0.905508 1.004268 0.998814
0.905508 1.004268 0.998814
0.911719 1.003863 0.998826
0.942001 1.001977 0.998966
0.986143 1.000057 0.999604
1.000004 0.999991 1.000077
1.005852 0.985285 1.002552
0.905508 1.004268 0.998814
0.905508 1.004268 0.998814
0.905508 1.004268 0.998814
0.905508 1.004268 0.998814
0.905508 1.004268 0.998814
0.905508 1.004268 0.998814
0.971171 1.000501 0.999278
1.000004 0.999991 1.000077
1.000004 0.999991 1.000077
0.905508 1.004268 0.998814
0.905508 1.004268 0.998814
0.905508 1.004268 0.998814
0.905508 1.004268 0.998814
0.905508 1.004268 0.998814
0.905508 1.004268 0.998814
0.905508 1.004268 0.998814
1.000004 0.999991 1.000077
1.000004 0.999991 1.000077
