Assets/Data/Textures/70 CGC LUTs/LUTs_AgX_Filmic_ViewTransforms/ARRILogC4AWG4-to-JP2499DRT-PrintV3-sRGB.cube
#  Baked from the PixelManager OCIO config by Joe Genco
#  https://github.com/Joegenco/PixelManager
#  Input Gamma: Arri LogC4
#  Input Color Space: Arri Wide Gamut 4
#  floating point data (range 0.0 - 1.0)   
#       
#  Output Gamma: Gamma 2.2 (Display)
#  Output Color Space: Rec.709
#  floating point data (range 0.0 - 1.0)
LUT_3D_SIZE 9
0.025112 0.022922 0.025485
0.044167 0.023086 0.024752
0.209861 0.021331 0.017817
0.571236 0.049189 0.042546
0.839548 0.144671 0.071832
0.934511 0.516047 0.273892
0.942348 0.828648 0.649742
0.939204 0.922615 0.849388
0.937366 0.938800 0.909012
0.024323 0.042196 0.024301
0.052509 0.050666 0.021952
0.243518 0.024363 0.019394
0.579105 0.050351 0.043209
0.839951 0.145280 0.072674
0.934515 0.516309 0.276058
0.942344 0.828681 0.650120
0.939203 0.922617 0.849418
0.937366 0.938800 0.909013
0.007043 0.195823 0.006061
0.006882 0.212728 0.005881
0.293199 0.280621 0.004271
0.683328 0.124970 0.047825
0.855554 0.177710 0.074060
0.934811 0.521540 0.282905
0.942326 0.828806 0.651554
0.939201 0.922626 0.849531
0.937366 0.938803 0.909016
0.015664 0.552546 0.012286
0.015719 0.554226 0.012349
0.021538 0.634850 0.014655
0.669115 0.674017 0.006341
0.879271 0.513652 0.047403
0.937642 0.576598 0.292948
0.942256 0.832834 0.656072
0.939193 0.922661 0.849964
0.937365 0.938815 0.909025
0.256719 0.849405 0.032667
0.257585 0.849621 0.032808
0.287208 0.856741 0.035687
0.419646 0.886267 0.054828
0.864981 0.890495 0.036950
0.933667 0.845638 0.254292
0.941760 0.856526 0.666509
0.939153 0.924047 0.851363
0.937361 0.938859 0.909063
0.772660 0.938793 0.361475
0.772755 0.938800 0.361751
0.773114 0.938829 0.362794
0.789251 0.940207 0.385781
0.835116 0.944119 0.467682
0.926436 0.944627 0.516046
0.938601 0.934107 0.674690
0.938972 0.930662 0.855726
0.937407 0.940075 0.909610
0.910020 0.949640 0.705694
0.910023 0.949640 0.705729
0.910035 0.949641 0.705865
0.910080 0.949642 0.706376
0.912474 0.949701 0.720470
0.920157 0.949900 0.762132
0.936161 0.949661 0.790663
0.938101 0.947827 0.857629
0.937322 0.946422 0.910777
0.931847 0.949775 0.853104
0.931847 0.949775 0.853108
0.931848 0.949775 0.853121
0.931851 0.949774 0.853172
0.931862 0.949772 0.853363
0.932482 0.949735 0.858984
0.934141 0.949657 0.873278
0.937618 0.949538 0.881057
0.937163 0.949093 0.910012
0.932196 0.949038 0.908708
0.932196 0.949038 0.908709
0.932196 0.949038 0.908711
0.932195 0.949038 0.908722
0.932195 0.949037 0.908760
0.932194 0.949035 0.908907
0.933502 0.949104 0.910205
0.937145 0.949074 0.911175
0.937117 0.949046 0.912897
0.024728 0.023969 0.036431
0.052644 0.026463 0.049894
0.247432 0.024823 0.026992
0.588844 0.052294 0.047164
0.843258 0.150052 0.079077
0.934556 0.518516 0.292345
0.942308 0.828966 0.653062
0.939199 0.922636 0.849654
0.937365 0.938807 0.909018
0.021121 0.055400 0.054691
0.053594 0.063573 0.073793
0.295787 0.027690 0.031703
0.599381 0.053653 0.048154
0.843611 0.150559 0.079912
0.934558 0.518764 0.294324
0.942303 0.828998 0.653436
0.939198 0.922639 0.849683
0.937365 0.938808 0.909019
0.006722 0.238379 0.006560
0.006764 0.260840 0.006608
0.329343 0.315426 0.004636
0.697700 0.131527 0.051915
0.858825 0.185547 0.082291
0.934878 0.524281 0.300783
0.942286 0.829122 0.654855
0.939196 0.922648 0.849797
0.937365 0.938811 0.909022
0.016788 0.572849 0.013120
0.016860 0.574231 0.013177
0.022521 0.650152 0.015180
0.677094 0.682909 0.006619
0.881622 0.518554 0.054028
0.937699 0.578817 0.310604
0.942217 0.833187 0.659325
0.939188 0.922683 0.850229
0.937364 0.938822 0.909031
0.267010 0.852012 0.034340
0.267743 0.852203 0.034472
0.296862 0.859186 0.037218
0.426381 0.887704 0.057447
0.865854 0.891387 0.037858
0.933914 0.846233 0.277252
0.941725 0.856734 0.669651
0.939148 0.924071 0.851624
0.937361 0.938866 0.909069
0.773860 0.938891 0.364721
0.773951 0.938898 0.364953
0.774297 0.938925 0.365832
0.790282 0.940297 0.388354
0.835565 0.944168 0.469276
0.926483 0.944652 0.517046
0.938576 0.934103 0.677416
0.938967 0.930678 0.856052
0.937407 0.940082 0.909617
0.910061 0.949641 0.706122
0.910064 0.949642 0.706157
0.910076 0.949642 0.706291
0.910121 0.949643 0.706799
0.912512 0.949700 0.720852
0.920180 0.949899 0.762344
0.936162 0.949661 0.790761
0.938097 0.947825 0.857862
0.937322 0.946422 0.910781
0.931849 0.949774 0.853144
0.931849 0.949774 0.853147
0.931850 0.949774 0.853161
0.931853 0.949774 0.853211
0.931864 0.949772 0.853402
0.932484 0.949734 0.859018
0.934142 0.949656 0.873324
0.937617 0.949537 0.881064
0.937163 0.949093 0.910017
0.932196 0.949038 0.908716
0.932195 0.949038 0.908717
0.932195 0.949038 0.908719
0.932195 0.949038 0.908730
0.932195 0.949037 0.908768
0.932194 0.949035 0.908915
0.933501 0.949104 0.910210
0.937145 0.949074 0.911178
0.937117 0.949046 0.912898
0.017861 0.039319 0.150171
0.030193 0.045747 0.191834
0.279456 0.047729 0.247451
0.626651 0.067184 0.190932
0.857679 0.176161 0.160997
0.934644 0.527015 0.353543
0.942158 0.830146 0.665380
0.939181 0.922718 0.850659
0.937363 0.938834 0.909041
0.022671 0.058596 0.238143
0.026886 0.063110 0.278745
0.323947 0.057680 0.295658
0.647252 0.072417 0.205245
0.858171 0.177570 0.165458
0.934641 0.527225 0.355197
0.942153 0.830177 0.665739
0.939180 0.922720 0.850689
0.937363 0.938835 0.909042
0.002876 0.271092 0.273222
0.003478 0.285347 0.292719
0.302822 0.328830 0.353125
0.724311 0.167159 0.258327
0.872516 0.217518 0.180646
0.935027 0.533679 0.360507
0.942137 0.830296 0.667101
0.939178 0.922730 0.850802
0.937363 0.938838 0.909045
0.019424 0.623117 0.080090
0.019524 0.625214 0.088405
0.026413 0.689998 0.122440
0.698259 0.709093 0.071850
0.893177 0.536707 0.150908
0.937776 0.586586 0.370298
0.942068 0.834496 0.671399
0.939170 0.922764 0.851229
0.937362 0.938849 0.909054
0.299891 0.861065 0.043744
0.300525 0.861287 0.044158
0.328412 0.868387 0.051112
0.450909 0.894285 0.078966
0.871022 0.896771 0.072987
0.933935 0.847496 0.354827
0.941591 0.857510 0.680788
0.939130 0.924166 0.852611
0.937359 0.938893 0.909092
0.778076 0.939226 0.374857
0.778152 0.939232 0.375067
0.778442 0.939256 0.375863
0.793648 0.940625 0.397649
0.837183 0.944347 0.475004
0.926658 0.944743 0.520714
0.938486 0.934095 0.687314
0.938945 0.930740 0.857280
0.937405 0.940111 0.909640
0.910215 0.949646 0.707722
0.910218 0.949646 0.707756
0.910229 0.949647 0.707886
0.910273 0.949646 0.708378
0.912657 0.949698 0.722297
0.920265 0.949896 0.763137
0.936167 0.949662 0.791131
0.938084 0.947816 0.858749
0.937322 0.946425 0.910795
0.931858 0.949773 0.853294
0.931858 0.949773 0.853298
0.931859 0.949773 0.853311
0.931861 0.949772 0.853361
0.931872 0.949770 0.853551
0.932492 0.949733 0.859150
0.934146 0.949654 0.873496
0.937615 0.949535 0.881253
0.937163 0.949092 0.910037
0.932195 0.949038 0.908746
0.932195 0.949038 0.908747
0.932195 0.949038 0.908750
0.932195 0.949037 0.908760
0.932195 0.949037 0.908799
0.932193 0.949035 0.908945
0.933500 0.949104 0.910226
0.937145 0.949074 0.911191
0.937117 0.949046 0.912901
0.041143 0.117627 0.477100
0.043843 0.132517 0.509972
0.220752 0.175450 0.577675
0.665753 0.204384 0.595685
0.867820 0.293016 0.541842
0.933909 0.562359 0.542891
0.941637 0.834253 0.704463
0.939103 0.923106 0.854716
0.937355 0.938936 0.909128
0.044041 0.138396 0.519917
0.046093 0.152404 0.548126
0.218452 0.195183 0.607621
0.678862 0.220587 0.612962
0.870606 0.302216 0.549530
0.933900 0.562586 0.544085
0.941633 0.834281 0.704724
0.939102 0.923110 0.854751
0.937355 0.938937 0.909129
0.040301 0.281776 0.594468
0.040962 0.294244 0.612080
0.108464 0.328074 0.665752
0.712281 0.286023 0.662557
0.880358 0.337832 0.576363
0.934538 0.572797 0.550044
0.941619 0.834383 0.705716
0.939100 0.923125 0.854882
0.937355 0.938940 0.909131
0.011963 0.644284 0.600253
0.012163 0.649298 0.606034
0.015034 0.687044 0.644418
0.665170 0.712036 0.680828
0.894477 0.581167 0.627038
0.936724 0.618748 0.568951
0.941543 0.838626 0.708914
0.939089 0.923181 0.855381
0.937354 0.938951 0.909141
0.362815 0.882529 0.472971
0.362836 0.882510 0.475020
0.389016 0.887225 0.490040
0.490575 0.903512 0.545304
0.876447 0.904487 0.552836
0.933011 0.850976 0.573300
0.941120 0.860386 0.716832
0.939040 0.924678 0.857105
0.937351 0.938994 0.909178
0.791485 0.940214 0.438064
0.791544 0.940217 0.438601
0.791768 0.940231 0.440639
0.804075 0.941392 0.461117
0.843181 0.944851 0.523464
0.926924 0.944753 0.574849
0.938132 0.933999 0.724517
0.938865 0.930974 0.861850
0.937398 0.940219 0.909722
0.910764 0.949637 0.713414
0.910767 0.949637 0.713445
0.910777 0.949636 0.713561
0.910816 0.949635 0.714000
0.913178 0.949690 0.727403
0.920573 0.949885 0.765996
0.936185 0.949664 0.792488
0.938035 0.947781 0.862060
0.937320 0.946437 0.910844
0.931889 0.949767 0.853855
0.931889 0.949767 0.853859
0.931890 0.949767 0.853872
0.931893 0.949767 0.853920
0.931903 0.949765 0.854104
0.932522 0.949728 0.859654
0.934161 0.949646 0.874143
0.937603 0.949523 0.882039
0.937162 0.949091 0.910113
0.932194 0.949036 0.908862
0.932194 0.949036 0.908862
0.932194 0.949036 0.908865
0.932194 0.949036 0.908875
0.932194 0.949035 0.908913
0.932192 0.949034 0.909059
0.933493 0.949103 0.910289
0.937144 0.949073 0.911238
0.937117 0.949046 0.912913
0.049332 0.399235 0.786153
0.049010 0.409018 0.790936
0.054275 0.441492 0.806541
0.593390 0.510666 0.828897
0.870216 0.587438 0.830349
0.929578 0.689031 0.808346
0.939819 0.849207 0.804946
0.938801 0.924807 0.868832
0.937326 0.939315 0.909451
0.048594 0.411368 0.791750
0.048242 0.420725 0.796359
0.051954 0.452718 0.811593
0.593646 0.519751 0.832106
0.871286 0.592397 0.832202
0.929734 0.691194 0.809232
0.939816 0.849230 0.805077
0.938800 0.924809 0.868852
0.937326 0.939316 0.909452
0.045365 0.456941 0.808894
0.044931 0.465118 0.813020
0.044736 0.493555 0.823853
0.589416 0.550901 0.842516
0.875168 0.610964 0.838898
0.930234 0.698755 0.812310
0.939804 0.849498 0.805606
0.938798 0.924820 0.868929
0.937326 0.939319 0.909454
0.027968 0.668275 0.826027
0.027968 0.672893 0.828393
0.028527 0.688310 0.836898
0.491903 0.717883 0.855518
0.882158 0.689033 0.852841
0.931368 0.728337 0.823193
0.939744 0.854212 0.808140
0.938792 0.924859 0.869219
0.937325 0.939330 0.909463
0.426364 0.884798 0.821745
0.429599 0.885295 0.822599
0.449722 0.888424 0.827538
0.513374 0.898742 0.841529
0.862285 0.902030 0.849868
0.929463 0.864517 0.837301
0.939405 0.872786 0.815779
0.938772 0.926186 0.870367
0.937322 0.939371 0.909499
0.810166 0.939430 0.758220
0.810170 0.939427 0.758479
0.810183 0.939415 0.759464
0.821153 0.940278 0.768515
0.849650 0.943034 0.795141
0.924804 0.943020 0.808697
0.937041 0.933792 0.819608
0.938644 0.931866 0.873592
0.937372 0.940622 0.909959
0.912442 0.949429 0.746986
0.912444 0.949428 0.747049
0.912451 0.949426 0.747287
0.912477 0.949418 0.748194
0.914808 0.949489 0.758496
0.921566 0.949699 0.788745
0.936001 0.949428 0.815966
0.937889 0.947681 0.871610
0.937314 0.946483 0.911028
0.932000 0.949747 0.855849
0.932001 0.949747 0.855852
0.932001 0.949747 0.855863
0.932004 0.949747 0.855907
0.932013 0.949745 0.856072
0.932625 0.949706 0.861775
0.934216 0.949616 0.876444
0.937559 0.949479 0.884915
0.937157 0.949086 0.910398
0.932188 0.949031 0.909255
0.932188 0.949031 0.909255
0.932188 0.949031 0.909257
0.932188 0.949031 0.909262
0.932187 0.949031 0.909283
0.932184 0.949030 0.909362
0.933473 0.949099 0.910520
0.937141 0.949070 0.911416
0.937116 0.949046 0.912959
0.028572 0.758661 0.890752
0.028979 0.760536 0.891141
0.031402 0.767266 0.892507
0.264807 0.792331 0.899572
0.828030 0.825843 0.898142
0.922071 0.861534 0.896896
0.936390 0.894940 0.890971
0.938201 0.928949 0.893447
0.937228 0.940642 0.910337
0.028559 0.760858 0.891135
0.028966 0.762728 0.891523
0.031288 0.769397 0.892770
0.255132 0.794283 0.899834
0.827969 0.827121 0.898306
0.922117 0.862044 0.896994
0.936391 0.895137 0.891024
0.938201 0.928951 0.893456
0.937228 0.940643 0.910338
0.028518 0.768576 0.892331
0.028921 0.770425 0.892624
0.031378 0.776905 0.893723
0.223390 0.801270 0.900745
0.827674 0.831623 0.898886
0.922330 0.864099 0.897376
0.936394 0.895806 0.891206
0.938200 0.928960 0.893487
0.937228 0.940646 0.910339
0.034192 0.799774 0.895725
0.034723 0.801096 0.895994
0.037015 0.805498 0.897034
0.129189 0.822441 0.902835
0.825592 0.845462 0.900849
0.923017 0.871350 0.898780
0.936417 0.898297 0.891887
0.938199 0.929097 0.893649
0.937227 0.940655 0.910345
0.456564 0.893144 0.900080
0.458512 0.893505 0.900208
0.464966 0.894843 0.900700
0.488028 0.899483 0.902444
0.798015 0.903847 0.902555
0.924339 0.896660 0.901374
0.936586 0.905348 0.894404
0.938193 0.930341 0.894509
0.937224 0.940692 0.910367
0.826180 0.938957 0.891842
0.826650 0.939003 0.891923
0.828261 0.939177 0.892237
0.833168 0.939833 0.893409
0.848682 0.941686 0.897420
0.920561 0.941890 0.899711
0.935751 0.935306 0.897639
0.938127 0.934832 0.896979
0.937281 0.942030 0.910789
0.914343 0.948079 0.873898
0.914342 0.948079 0.873919
0.914341 0.948078 0.873998
0.914369 0.948076 0.874327
0.916413 0.948213 0.877195
0.921750 0.948506 0.884702
0.935030 0.948453 0.889675
0.937485 0.947417 0.897448
0.937292 0.946652 0.911674
0.932273 0.949556 0.871318
0.932274 0.949556 0.871323
0.932274 0.949556 0.871342
0.932276 0.949555 0.871414
0.932281 0.949551 0.871688
0.932853 0.949549 0.874724
0.934351 0.949526 0.883483
0.937438 0.949360 0.892751
0.937145 0.949074 0.911182
0.932158 0.949022 0.910105
0.932158 0.949022 0.910105
0.932158 0.949022 0.910107
0.932158 0.949022 0.910111
0.932157 0.949022 0.910130
0.932154 0.949021 0.910201
0.933407 0.949090 0.911159
0.937133 0.949062 0.911945
0.937114 0.949044 0.913084
0.451726 0.917648 0.915617
0.453405 0.917770 0.915621
0.460304 0.918211 0.915621
0.490986 0.919745 0.915561
0.697201 0.922244 0.913840
0.909470 0.927601 0.910562
0.934045 0.934353 0.910297
0.937365 0.939787 0.909596
0.936984 0.943810 0.912060
0.452689 0.917800 0.915627
0.454370 0.917923 0.915631
0.460975 0.918361 0.915631
0.491123 0.919894 0.915576
0.696332 0.922366 0.913871
0.909470 0.927656 0.910573
0.934048 0.934374 0.910301
0.937365 0.939795 0.909600
0.936984 0.943811 0.912060
0.456146 0.918366 0.915661
0.457721 0.918487 0.915663
0.463470 0.918918 0.915669
0.491896 0.920449 0.915626
0.693295 0.922822 0.913979
0.909471 0.927860 0.910617
0.934064 0.934457 0.910319
0.937367 0.939827 0.909613
0.936983 0.943811 0.912061
0.467892 0.920351 0.915774
0.469483 0.920473 0.915776
0.474914 0.920903 0.915785
0.500674 0.922046 0.915780
0.684867 0.924454 0.914245
0.909467 0.928579 0.910768
0.934129 0.934790 0.910387
0.937372 0.939962 0.909673
0.936983 0.943815 0.912062
0.539674 0.926639 0.915808
0.540447 0.926716 0.915809
0.543010 0.927007 0.915820
0.554600 0.928026 0.915825
0.655050 0.930377 0.915072
0.909172 0.931187 0.911206
0.934338 0.935979 0.910631
0.937394 0.940455 0.909826
0.936998 0.943918 0.912095
0.814323 0.941492 0.911833
0.814473 0.941505 0.911840
0.814979 0.941556 0.911867
0.817013 0.941745 0.911968
0.824409 0.942405 0.912311
0.904777 0.942349 0.911414
0.934639 0.940893 0.911209
0.937459 0.942289 0.910290
0.937105 0.944726 0.912334
0.915455 0.947875 0.909052
0.915474 0.947877 0.909058
0.915548 0.947881 0.909079
0.915824 0.947900 0.909160
0.916845 0.947968 0.909462
0.920151 0.948194 0.910248
0.934121 0.948148 0.910934
0.937254 0.947454 0.910881
0.937250 0.947009 0.912820
0.932216 0.949065 0.906668
0.932216 0.949065 0.906669
0.932216 0.949065 0.906673
0.932216 0.949064 0.906689
0.932228 0.949065 0.906765
0.932666 0.949095 0.907402
0.933993 0.949147 0.909059
0.937158 0.949088 0.910332
0.937120 0.949050 0.912706
0.932044 0.949005 0.912012
0.932044 0.949005 0.912012
0.932043 0.949005 0.912013
0.932043 0.949005 0.912014
0.932041 0.949005 0.912020
0.932036 0.949005 0.912042
0.933164 0.949071 0.912561
0.937116 0.949046 0.912948
0.937110 0.949039 0.913378
0.791237 0.946204 0.915917
0.791378 0.946206 0.915916
0.791906 0.946214 0.915911
0.794431 0.946234 0.915883
0.805652 0.946271 0.915727
0.876980 0.945672 0.914395
0.931668 0.945829 0.913375
0.936932 0.946619 0.913286
0.936882 0.946476 0.913238
0.791326 0.946208 0.915917
0.791467 0.946210 0.915916
0.791995 0.946218 0.915911
0.794498 0.946238 0.915883
0.805670 0.946275 0.915727
0.876912 0.945679 0.914397
0.931669 0.945832 0.913376
0.936932 0.946621 0.913287
0.936883 0.946477 0.913239
0.791662 0.946223 0.915917
0.791804 0.946225 0.915915
0.792333 0.946233 0.915910
0.794755 0.946254 0.915884
0.805739 0.946294 0.915730
0.876651 0.945702 0.914406
0.931670 0.945842 0.913378
0.936934 0.946626 0.913288
0.936884 0.946482 0.913241
0.792916 0.946278 0.915914
0.793058 0.946280 0.915913
0.793588 0.946288 0.915908
0.795710 0.946312 0.915887
0.805994 0.946363 0.915738
0.875755 0.945790 0.914439
0.931674 0.945880 0.913386
0.936940 0.946644 0.913294
0.936891 0.946501 0.913247
0.797314 0.946472 0.915889
0.797458 0.946474 0.915887
0.797994 0.946482 0.915880
0.799879 0.946510 0.915857
0.809300 0.946572 0.915723
0.873381 0.946092 0.914537
0.931687 0.946015 0.913413
0.936962 0.946707 0.913316
0.936914 0.946566 0.913268
0.827198 0.947107 0.915451
0.827265 0.947110 0.915451
0.827513 0.947121 0.915449
0.828267 0.947147 0.915446
0.831711 0.947214 0.915422
0.865058 0.947003 0.914877
0.931688 0.946480 0.913507
0.937035 0.946937 0.913390
0.936995 0.946808 0.913349
0.911718 0.948267 0.913697
0.911727 0.948267 0.913697
0.911760 0.948269 0.913698
0.911885 0.948278 0.913703
0.912385 0.948309 0.913719
0.914140 0.948415 0.913776
0.931085 0.948242 0.913588
0.937160 0.948042 0.913444
0.937155 0.947873 0.913455
0.931753 0.949003 0.913020
0.931755 0.949003 0.913021
0.931763 0.949003 0.913022
0.931791 0.949005 0.913028
0.931903 0.949011 0.913052
0.932238 0.949033 0.913131
0.933201 0.949079 0.913326
0.937110 0.949039 0.913378
0.937110 0.949039 0.913378
0.931732 0.949001 0.913016
0.931732 0.949001 0.913016
0.931732 0.949001 0.913016
0.931732 0.949001 0.913016
0.931732 0.949001 0.913016
0.931783 0.949004 0.913027
0.932900 0.949065 0.913268
0.937110 0.949039 0.913378
0.937110 0.949039 0.913378
0.916856 0.948482 0.913726
0.916862 0.948483 0.913726
0.916883 0.948484 0.913727
0.916962 0.948487 0.913731
0.917427 0.948498 0.913743
0.920372 0.948503 0.913751
0.933964 0.948288 0.913511
0.937164 0.948125 0.913438
0.937157 0.947990 0.913447
0.916884 0.948483 0.913725
0.916890 0.948483 0.913725
0.916911 0.948484 0.913726
0.916990 0.948488 0.913730
0.917454 0.948498 0.913742
0.920383 0.948504 0.913751
0.933964 0.948289 0.913511
0.937164 0.948126 0.913438
0.937158 0.947991 0.913447
0.916991 0.948485 0.913722
0.916996 0.948485 0.913723
0.917018 0.948486 0.913724
0.917097 0.948490 0.913728
0.917554 0.948500 0.913740
0.920423 0.948507 0.913750
0.933963 0.948294 0.913511
0.937164 0.948130 0.913437
0.937158 0.947996 0.913447
0.917394 0.948492 0.913712
0.917399 0.948492 0.913713
0.917421 0.948493 0.913714
0.917500 0.948497 0.913718
0.917936 0.948507 0.913730
0.920573 0.948520 0.913746
0.933960 0.948311 0.913510
0.937165 0.948146 0.913436
0.937159 0.948013 0.913445
0.918895 0.948518 0.913675
0.918900 0.948519 0.913675
0.918922 0.948520 0.913677
0.919001 0.948523 0.913680
0.919359 0.948535 0.913694
0.921134 0.948568 0.913731
0.933946 0.948375 0.913506
0.937162 0.948205 0.913432
0.937162 0.948076 0.913441
0.922828 0.948627 0.913557
0.922832 0.948627 0.913557
0.922845 0.948628 0.913558
0.922894 0.948633 0.913563
0.923073 0.948648 0.913579
0.923994 0.948700 0.913635
0.933846 0.948555 0.913496
0.937148 0.948426 0.913418
0.937156 0.948306 0.913426
0.929199 0.948900 0.913329
0.929202 0.948900 0.913329
0.929212 0.948900 0.913330
0.929249 0.948902 0.913334
0.929379 0.948907 0.913350
0.929833 0.948928 0.913409
0.933532 0.948918 0.913480
0.937122 0.948838 0.913391
0.937125 0.948801 0.913393
0.932256 0.949034 0.913134
0.932257 0.949034 0.913135
0.932262 0.949034 0.913135
0.932284 0.949035 0.913140
0.932362 0.949039 0.913156
0.932629 0.949052 0.913211
0.933562 0.949091 0.913385
0.937110 0.949039 0.913378
0.937110 0.949039 0.913378
0.931815 0.949006 0.913033
0.931816 0.949006 0.913034
0.931824 0.949007 0.913035
0.931853 0.949008 0.913041
0.931964 0.949015 0.913065
0.932278 0.949035 0.913139
0.933242 0.949080 0.913333
0.937110 0.949039 0.913378
0.937110 0.949039 0.913378
