Assets/Data/Textures/70 CGC LUTs/LUTs_AgX_Filmic_ViewTransforms/ARRILogC4AWG4-to-AgX-Blender-sRGB.cube
#  Baked from the PixelManager OCIO config by Joe Genco
#  https://github.com/Joegenco/PixelManager
#  Input Gamma: Arri LogC4
#  Input Color Space: Arri Wide Gamut 4
#  floating point data (range 0.0 - 1.0)   
#       
#  Output Gamma: Gamma 2.2 (Display)
#  Output Color Space: Rec.709
#  floating point data (range 0.0 - 1.0)
LUT_3D_SIZE 9
0.000000 0.000000 0.000001
0.129250 0.000000 0.004121
0.459158 0.002706 0.004327
0.835739 0.000000 0.167166
1.000000 0.462388 0.505237
1.000000 0.739072 0.761127
1.000000 0.893864 0.906880
1.000000 0.985640 0.992705
1.000000 1.000000 1.000000
0.000000 0.113763 0.054799
0.115933 0.112254 0.000000
0.456909 0.113472 0.000000
0.833924 0.000000 0.173405
1.000000 0.462961 0.506615
1.000000 0.739155 0.761328
1.000000 0.893876 0.906909
1.000000 0.985642 0.992708
1.000000 1.000000 1.000000
0.000000 0.398941 0.191657
0.000000 0.399046 0.177023
0.422737 0.404795 0.000000
0.826692 0.345679 0.000000
1.000000 0.463137 0.465380
1.000000 0.739471 0.762089
1.000000 0.893920 0.907016
1.000000 0.985650 0.992721
1.000000 1.000000 1.000000
0.000000 0.705118 0.340149
0.000000 0.704310 0.343395
0.077526 0.715431 0.072486
0.713032 0.684656 0.000000
0.988796 0.627385 0.476730
1.000000 0.738143 0.732830
1.000000 0.894087 0.907421
1.000000 0.985678 0.992766
1.000000 1.000000 1.000000
0.000000 0.908080 0.425047
0.000000 0.907776 0.426864
0.000000 0.907834 0.422958
0.477898 0.900900 0.383949
0.883211 0.860169 0.527936
1.000000 0.825176 0.743978
1.000000 0.893203 0.889310
1.000000 0.985786 0.992940
1.000000 1.000000 1.000000
0.543032 1.000000 0.662156
0.542428 1.000000 0.662065
0.540154 1.000000 0.661721
0.562994 0.999638 0.663762
0.745616 0.994047 0.695717
0.980488 0.965368 0.773995
1.000000 0.943798 0.896311
1.000000 0.985437 0.983013
1.000000 1.000000 1.000000
0.791210 1.000000 0.848891
0.791134 1.000000 0.848877
0.790843 1.000000 0.848825
0.789748 1.000000 0.848626
0.802196 1.000000 0.850103
0.897318 1.000000 0.868616
1.000000 1.000000 0.914187
1.000000 1.000000 0.987258
1.000000 1.000000 1.000000
0.923447 1.000000 0.957986
0.923435 1.000000 0.957983
0.923390 1.000000 0.957975
0.923217 1.000000 0.957942
0.922607 1.000000 0.957825
0.930402 1.000000 0.958804
0.987632 1.000000 0.970026
1.000000 1.000000 0.995240
1.000000 1.000000 1.000000
0.997310 1.000000 1.000000
0.997310 1.000000 1.000000
0.997310 1.000000 1.000000
0.997309 1.000000 1.000000
0.997307 1.000000 1.000000
0.997298 1.000000 1.000000
0.999396 1.000000 1.000000
1.000000 1.000000 1.000000
1.000000 1.000000 1.000000
0.000000 0.024817 0.071589
0.133517 0.000000 0.106191
0.448847 0.000000 0.162337
0.837088 0.000824 0.249220
1.000000 0.472849 0.527236
1.000000 0.740768 0.764566
1.000000 0.894104 0.907370
1.000000 0.985681 0.992762
1.000000 1.000000 1.000000
0.000000 0.121639 0.110777
0.109188 0.109187 0.109197
0.461651 0.000000 0.136174
0.836659 0.000000 0.251247
1.000000 0.472897 0.528231
1.000000 0.740848 0.764759
1.000000 0.894116 0.907398
1.000000 0.985683 0.992765
1.000000 1.000000 1.000000
0.000000 0.394203 0.228025
0.000000 0.393253 0.220398
0.404756 0.387673 0.000000
0.838824 0.314862 0.087125
1.000000 0.461065 0.477575
1.000000 0.741149 0.765491
1.000000 0.894159 0.907504
1.000000 0.985690 0.992777
1.000000 1.000000 1.000000
0.000000 0.699397 0.372920
0.000000 0.698708 0.375593
0.014249 0.710715 0.160149
0.708756 0.680695 0.000000
0.988703 0.626599 0.488542
1.000000 0.738505 0.735407
1.000000 0.894325 0.907905
1.000000 0.985719 0.992823
1.000000 1.000000 1.000000
0.000000 0.905537 0.443037
0.000000 0.905276 0.444638
0.000000 0.905544 0.439696
0.463716 0.901293 0.379676
0.882657 0.859524 0.526391
1.000000 0.825228 0.745598
1.000000 0.893433 0.889919
1.000000 0.985826 0.992996
1.000000 1.000000 1.000000
0.537046 1.000000 0.661380
0.536474 1.000000 0.661293
0.534324 1.000000 0.660966
0.558570 0.999638 0.663101
0.743977 0.994139 0.695170
0.980408 0.965271 0.773787
1.000000 0.943817 0.896586
1.000000 0.985476 0.983115
1.000000 1.000000 1.000000
0.790430 1.000000 0.848768
0.790354 1.000000 0.848755
0.790067 1.000000 0.848702
0.788988 1.000000 0.848507
0.801626 1.000000 0.850000
0.897059 1.000000 0.868529
1.000000 1.000000 0.914153
1.000000 1.000000 0.987305
1.000000 1.000000 1.000000
0.923325 1.000000 0.957965
0.923313 1.000000 0.957963
0.923267 1.000000 0.957955
0.923095 1.000000 0.957922
0.922501 1.000000 0.957808
0.930322 1.000000 0.958789
0.987593 1.000000 0.970013
1.000000 1.000000 0.995234
1.000000 1.000000 1.000000
0.997310 1.000000 1.000000
0.997310 1.000000 1.000000
0.997310 1.000000 1.000000
0.997309 1.000000 1.000000
0.997307 1.000000 1.000000
0.997298 1.000000 1.000000
0.999396 1.000000 1.000000
1.000000 1.000000 1.000000
1.000000 1.000000 1.000000
0.000000 0.102894 0.290973
0.142128 0.080289 0.339776
0.455687 0.000000 0.389459
0.842278 0.009114 0.428359
1.000000 0.483595 0.580111
1.000000 0.743399 0.774462
1.000000 0.894984 0.909182
1.000000 0.985835 0.992975
1.000000 1.000000 1.000000
0.000000 0.176410 0.327221
0.006798 0.126442 0.380403
0.460747 0.000000 0.396328
0.843370 0.008080 0.425602
1.000000 0.483583 0.580803
1.000000 0.743399 0.774580
1.000000 0.894985 0.909204
1.000000 0.985837 0.992979
1.000000 1.000000 1.000000
0.000000 0.412132 0.396589
0.000000 0.404243 0.390871
0.384493 0.384491 0.384524
0.823930 0.349447 0.406944
1.000000 0.487366 0.554410
1.000000 0.743395 0.775024
1.000000 0.894987 0.909285
1.000000 0.985844 0.992990
1.000000 1.000000 1.000000
0.000000 0.703348 0.478063
0.000000 0.703267 0.480266
0.000000 0.710389 0.397248
0.700197 0.679425 0.370657
0.983410 0.638476 0.552158
1.000000 0.744421 0.749961
1.000000 0.894998 0.909593
1.000000 0.985872 0.993036
1.000000 1.000000 1.000000
0.000000 0.902363 0.508260
0.000000 0.902395 0.509877
0.000000 0.903009 0.503177
0.457602 0.899813 0.441574
0.879865 0.858632 0.562647
1.000000 0.825585 0.751736
1.000000 0.894292 0.892185
1.000000 0.985978 0.993207
1.000000 1.000000 1.000000
0.511035 1.000000 0.660317
0.510412 1.000000 0.660330
0.508064 1.000000 0.660380
0.531226 1.000000 0.659861
0.739415 0.994270 0.696293
0.980121 0.964923 0.773042
1.000000 0.943889 0.897613
1.000000 0.985622 0.983502
1.000000 1.000000 1.000000
0.787563 1.000000 0.848317
0.787492 1.000000 0.848304
0.787220 1.000000 0.848255
0.786197 1.000000 0.848068
0.799352 1.000000 0.849603
0.896102 1.000000 0.868206
1.000000 1.000000 0.914027
1.000000 1.000000 0.987480
1.000000 1.000000 1.000000
0.922876 1.000000 0.957892
0.922866 1.000000 0.957890
0.922826 1.000000 0.957882
0.922674 1.000000 0.957853
0.922101 1.000000 0.957742
0.930020 1.000000 0.958732
0.987446 1.000000 0.969965
1.000000 1.000000 0.995211
1.000000 1.000000 1.000000
0.997310 1.000000 1.000000
0.997310 1.000000 1.000000
0.997310 1.000000 1.000000
0.997310 1.000000 1.000000
0.997307 1.000000 1.000000
0.997298 1.000000 1.000000
0.999396 1.000000 1.000000
1.000000 1.000000 1.000000
1.000000 1.000000 1.000000
0.000000 0.212738 0.632061
0.178825 0.197549 0.663115
0.439147 0.195688 0.687906
0.809051 0.237354 0.705205
0.999432 0.513694 0.696624
1.000000 0.748649 0.801485
1.000000 0.895982 0.914423
1.000000 0.986323 0.993805
1.000000 1.000000 1.000000
0.000000 0.270981 0.620817
0.014622 0.230097 0.678805
0.418602 0.211378 0.705144
0.810665 0.240797 0.707089
0.999359 0.513696 0.697017
1.000000 0.748642 0.801570
1.000000 0.895983 0.914442
1.000000 0.986323 0.993809
1.000000 1.000000 1.000000
0.000000 0.443259 0.649898
0.000000 0.424147 0.657718
0.309232 0.378100 0.729498
0.797652 0.347619 0.707673
0.999768 0.515027 0.684746
1.000000 0.748614 0.801892
1.000000 0.895984 0.914512
1.000000 0.986324 0.993823
1.000000 1.000000 1.000000
0.000000 0.715309 0.692667
0.000000 0.713451 0.691402
0.000000 0.707519 0.685336
0.678227 0.678226 0.678253
0.961257 0.675993 0.701157
1.000000 0.756210 0.787639
1.000000 0.895987 0.914780
1.000000 0.986326 0.993877
1.000000 1.000000 1.000000
0.000000 0.904867 0.656693
0.000000 0.904835 0.657351
0.000000 0.903811 0.649754
0.544300 0.889386 0.662746
0.871842 0.858247 0.692263
1.000000 0.835593 0.789319
1.000000 0.897703 0.900531
1.000000 0.986332 0.994081
1.000000 1.000000 1.000000
0.514508 0.999901 0.709782
0.514787 0.999900 0.710205
0.515846 0.999900 0.711807
0.549479 0.999206 0.713369
0.746734 0.992162 0.735028
0.978090 0.964578 0.796308
1.000000 0.944151 0.901235
1.000000 0.986168 0.984945
1.000000 1.000000 1.000000
0.776776 1.000000 0.848092
0.776702 1.000000 0.848094
0.776420 1.000000 0.848102
0.775355 1.000000 0.848130
0.787765 1.000000 0.847765
0.894043 1.000000 0.869554
1.000000 1.000000 0.913575
1.000000 1.000000 0.988133
1.000000 1.000000 1.000000
0.921366 1.000000 0.957643
0.921356 1.000000 0.957641
0.921318 1.000000 0.957634
0.921174 1.000000 0.957606
0.920631 1.000000 0.957500
0.928487 1.000000 0.958462
0.986903 1.000000 0.969786
1.000000 1.000000 0.995208
1.000000 1.000000 1.000000
0.997312 1.000000 1.000000
0.997312 1.000000 1.000000
0.997312 1.000000 1.000000
0.997311 1.000000 1.000000
0.997309 1.000000 1.000000
0.997299 1.000000 1.000000
0.999397 1.000000 1.000000
1.000000 1.000000 1.000000
1.000000 1.000000 1.000000
0.299679 0.428363 0.902605
0.357255 0.438961 0.901296
0.486885 0.456180 0.899585
0.707253 0.494361 0.896092
0.965348 0.597372 0.881218
1.000000 0.765024 0.867281
1.000000 0.898985 0.930253
1.000000 0.986957 0.997162
1.000000 1.000000 1.000000
0.232573 0.427858 0.909629
0.310059 0.438480 0.908013
0.470976 0.462710 0.904011
0.703399 0.497755 0.898563
0.965537 0.598057 0.881499
1.000000 0.765020 0.867336
1.000000 0.898984 0.930267
1.000000 0.986957 0.997165
1.000000 1.000000 1.000000
0.000000 0.477008 0.888848
0.004444 0.463209 0.900562
0.348634 0.473014 0.925138
0.685463 0.511346 0.908548
0.966188 0.600618 0.882643
1.000000 0.765138 0.866579
1.000000 0.898981 0.930319
1.000000 0.986957 0.997178
1.000000 1.000000 1.000000
0.000000 0.667998 0.885601
0.000000 0.663258 0.887452
0.000000 0.643028 0.897169
0.637169 0.672436 0.900645
0.941633 0.677096 0.877763
1.000000 0.766013 0.858708
1.000000 0.898972 0.930457
1.000000 0.986958 0.997225
1.000000 1.000000 1.000000
0.000000 0.903387 0.875634
0.000000 0.902901 0.875233
0.000000 0.900643 0.872967
0.507952 0.884559 0.866010
0.857516 0.857516 0.857532
1.000000 0.857831 0.871841
1.000000 0.904601 0.922611
1.000000 0.986960 0.997403
1.000000 1.000000 1.000000
0.535103 0.999220 0.819412
0.535107 0.999219 0.819530
0.535121 0.999216 0.819978
0.539363 0.999024 0.812433
0.791886 0.984339 0.850544
0.972815 0.964394 0.867222
1.000000 0.950656 0.923581
1.000000 0.988296 0.990022
1.000000 1.000000 1.000000
0.780914 1.000000 0.877996
0.780945 1.000000 0.878054
0.781061 1.000000 0.878271
0.781305 1.000000 0.879004
0.797726 1.000000 0.879358
0.899141 1.000000 0.892306
1.000000 1.000000 0.927771
1.000000 1.000000 0.990194
1.000000 1.000000 1.000000
0.915071 1.000000 0.957596
0.915060 1.000000 0.957597
0.915016 1.000000 0.957598
0.914851 1.000000 0.957602
0.914228 1.000000 0.957620
0.921740 1.000000 0.957333
0.985705 1.000000 0.970797
1.000000 1.000000 0.995222
1.000000 1.000000 1.000000
0.997317 1.000000 1.000000
0.997317 1.000000 1.000000
0.997317 1.000000 1.000000
0.997316 1.000000 1.000000
0.997314 1.000000 1.000000
0.997305 1.000000 1.000000
0.998670 1.000000 1.000000
1.000000 1.000000 1.000000
1.000000 1.000000 1.000000
0.624861 0.692949 1.000000
0.636092 0.695822 1.000000
0.669251 0.705108 0.998884
0.743193 0.717421 0.996453
0.874353 0.745747 0.992408
1.000000 0.811216 0.979604
1.000000 0.908383 0.969383
1.000000 0.988804 1.000000
1.000000 1.000000 1.000000
0.615610 0.692134 1.000000
0.626637 0.694966 1.000000
0.662661 0.704647 0.999519
0.740988 0.718545 0.997199
0.873677 0.746257 0.992418
1.000000 0.811310 0.979607
1.000000 0.908382 0.969392
1.000000 0.988803 1.000000
1.000000 1.000000 1.000000
0.577131 0.688300 1.000000
0.591063 0.691434 1.000000
0.635697 0.702297 1.000000
0.732184 0.722549 0.998577
0.871253 0.748228 0.993254
1.000000 0.811713 0.979792
1.000000 0.908381 0.969427
1.000000 0.988803 1.000000
1.000000 1.000000 1.000000
0.458939 0.705443 1.000000
0.460720 0.703412 1.000000
0.488935 0.699346 1.000000
0.663438 0.726211 1.000000
0.860273 0.756040 0.996118
1.000000 0.813147 0.980293
1.000000 0.908487 0.968728
1.000000 0.988800 1.000000
1.000000 1.000000 1.000000
0.500384 0.839613 1.000000
0.500622 0.838776 1.000000
0.501992 0.835490 1.000000
0.528285 0.824373 1.000000
0.835914 0.854777 0.989383
0.999958 0.858835 0.976516
1.000000 0.909022 0.963902
1.000000 0.988795 1.000000
1.000000 1.000000 1.000000
0.602827 0.996235 0.977648
0.602536 0.996182 0.977564
0.601406 0.995972 0.977253
0.597034 0.995132 0.976074
0.774611 0.981377 0.969220
0.964018 0.964017 0.964027
1.000000 0.964093 0.972479
1.000000 0.992551 0.999807
1.000000 1.000000 1.000000
0.789479 1.000000 0.940472
0.789480 1.000000 0.940489
0.789482 1.000000 0.940553
0.789490 1.000000 0.940799
0.792664 1.000000 0.936190
0.924984 1.000000 0.959537
1.000000 1.000000 0.969981
1.000000 1.000000 0.998501
1.000000 1.000000 1.000000
0.918049 1.000000 0.976067
0.918054 1.000000 0.976076
0.918073 1.000000 0.976113
0.918143 1.000000 0.976251
0.918155 1.000000 0.976649
0.927891 1.000000 0.976912
0.989127 1.000000 0.985206
1.000000 1.000000 1.000000
1.000000 1.000000 1.000000
0.995126 1.000000 1.000000
0.995125 1.000000 1.000000
0.995123 1.000000 1.000000
0.995114 1.000000 1.000000
0.995080 1.000000 1.000000
0.994950 1.000000 1.000000
0.997242 1.000000 1.000000
1.000000 1.000000 1.000000
1.000000 1.000000 1.000000
0.825043 0.863845 1.000000
0.826993 0.864394 1.000000
0.834140 0.866403 1.000000
0.851825 0.871775 1.000000
0.894769 0.879270 1.000000
0.973769 0.896516 1.000000
1.000000 0.935695 1.000000
1.000000 0.993858 1.000000
1.000000 1.000000 1.000000
0.823749 0.863692 1.000000
0.825700 0.864241 1.000000
0.832850 0.866251 1.000000
0.850887 0.871693 1.000000
0.894424 0.879451 1.000000
0.973657 0.896598 1.000000
1.000000 0.935708 1.000000
1.000000 0.993858 1.000000
1.000000 1.000000 1.000000
0.819036 0.863132 1.000000
0.820990 0.863683 1.000000
0.828151 0.865698 1.000000
0.847536 0.871398 1.000000
0.893291 0.880036 1.000000
0.973244 0.896924 1.000000
1.000000 0.935772 1.000000
1.000000 0.993859 1.000000
1.000000 1.000000 1.000000
0.795831 0.860123 1.000000
0.797932 0.860671 1.000000
0.807862 0.863188 1.000000
0.831290 0.869661 1.000000
0.888029 0.882486 1.000000
0.971722 0.898061 1.000000
1.000000 0.936010 1.000000
1.000000 0.993859 1.000000
1.000000 1.000000 1.000000
0.737885 0.870080 1.000000
0.738106 0.869757 1.000000
0.739012 0.868476 1.000000
0.753062 0.866913 1.000000
0.847476 0.884065 1.000000
0.964855 0.902703 1.000000
1.000000 0.936870 1.000000
1.000000 0.993898 1.000000
1.000000 1.000000 1.000000
0.766460 0.951157 1.000000
0.766477 0.951014 1.000000
0.766532 0.950534 1.000000
0.767060 0.948453 1.000000
0.783563 0.942381 1.000000
0.950560 0.962109 1.000000
1.000000 0.964812 1.000000
1.000000 0.994088 1.000000
1.000000 1.000000 1.000000
0.822071 1.000000 1.000000
0.822032 1.000000 1.000000
0.821885 1.000000 1.000000
0.821323 1.000000 1.000000
0.819130 1.000000 1.000000
0.915681 1.000000 1.000000
1.000000 1.000000 1.000000
1.000000 1.000000 1.000000
1.000000 1.000000 1.000000
0.922879 1.000000 1.000000
0.922879 1.000000 1.000000
0.922879 1.000000 1.000000
0.922881 1.000000 1.000000
0.922886 1.000000 1.000000
0.925296 1.000000 1.000000
0.998472 1.000000 1.000000
1.000000 1.000000 1.000000
1.000000 1.000000 1.000000
0.997138 1.000000 1.000000
0.997139 1.000000 1.000000
0.997140 1.000000 1.000000
0.997144 1.000000 1.000000
0.997154 1.000000 1.000000
0.997162 1.000000 1.000000
0.998826 1.000000 1.000000
1.000000 1.000000 1.000000
1.000000 1.000000 1.000000
0.944353 0.967508 1.000000
0.944635 0.967591 1.000000
0.945700 0.967901 1.000000
0.949603 0.969038 1.000000
0.960586 0.972428 1.000000
0.986560 0.976935 1.000000
1.000000 0.987535 1.000000
1.000000 1.000000 1.000000
1.000000 1.000000 1.000000
0.944143 0.967483 1.000000
0.944425 0.967565 1.000000
0.945490 0.967876 1.000000
0.949394 0.969013 1.000000
0.960434 0.972415 1.000000
0.986507 0.976962 1.000000
1.000000 0.987549 1.000000
1.000000 1.000000 1.000000
1.000000 1.000000 1.000000
0.943353 0.967387 1.000000
0.943635 0.967469 1.000000
0.944701 0.967780 1.000000
0.948606 0.968918 1.000000
0.959863 0.972364 1.000000
0.986311 0.977063 1.000000
1.000000 0.987597 1.000000
1.000000 1.000000 1.000000
1.000000 1.000000 1.000000
0.940475 0.967035 1.000000
0.940758 0.967117 1.000000
0.941825 0.967429 1.000000
0.945737 0.968569 1.000000
0.957785 0.972178 1.000000
0.985595 0.977428 1.000000
1.000000 0.987785 1.000000
1.000000 1.000000 1.000000
1.000000 1.000000 1.000000
0.926799 0.965125 1.000000
0.927084 0.965204 1.000000
0.928538 0.965596 1.000000
0.933866 0.967031 1.000000
0.948137 0.971099 1.000000
0.982369 0.978913 1.000000
1.000000 0.988495 1.000000
1.000000 1.000000 1.000000
1.000000 1.000000 1.000000
0.893053 0.970863 1.000000
0.893086 0.970809 1.000000
0.893213 0.970607 1.000000
0.893702 0.969836 1.000000
0.902206 0.969049 1.000000
0.957827 0.979873 1.000000
1.000000 0.990995 1.000000
1.000000 1.000000 1.000000
1.000000 1.000000 1.000000
0.909930 1.000000 1.000000
0.909932 1.000000 1.000000
0.909939 1.000000 1.000000
0.909967 1.000000 1.000000
0.910253 1.000000 1.000000
0.919720 1.000000 1.000000
1.000000 1.000000 1.000000
1.000000 1.000000 1.000000
1.000000 1.000000 1.000000
0.941920 1.000000 1.000000
0.941913 1.000000 1.000000
0.941891 1.000000 1.000000
0.941804 1.000000 1.000000
0.941472 1.000000 1.000000
0.940171 1.000000 1.000000
0.996755 1.000000 1.000000
1.000000 1.000000 1.000000
1.000000 1.000000 1.000000
0.998098 1.000000 1.000000
0.998098 1.000000 1.000000
0.998098 1.000000 1.000000
0.998097 1.000000 1.000000
0.998095 1.000000 1.000000
0.998088 1.000000 1.000000
0.998931 1.000000 1.000000
1.000000 1.000000 1.000000
1.000000 1.000000 1.000000
1.000000 1.000000 1.000000
1.000000 1.000000 1.000000
1.000000 1.000000 1.000000
1.000000 1.000000 1.000000
1.000000 1.000000 1.000000
1.000000 1.000000 1.000000
1.000000 1.000000 1.000000
1.000000 1.000000 1.000000
1.000000 1.000000 1.000000
1.000000 1.000000 1.000000
1.000000 1.000000 1.000000
1.000000 1.000000 1.000000
1.000000 1.000000 1.000000
1.000000 1.000000 1.000000
1.000000 1.000000 1.000000
1.000000 1.000000 1.000000
1.000000 1.000000 1.000000
1.000000 1.000000 1.000000
1.000000 1.000000 1.000000
1.000000 1.000000 1.000000
1.000000 1.000000 1.000000
1.000000 1.000000 1.000000
1.000000 1.000000 1.000000
1.000000 1.000000 1.000000
1.000000 1.000000 1.000000
1.000000 1.000000 1.000000
1.000000 1.000000 1.000000
1.000000 1.000000 1.000000
1.000000 1.000000 1.000000
1.000000 1.000000 1.000000
1.000000 1.000000 1.000000
1.000000 1.000000 1.000000
1.000000 1.000000 1.000000
1.000000 1.000000 1.000000
1.000000 1.000000 1.000000
1.000000 1.000000 1.000000
1.000000 1.000000 1.000000
1.000000 1.000000 1.000000
1.000000 1.000000 1.000000
1.000000 1.000000 1.000000
1.000000 1.000000 1.000000
1.000000 1.000000 1.000000
1.000000 1.000000 1.000000
1.000000 1.000000 1.000000
1.000000 1.000000 1.000000
0.996940 1.000000 1.000000
0.996941 1.000000 1.000000
0.997040 1.000000 1.000000
0.997435 1.000000 1.000000
0.998881 1.000000 1.000000
1.000000 1.000000 1.000000
1.000000 1.000000 1.000000
1.000000 1.000000 1.000000
1.000000 1.000000 1.000000
0.984960 1.000000 1.000000
0.984965 1.000000 1.000000
0.984985 1.000000 1.000000
0.985058 1.000000 1.000000
0.985371 1.000000 1.000000
0.989880 1.000000 1.000000
1.000000 1.000000 1.000000
1.000000 1.000000 1.000000
1.000000 1.000000 1.000000
0.994309 1.000000 1.000000
0.994310 1.000000 1.000000
0.994311 1.000000 1.000000
0.994316 1.000000 1.000000
0.994333 1.000000 1.000000
0.994412 1.000000 1.000000
0.997061 1.000000 1.000000
1.000000 1.000000 1.000000
1.000000 1.000000 1.000000
1.000000 1.000000 1.000000
1.000000 1.000000 1.000000
1.000000 1.000000 1.000000
1.000000 1.000000 1.000000
1.000000 1.000000 1.000000
1.000000 1.000000 1.000000
1.000000 1.000000 1.000000
1.000000 1.000000 1.000000
1.000000 1.000000 1.000000
