Assets/Data/Textures/70 CGC LUTs/LUTs_AgX_Filmic_ViewTransforms/ARRILogC4AWG4-to-JP2499DRT-CrazyInstantFilm-sRGB.cube
#  Baked from the PixelManager OCIO config by Joe Genco
#  https://github.com/Joegenco/PixelManager
#  Input Gamma: Arri LogC4
#  Input Color Space: Arri Wide Gamut 4
#  floating point data (range 0.0 - 1.0)   
#       
#  Output Gamma: Gamma 2.2 (Display)
#  Output Color Space: Rec.709
#  floating point data (range 0.0 - 1.0)
LUT_3D_SIZE 33
0.012820 0.049048 0.048764
0.012820 0.049048 0.048764
0.012820 0.049048 0.048764
0.013488 0.049096 0.048777
0.055027 0.050604 0.048276
0.097215 0.051255 0.045878
0.143010 0.050465 0.039979
0.193207 0.049075 0.031623
0.249622 0.049105 0.028555
0.311630 0.048274 0.029546
0.382844 0.055223 0.032936
0.460691 0.062776 0.038413
0.537256 0.076777 0.043800
0.610242 0.092894 0.050231
0.677339 0.118742 0.057237
0.737240 0.153105 0.065508
0.789275 0.197484 0.075898
0.833525 0.250270 0.094721
0.870198 0.308124 0.126827
0.899943 0.368415 0.180122
0.922635 0.429285 0.253621
0.938371 0.489321 0.336850
0.950315 0.547320 0.420166
0.958882 0.602385 0.502638
0.964730 0.653587 0.582073
0.968639 0.700364 0.655752
0.971326 0.742607 0.721809
0.972411 0.778829 0.779160
0.972157 0.795339 0.839029
0.971087 0.804749 0.896924
0.970002 0.818015 0.934705
0.968943 0.834293 0.956082
0.967966 0.850552 0.967618
0.012820 0.049048 0.048764
0.012820 0.049048 0.048764
0.012820 0.049048 0.048764
0.013231 0.049076 0.048772
0.054690 0.050598 0.048288
0.096989 0.051253 0.045896
0.142840 0.050473 0.040004
0.193058 0.049084 0.031649
0.249503 0.049110 0.028553
0.311540 0.048273 0.029542
0.383394 0.055318 0.033030
0.461065 0.062838 0.038509
0.537514 0.076845 0.043868
0.610399 0.092986 0.050336
0.677435 0.118802 0.057317
0.737325 0.153203 0.065651
0.789329 0.197568 0.076008
0.833567 0.250337 0.094898
0.870228 0.308175 0.127070
0.899958 0.368451 0.180398
0.922641 0.429308 0.253858
0.938372 0.489336 0.337015
0.950315 0.547330 0.420281
0.958882 0.602391 0.502718
0.964730 0.653592 0.582128
0.968639 0.700367 0.655788
0.971326 0.742608 0.721832
0.972411 0.778830 0.779175
0.972157 0.795340 0.839037
0.971087 0.804750 0.896929
0.970002 0.818016 0.934707
0.968943 0.834293 0.956082
0.967966 0.850553 0.967618
0.012820 0.049048 0.048764
0.012820 0.049048 0.048764
0.012820 0.049048 0.048764
0.012820 0.049048 0.048764
0.054215 0.050588 0.048307
0.096672 0.051251 0.045921
0.142603 0.050483 0.040040
0.192848 0.049095 0.031686
0.249336 0.049117 0.028550
0.311415 0.048272 0.029536
0.384070 0.055434 0.033147
0.461574 0.062908 0.038633
0.537874 0.076954 0.043978
0.610615 0.093114 0.050480
0.677568 0.118884 0.057428
0.737443 0.153338 0.065849
0.789403 0.197686 0.076167
0.833625 0.250431 0.095146
0.870269 0.308247 0.127409
0.899980 0.368501 0.180781
0.922648 0.429341 0.254188
0.938374 0.489357 0.337247
0.950315 0.547344 0.420440
0.958881 0.602401 0.502830
0.964729 0.653598 0.582204
0.968638 0.700370 0.655838
0.971325 0.742611 0.721865
0.972411 0.778832 0.779195
0.972156 0.795341 0.839046
0.971087 0.804751 0.896935
0.970002 0.818017 0.934709
0.968943 0.834294 0.956083
0.967966 0.850554 0.967618
0.012820 0.049048 0.048764
0.012820 0.049048 0.048764
0.012820 0.049048 0.048764
0.012820 0.049048 0.048764
0.053540 0.050575 0.048332
0.096225 0.051248 0.045955
0.142270 0.050499 0.040091
0.192555 0.049112 0.031737
0.249109 0.049126 0.028545
0.311240 0.048270 0.029527
0.384972 0.055595 0.033314
0.462247 0.062999 0.038798
0.538364 0.077109 0.044134
0.610912 0.093289 0.050679
0.677753 0.118999 0.057582
0.737607 0.153526 0.066129
0.789509 0.197849 0.076399
0.833706 0.250561 0.095490
0.870326 0.308346 0.127881
0.900010 0.368571 0.181316
0.922658 0.429386 0.254649
0.938376 0.489386 0.337570
0.950316 0.547364 0.420664
0.958881 0.602414 0.502986
0.964729 0.653606 0.582311
0.968638 0.700376 0.655909
0.971325 0.742614 0.721910
0.972410 0.778834 0.779223
0.972156 0.795343 0.839060
0.971087 0.804753 0.896944
0.970001 0.818020 0.934713
0.968943 0.834296 0.956085
0.967966 0.850555 0.967619
0.006021 0.077186 0.047058
0.006022 0.077077 0.047064
0.006018 0.076949 0.047071
0.006013 0.076769 0.047079
0.069093 0.090583 0.043522
0.133876 0.078153 0.038502
0.183640 0.064960 0.031874
0.230078 0.054685 0.028844
0.278825 0.050084 0.028594
0.332698 0.051802 0.030068
0.401292 0.058676 0.034196
0.472633 0.064190 0.039270
0.543792 0.078212 0.044514
0.612777 0.094140 0.050987
0.678006 0.119156 0.057793
0.737839 0.153787 0.066541
0.789657 0.198076 0.076726
0.833819 0.250742 0.095969
0.870406 0.308484 0.128538
0.900052 0.368669 0.182061
0.922673 0.429449 0.255292
0.938379 0.489428 0.338020
0.950316 0.547391 0.420975
0.958881 0.602432 0.503204
0.964728 0.653618 0.582460
0.968637 0.700383 0.656007
0.971324 0.742618 0.721974
0.972410 0.778837 0.779263
0.972156 0.795345 0.839080
0.971086 0.804755 0.896957
0.970001 0.818022 0.934718
0.968943 0.834298 0.956087
0.967965 0.850556 0.967620
0.002631 0.111081 0.041339
0.002630 0.110998 0.041349
0.002630 0.110881 0.041363
0.002630 0.110719 0.041382
0.010430 0.141072 0.030022
0.123493 0.137458 0.024628
0.197743 0.123989 0.021991
0.258916 0.105194 0.024792
0.314785 0.082772 0.027814
0.370901 0.067652 0.030996
0.433397 0.064698 0.035339
0.496852 0.071435 0.040079
0.561524 0.082505 0.045324
0.624956 0.099641 0.051595
0.685454 0.122429 0.058088
0.741264 0.156554 0.067038
0.790571 0.199179 0.077497
0.833976 0.250993 0.096633
0.870517 0.308677 0.129452
0.900110 0.368806 0.183099
0.922693 0.429537 0.256187
0.938384 0.489484 0.338637
0.950317 0.547430 0.421409
0.958880 0.602458 0.503508
0.964727 0.653635 0.582667
0.968636 0.700393 0.656144
0.971323 0.742625 0.722062
0.972409 0.778841 0.779318
0.972156 0.795348 0.839107
0.971086 0.804759 0.896975
0.970001 0.818026 0.934725
0.968943 0.834300 0.956090
0.967965 0.850558 0.967621
0.006720 0.148651 0.027475
0.006726 0.148583 0.027492
0.006733 0.148487 0.027517
0.006743 0.148354 0.027551
0.006340 0.173813 0.024096
0.064894 0.192055 0.020766
0.180346 0.185642 0.013838
0.262543 0.171775 0.017732
0.331982 0.151170 0.024191
0.400598 0.124519 0.030751
0.465464 0.098600 0.036145
0.525304 0.088567 0.041386
0.583471 0.090897 0.046285
0.640716 0.108546 0.052280
0.696418 0.128474 0.058646
0.748298 0.162431 0.067606
0.795016 0.204441 0.078101
0.835980 0.254250 0.097009
0.870935 0.309537 0.130547
0.900191 0.368995 0.184541
0.922721 0.429659 0.257434
0.938390 0.489562 0.339483
0.950317 0.547482 0.422011
0.958880 0.602493 0.503933
0.964725 0.653658 0.582957
0.968634 0.700408 0.656335
0.971322 0.742633 0.722186
0.972408 0.778847 0.779395
0.972155 0.795352 0.839145
0.971086 0.804763 0.896999
0.970001 0.818031 0.934735
0.968942 0.834304 0.956094
0.967965 0.850562 0.967622
0.007102 0.189183 0.022291
0.007102 0.189130 0.022315
0.007101 0.189055 0.022349
0.007101 0.188952 0.022396
0.007245 0.208436 0.015906
0.012134 0.234822 0.016697
0.128868 0.245002 0.012792
0.241790 0.237174 0.007401
0.334666 0.223436 0.017074
0.416731 0.203100 0.025859
0.488708 0.173770 0.033957
0.552105 0.140169 0.040866
0.607727 0.120678 0.046541
0.659656 0.123333 0.052720
0.709838 0.141638 0.059079
0.757741 0.171520 0.068238
0.800794 0.212066 0.078802
0.839382 0.260125 0.097256
0.872932 0.313989 0.131080
0.900887 0.371017 0.185940
0.922761 0.429829 0.259167
0.938398 0.489670 0.340660
0.950318 0.547557 0.422850
0.958878 0.602543 0.504525
0.964723 0.653691 0.583361
0.968632 0.700428 0.656603
0.971320 0.742646 0.722359
0.972407 0.778854 0.779502
0.972154 0.795357 0.839198
0.971085 0.804770 0.897033
0.970000 0.818039 0.934748
0.968942 0.834310 0.956100
0.967965 0.850566 0.967624
0.008175 0.234280 0.016875
0.008178 0.234240 0.016881
0.008181 0.234183 0.016890
0.008185 0.234104 0.016903
0.008962 0.247957 0.014800
0.010822 0.271006 0.012560
0.024894 0.296649 0.012592
0.193312 0.302948 0.009160
0.316685 0.296548 0.007255
0.417237 0.281646 0.017982
0.500234 0.258920 0.028031
0.569865 0.227482 0.037000
0.629438 0.189948 0.044874
0.680174 0.162401 0.052500
0.725138 0.163832 0.059089
0.768226 0.186353 0.068350
0.808056 0.223041 0.079546
0.843856 0.268491 0.097420
0.875635 0.320263 0.131690
0.902409 0.375585 0.187206
0.923604 0.432605 0.260693
0.938448 0.489989 0.342259
0.950319 0.547659 0.424019
0.958877 0.602612 0.505350
0.964720 0.653736 0.583926
0.968629 0.700456 0.656976
0.971317 0.742663 0.722600
0.972405 0.778866 0.779652
0.972153 0.795365 0.839272
0.971084 0.804779 0.897081
0.969999 0.818049 0.934767
0.968942 0.834317 0.956108
0.967965 0.850572 0.967627
0.011804 0.284861 0.012788
0.011817 0.285259 0.012781
0.011831 0.285766 0.012770
0.011855 0.286525 0.012756
0.012160 0.296324 0.012555
0.012914 0.316108 0.012256
0.017108 0.340821 0.012004
0.054990 0.366849 0.012851
0.264024 0.366516 0.008918
0.394847 0.358126 0.008154
0.497578 0.341867 0.019392
0.578476 0.317671 0.029972
0.643564 0.285168 0.039828
0.697471 0.245448 0.049608
0.741828 0.215734 0.057538
0.780712 0.216794 0.067223
0.816844 0.241586 0.079375
0.849857 0.281028 0.097347
0.879195 0.329077 0.132295
0.904438 0.381947 0.188721
0.924797 0.437173 0.262589
0.939146 0.493174 0.343829
0.950412 0.548370 0.425529
0.958875 0.602709 0.506499
0.964715 0.653799 0.584712
0.968624 0.700495 0.657496
0.971313 0.742687 0.722937
0.972402 0.778881 0.779862
0.972152 0.795376 0.839376
0.971083 0.804792 0.897148
0.969998 0.818063 0.934793
0.968941 0.834328 0.956120
0.967964 0.850580 0.967631
0.017262 0.344940 0.012142
0.017277 0.345189 0.012155
0.017296 0.345523 0.012171
0.017316 0.346087 0.012195
0.017598 0.351740 0.012435
0.018529 0.367286 0.013198
0.020759 0.386789 0.014274
0.025213 0.410477 0.014629
0.127606 0.431911 0.014120
0.338638 0.429135 0.009256
0.474015 0.419855 0.010452
0.574045 0.402924 0.021820
0.649309 0.378079 0.032249
0.707645 0.345618 0.042057
0.754899 0.305674 0.052489
0.793447 0.276266 0.064198
0.826479 0.275942 0.077803
0.856954 0.301299 0.096686
0.883960 0.342395 0.132507
0.907226 0.391215 0.190434
0.926227 0.443516 0.264957
0.940094 0.497623 0.345833
0.950871 0.551437 0.427113
0.958993 0.603653 0.507927
0.964709 0.653886 0.585807
0.968619 0.700549 0.658221
0.971308 0.742720 0.723406
0.972398 0.778903 0.780154
0.972150 0.795392 0.839520
0.971081 0.804810 0.897242
0.969997 0.818084 0.934829
0.968940 0.834343 0.956135
0.967963 0.850592 0.967637
0.023823 0.406350 0.014699
0.023880 0.406528 0.014701
0.023959 0.406772 0.014704
0.024065 0.407104 0.014707
0.024711 0.409193 0.014706
0.028360 0.420945 0.014686
0.033130 0.436079 0.015199
0.039342 0.454526 0.016223
0.055921 0.477406 0.016701
0.204008 0.494154 0.016043
0.416562 0.490414 0.009788
0.549822 0.480202 0.012589
0.644079 0.463613 0.023466
0.711336 0.439459 0.033217
0.761908 0.407281 0.043861
0.802901 0.368330 0.057299
0.835729 0.339254 0.073125
0.864177 0.337976 0.094393
0.889855 0.363566 0.131629
0.910829 0.404875 0.191879
0.928205 0.452816 0.267811
0.941367 0.503875 0.348398
0.951503 0.555757 0.429225
0.959386 0.606554 0.509482
0.964793 0.654929 0.587110
0.968610 0.700625 0.659231
0.971301 0.742767 0.724061
0.972393 0.778933 0.780562
0.972147 0.795413 0.839722
0.971078 0.804835 0.897373
0.969995 0.818112 0.934880
0.968938 0.834364 0.956157
0.967962 0.850608 0.967645
0.041710 0.467748 0.016583
0.041733 0.467897 0.016588
0.041766 0.468104 0.016595
0.041816 0.468390 0.016606
0.041894 0.468785 0.016622
0.045073 0.476304 0.016810
0.053175 0.487579 0.017230
0.063847 0.501707 0.018755
0.077080 0.519768 0.020486
0.119463 0.541177 0.021295
0.283414 0.553821 0.019344
0.494198 0.548959 0.011463
0.621164 0.538891 0.016196
0.705858 0.523159 0.026138
0.764588 0.500463 0.036042
0.807607 0.469556 0.046348
0.842324 0.432025 0.064243
0.870468 0.403621 0.087703
0.895260 0.401686 0.126975
0.915245 0.426589 0.191918
0.930741 0.466498 0.270615
0.943068 0.512889 0.351505
0.952369 0.561911 0.431948
0.959919 0.610607 0.511514
0.965030 0.657619 0.588609
0.968670 0.701676 0.660414
0.971291 0.742831 0.724972
0.972386 0.778975 0.781130
0.972143 0.795443 0.840003
0.971074 0.804870 0.897555
0.969992 0.818151 0.934951
0.968937 0.834393 0.956188
0.967961 0.850631 0.967656
0.081371 0.528245 0.021047
0.081425 0.528340 0.021056
0.081499 0.528473 0.021069
0.081602 0.528656 0.021088
0.081743 0.528909 0.021112
0.083547 0.532365 0.021300
0.090668 0.540342 0.021693
0.103026 0.550646 0.022220
0.120013 0.563972 0.022986
0.142062 0.581148 0.024434
0.203575 0.599754 0.027087
0.365909 0.609756 0.025050
0.569884 0.604138 0.014600
0.685836 0.594666 0.020599
0.759048 0.580317 0.028768
0.809078 0.559612 0.039869
0.845689 0.531047 0.052369
0.874564 0.495740 0.076461
0.899304 0.468463 0.116679
0.919626 0.465528 0.186936
0.933641 0.488297 0.272238
0.945158 0.526269 0.354612
0.953471 0.570604 0.435251
0.960638 0.616478 0.514180
0.965300 0.661326 0.590513
0.968821 0.704080 0.661799
0.971317 0.743813 0.726018
0.972376 0.779034 0.781922
0.972137 0.795485 0.840395
0.971069 0.804919 0.897809
0.969989 0.818206 0.935051
0.968934 0.834433 0.956231
0.967959 0.850663 0.967671
0.147803 0.585758 0.024778
0.147884 0.585818 0.024784
0.147996 0.585901 0.024793
0.148152 0.586017 0.024804
0.148368 0.586178 0.024827
0.149079 0.586742 0.024969
0.156733 0.592314 0.026147
0.167669 0.599583 0.027730
0.183171 0.609182 0.029922
0.203381 0.621969 0.032784
0.228318 0.637733 0.036165
0.294078 0.653711 0.037580
0.453384 0.661368 0.032576
0.641428 0.655528 0.018782
0.742824 0.647009 0.027113
0.804286 0.634401 0.034321
0.846178 0.616178 0.046727
0.876434 0.590557 0.065124
0.901349 0.558409 0.103350
0.922689 0.532031 0.175079
0.936540 0.527218 0.269641
0.947157 0.547507 0.356898
0.954717 0.583264 0.438760
0.961468 0.624814 0.517351
0.965661 0.666753 0.593042
0.969019 0.707407 0.663549
0.971384 0.745859 0.727255
0.972394 0.779985 0.782806
0.972129 0.795543 0.840940
0.971062 0.804987 0.898163
0.969983 0.818282 0.935189
0.968930 0.834490 0.956290
0.967957 0.850707 0.967693
0.231567 0.639759 0.036637
0.231633 0.639796 0.036648
0.231726 0.639848 0.036662
0.231855 0.639919 0.036682
0.232034 0.640019 0.036710
0.232282 0.640156 0.036748
0.236252 0.642429 0.037181
0.245274 0.647373 0.037962
0.257319 0.653903 0.038996
0.273909 0.662796 0.041657
0.295637 0.674345 0.048490
0.324117 0.688439 0.056094
0.391312 0.703044 0.062151
0.542032 0.708859 0.052378
0.706493 0.703356 0.034008
0.791756 0.695980 0.041690
0.842588 0.684998 0.047083
0.876857 0.669463 0.061834
0.902051 0.647250 0.095753
0.923372 0.618186 0.161048
0.938646 0.591663 0.260916
0.948874 0.585299 0.356310
0.956187 0.603563 0.441186
0.962261 0.636523 0.520743
0.966128 0.674227 0.596041
0.969302 0.712105 0.665891
0.971473 0.748633 0.728811
0.972439 0.781897 0.783871
0.972161 0.796551 0.841577
0.971052 0.805082 0.898656
0.969976 0.818389 0.935382
0.968925 0.834569 0.956364
0.967953 0.850769 0.967723
0.324716 0.688973 0.056467
0.324786 0.689009 0.056508
0.324884 0.689059 0.056564
0.325021 0.689128 0.056642
0.325211 0.689225 0.056750
0.325474 0.689359 0.056901
0.325840 0.689546 0.057110
0.332732 0.692891 0.059273
0.342563 0.697641 0.062355
0.355868 0.703694 0.065773
0.374343 0.711606 0.069169
0.398039 0.721658 0.076212
0.428416 0.733742 0.093082
0.493816 0.746487 0.108478
0.627918 0.751786 0.100415
0.764047 0.747164 0.075726
0.833355 0.740876 0.074477
0.874272 0.731471 0.076735
0.902361 0.718809 0.102065
0.922981 0.699664 0.162034
0.939191 0.672329 0.252842
0.949749 0.646404 0.351029
0.957516 0.639435 0.440862
0.963034 0.655386 0.523365
0.966702 0.685367 0.599134
0.969662 0.718735 0.668652
0.971595 0.752650 0.730896
0.972496 0.784561 0.785190
0.972227 0.798474 0.842352
0.971100 0.806372 0.899503
0.969966 0.818537 0.935651
0.968918 0.834679 0.956469
0.967948 0.850856 0.967765
0.427283 0.733494 0.093110
0.427336 0.733516 0.093171
0.427411 0.733547 0.093256
0.427515 0.733590 0.093375
0.427660 0.733650 0.093540
0.427861 0.733733 0.093770
0.428141 0.733850 0.094089
0.430081 0.734618 0.095361
0.437774 0.737631 0.099721
0.448278 0.741757 0.105639
0.462514 0.747321 0.113428
0.481443 0.754684 0.123756
0.506078 0.763344 0.134931
0.536265 0.773278 0.155853
0.594627 0.783617 0.178295
0.705308 0.787986 0.176960
0.812880 0.785004 0.156857
0.867832 0.780602 0.145547
0.900327 0.773253 0.146320
0.922703 0.762821 0.190478
0.938351 0.745601 0.259159
0.949275 0.719724 0.349314
0.957997 0.696077 0.437020
0.963563 0.688963 0.523120
0.967285 0.702532 0.601515
0.970094 0.728698 0.671535
0.971741 0.758379 0.733331
0.972574 0.788402 0.786957
0.972320 0.801287 0.843306
0.971188 0.808784 0.900747
0.970031 0.820244 0.936346
0.968909 0.834833 0.956614
0.967941 0.850977 0.967824
0.534222 0.772617 0.155284
0.534258 0.772630 0.155346
0.534307 0.772647 0.155431
0.534377 0.772672 0.155551
0.534473 0.772706 0.155717
0.534608 0.772753 0.155949
0.534796 0.772820 0.156272
0.535057 0.772911 0.156721
0.538210 0.773957 0.159449
0.545712 0.776436 0.165544
0.555680 0.779722 0.173698
0.569468 0.784315 0.184834
0.586823 0.790318 0.199808
0.609019 0.797709 0.218818
0.636430 0.806445 0.241095
0.684962 0.814626 0.263719
0.770720 0.818236 0.270152
0.851823 0.816619 0.258674
0.894182 0.813963 0.249613
0.919813 0.808637 0.252512
0.936960 0.799574 0.299608
0.947893 0.783818 0.360721
0.957164 0.761169 0.438626
0.963173 0.740038 0.520384
0.967586 0.732552 0.601600
0.970511 0.744843 0.673587
0.971894 0.766989 0.735885
0.972671 0.793495 0.788975
0.972376 0.805175 0.844805
0.971261 0.812256 0.902334
0.970111 0.823388 0.937494
0.968990 0.836621 0.957225
0.967931 0.851145 0.967905
0.633719 0.805663 0.239812
0.633742 0.805670 0.239853
0.633774 0.805679 0.239911
0.633819 0.805692 0.239991
0.633881 0.805710 0.240102
0.633968 0.805736 0.240258
0.634089 0.805771 0.240475
0.634252 0.805821 0.240777
0.634478 0.805889 0.241197
0.637969 0.806969 0.244669
0.644371 0.808953 0.250844
0.652856 0.811590 0.259059
0.664531 0.815227 0.270032
0.679660 0.819900 0.284391
0.698133 0.825799 0.303247
0.719836 0.833243 0.325607
0.757562 0.841069 0.348246
0.821960 0.844394 0.358864
0.881753 0.843672 0.355010
0.914024 0.842090 0.350816
0.934059 0.838117 0.356758
0.946203 0.829635 0.396954
0.955524 0.816157 0.451992
0.961859 0.797299 0.523474
0.966956 0.777793 0.599300
0.970447 0.770729 0.673678
0.971967 0.781048 0.737760
0.972771 0.800696 0.790971
0.972428 0.810805 0.846900
0.971342 0.817053 0.904223
0.970210 0.827813 0.938937
0.969122 0.839838 0.958263
0.968028 0.853302 0.968435
0.716957 0.832343 0.324100
0.716970 0.832347 0.324127
0.716989 0.832354 0.324164
0.717016 0.832362 0.324217
0.717052 0.832375 0.324291
0.717104 0.832392 0.324394
0.717175 0.832415 0.324537
0.717275 0.832449 0.324736
0.717413 0.832494 0.325014
0.717606 0.832558 0.325400
0.721058 0.833750 0.329040
0.726467 0.835622 0.334710
0.733681 0.838138 0.342253
0.743361 0.841576 0.352491
0.754586 0.845571 0.366564
0.768649 0.850277 0.385063
0.786035 0.856227 0.407124
0.813541 0.862502 0.430650
0.860059 0.865696 0.443711
0.904153 0.865654 0.444213
0.928901 0.864623 0.442844
0.943706 0.861396 0.450260
0.953827 0.854788 0.486197
0.960313 0.843906 0.537353
0.965654 0.827166 0.603079
0.969490 0.810255 0.671742
0.971628 0.804084 0.737743
0.972753 0.812313 0.792216
0.972434 0.819411 0.849240
0.971417 0.824218 0.905966
0.970338 0.833437 0.940855
0.969288 0.844264 0.959556
0.968200 0.857068 0.969325
0.783507 0.855414 0.405251
0.783514 0.855416 0.405270
0.783524 0.855420 0.405296
0.783539 0.855425 0.405333
0.783559 0.855432 0.405384
0.783587 0.855442 0.405455
0.783626 0.855455 0.405554
0.783680 0.855474 0.405693
0.783756 0.855500 0.405886
0.783862 0.855537 0.406155
0.784009 0.855587 0.406529
0.786958 0.856647 0.410548
0.791088 0.858138 0.416201
0.796554 0.860174 0.423813
0.803136 0.862870 0.434199
0.811707 0.866320 0.447738
0.822475 0.870811 0.465104
0.835424 0.876502 0.486248
0.854866 0.881476 0.509667
0.888551 0.884128 0.524345
0.920922 0.884350 0.527165
0.939847 0.883751 0.527412
0.951707 0.881361 0.535661
0.958758 0.876347 0.568691
0.964224 0.866673 0.615761
0.968055 0.852242 0.675531
0.970680 0.838325 0.736003
0.972334 0.833047 0.791981
0.972270 0.833769 0.851056
0.971418 0.835223 0.907647
0.970458 0.841221 0.943024
0.969468 0.850557 0.961239
0.968413 0.862126 0.970271
0.833361 0.875655 0.484180
0.833365 0.875657 0.484193
0.833371 0.875660 0.484210
0.833379 0.875663 0.484235
0.833390 0.875668 0.484270
0.833405 0.875674 0.484318
0.833426 0.875684 0.484385
0.833456 0.875696 0.484479
0.833498 0.875714 0.484610
0.833555 0.875739 0.484793
0.833636 0.875774 0.485047
0.833819 0.875854 0.485514
0.836174 0.876900 0.489508
0.839255 0.878110 0.495006
0.842930 0.879691 0.502522
0.847878 0.881720 0.512706
0.854052 0.884401 0.526043
0.861840 0.887888 0.542870
0.871593 0.892306 0.563348
0.885341 0.896892 0.585902
0.910094 0.899628 0.600863
0.934013 0.900152 0.604798
0.948598 0.899813 0.605891
0.956887 0.897742 0.614075
0.962857 0.893087 0.644544
0.966645 0.885140 0.686652
0.969364 0.873855 0.738936
0.971483 0.861115 0.790528
0.971752 0.854997 0.851966
0.970943 0.853993 0.908267
0.970258 0.855427 0.945054
0.969573 0.860514 0.962694
0.968643 0.869027 0.971410
0.870067 0.891599 0.561099
0.870069 0.891600 0.561108
0.870072 0.891602 0.561120
0.870076 0.891603 0.561136
0.870082 0.891606 0.561160
0.870090 0.891610 0.561193
0.870101 0.891615 0.561239
0.870117 0.891622 0.561303
0.870139 0.891632 0.561393
0.870170 0.891645 0.561518
0.870212 0.891665 0.561692
0.870272 0.891691 0.561934
0.870490 0.891791 0.562547
0.872256 0.892600 0.566406
0.874622 0.893684 0.571653
0.877183 0.895124 0.578829
0.880543 0.897055 0.588518
0.884934 0.899601 0.601140
0.890582 0.902908 0.616577
0.897523 0.906546 0.635715
0.907958 0.909903 0.656882
0.926177 0.911989 0.671404
0.943678 0.912475 0.675511
0.954264 0.912309 0.677088
0.961201 0.910772 0.684923
0.965362 0.907238 0.712120
0.968120 0.901260 0.748547
0.970327 0.890659 0.793058
0.970182 0.884839 0.851495
0.969456 0.882683 0.906587
0.968933 0.880444 0.945241
0.968713 0.878634 0.963313
0.968492 0.879681 0.972435
0.896418 0.906013 0.633500
0.896419 0.906014 0.633505
0.896420 0.906014 0.633513
0.896423 0.906015 0.633524
0.896425 0.906017 0.633540
0.896429 0.906019 0.633562
0.896435 0.906021 0.633592
0.896442 0.906025 0.633635
0.896453 0.906031 0.633695
0.896467 0.906038 0.633777
0.896488 0.906048 0.633893
0.896516 0.906062 0.634054
0.896556 0.906082 0.634278
0.896742 0.906176 0.634960
0.897941 0.906747 0.638572
0.899573 0.907515 0.643489
0.901827 0.908579 0.650169
0.904571 0.910008 0.659203
0.907697 0.911903 0.670990
0.911704 0.914371 0.684733
0.916361 0.917399 0.702099
0.924484 0.920536 0.721214
0.937279 0.922593 0.734019
0.950743 0.923171 0.738041
0.958887 0.923112 0.739742
0.963962 0.921763 0.746893
0.967047 0.918530 0.770631
0.969265 0.913118 0.801123
0.968842 0.909565 0.848764
0.968104 0.907998 0.903113
0.967545 0.906147 0.943059
0.967340 0.903719 0.962600
0.967330 0.900840 0.972208
0.915543 0.916909 0.700043
0.915544 0.916909 0.700047
0.915544 0.916910 0.700052
0.915545 0.916910 0.700059
0.915547 0.916911 0.700069
0.915549 0.916912 0.700083
0.915552 0.916914 0.700102
0.915556 0.916916 0.700130
0.915561 0.916919 0.700168
0.915569 0.916924 0.700221
0.915579 0.916930 0.700295
0.915594 0.916939 0.700398
0.915614 0.916951 0.700542
0.915642 0.916968 0.700744
0.915794 0.917062 0.701435
0.916634 0.917587 0.704686
0.917783 0.918304 0.709118
0.919378 0.919299 0.715139
0.921489 0.920626 0.723250
0.924264 0.922379 0.733280
0.927324 0.924678 0.745234
0.930516 0.927129 0.760420
0.935991 0.929381 0.777265
0.946259 0.930846 0.788046
0.955981 0.931291 0.791728
0.962187 0.931267 0.793388
0.965853 0.930291 0.799608
0.968189 0.927889 0.819536
0.967907 0.926163 0.846857
0.967176 0.925337 0.898377
0.966586 0.924236 0.937995
0.966262 0.922861 0.961151
0.966193 0.920924 0.971301
0.929941 0.926770 0.758569
0.929941 0.926770 0.758571
0.929941 0.926771 0.758575
0.929942 0.926771 0.758579
0.929943 0.926771 0.758585
0.929944 0.926772 0.758594
0.929945 0.926773 0.758606
0.929947 0.926774 0.758623
0.929949 0.926776 0.758647
0.929953 0.926778 0.758680
0.929958 0.926781 0.758726
0.929965 0.926785 0.758791
0.929975 0.926791 0.758881
0.929989 0.926800 0.759006
0.930008 0.926812 0.759181
0.930122 0.926884 0.759827
0.930703 0.927258 0.762672
0.931497 0.927770 0.766559
