Assets/Data/Textures/70 CGC LUTs/LUTs_AgX_Filmic_ViewTransforms/ARRILogC4AWG4-to-AgX-BlenderPunchy-sRGB.cube
#  Baked from the PixelManager OCIO config by Joe Genco
#  https://github.com/Joegenco/PixelManager
#  Input Gamma: Arri LogC4
#  Input Color Space: Arri Wide Gamut 4
#  floating point data (range 0.0 - 1.0)   
#       
#  Output Gamma: Gamma 2.2 (Display)
#  Output Color Space: Rec.709
#  floating point data (range 0.0 - 1.0)
LUT_3D_SIZE 5
0.015538 0.015538 0.015538
0.330126 0.000000 0.029314
0.991706 0.303699 0.373690
1.000000 0.854603 0.870206
1.000000 1.000000 1.000000
0.000000 0.301127 0.151708
0.324735 0.310828 0.000000
0.994115 0.304289 0.326335
1.000000 0.854647 0.870345
1.000000 1.000000 1.000000
0.000000 0.838632 0.411259
0.000000 0.838609 0.407219
0.831465 0.805168 0.390194
1.000000 0.853523 0.851212
1.000000 1.000000 1.000000
0.730531 1.000000 0.804096
0.730231 1.000000 0.804039
0.741846 1.000000 0.805192
0.999814 1.000000 0.881633
1.000000 1.000000 1.000000
0.990336 1.000000 1.000000
0.990329 1.000000 1.000000
0.990236 1.000000 1.000000
0.993958 1.000000 1.000000
1.000000 1.000000 1.000000
0.000000 0.055350 0.186135
0.332631 0.000000 0.283772
0.986597 0.334578 0.465418
1.000000 0.855650 0.872664
1.000000 1.000000 1.000000
0.000000 0.313795 0.301715
0.285169 0.285167 0.285196
0.992356 0.334515 0.430384
1.000000 0.855691 0.872797
1.000000 1.000000 1.000000
0.000000 0.834573 0.470927
0.000000 0.833860 0.466097
0.827461 0.803220 0.436118
1.000000 0.852167 0.851424
1.000000 1.000000 1.000000
0.724991 1.000000 0.803318
0.724114 1.000000 0.803182
0.736096 1.000000 0.804272
0.999815 1.000000 0.881463
1.000000 1.000000 1.000000
0.990269 1.000000 1.000000
0.990263 1.000000 1.000000
0.990170 1.000000 1.000000
0.993806 1.000000 1.000000
1.000000 1.000000 1.000000
0.116127 0.330094 0.827346
0.370322 0.348443 0.830957
0.919810 0.488923 0.826051
1.000000 0.861741 0.897225
1.000000 1.000000 1.000000
0.000000 0.402405 0.801852
0.205263 0.368586 0.861696
0.921414 0.492982 0.828050
1.000000 0.861738 0.897311
1.000000 1.000000 1.000000
0.000000 0.843565 0.817523
0.000000 0.840399 0.814330
0.801560 0.801558 0.801579
1.000000 0.862786 0.884454
1.000000 1.000000 1.000000
0.719924 1.000000 0.834040
0.720144 1.000000 0.834430
0.723550 1.000000 0.828940
0.999745 1.000000 0.893517
1.000000 1.000000 1.000000
0.988124 1.000000 1.000000
0.988099 1.000000 1.000000
0.987867 1.000000 1.000000
0.992025 1.000000 1.000000
1.000000 1.000000 1.000000
0.771468 0.816790 1.000000
0.779502 0.818822 1.000000
0.852454 0.836173 1.000000
1.000000 0.905940 1.000000
1.000000 1.000000 1.000000
0.766987 0.816758 1.000000
0.775024 0.818794 1.000000
0.851005 0.836973 1.000000
1.000000 0.906050 1.000000
1.000000 1.000000 1.000000
0.687040 0.828757 1.000000
0.688534 0.826709 1.000000
0.797635 0.841823 1.000000
1.000000 0.907369 1.000000
1.000000 1.000000 1.000000
0.773196 1.000000 0.999806
0.772946 1.000000 0.999801
0.769358 1.000000 0.999720
1.000000 1.000000 1.000000
1.000000 1.000000 1.000000
0.987495 1.000000 1.000000
0.987500 1.000000 1.000000
0.987573 1.000000 1.000000
0.986873 1.000000 1.000000
1.000000 1.000000 1.000000
0.997105 1.000000 1.000000
0.997188 1.000000 1.000000
0.998350 1.000000 1.000000
1.000000 1.000000 1.000000
1.000000 1.000000 1.000000
0.997074 1.000000 1.000000
0.997157 1.000000 1.000000
0.998319 1.000000 1.000000
1.000000 1.000000 1.000000
1.000000 1.000000 1.000000
0.996646 1.000000 1.000000
0.996729 1.000000 1.000000
0.997892 1.000000 1.000000
1.000000 1.000000 1.000000
1.000000 1.000000 1.000000
0.974733 1.000000 1.000000
0.974772 1.000000 1.000000
0.975314 1.000000 1.000000
1.000000 1.000000 1.000000
1.000000 1.000000 1.000000
1.000000 1.000000 1.000000
1.000000 1.000000 1.000000
1.000000 1.000000 1.000000
0.999759 1.000000 1.000000
1.000000 1.000000 1.000000
