Assets/Data/Textures/70 CGC LUTs/LUTs_AgX_Filmic_ViewTransforms/ARRILogC4AWG4-to-OpenDRT-sRGB.cube
#  Baked from the PixelManager OCIO config by Joe Genco
#  https://github.com/Joegenco/PixelManager
#  Input Gamma: Arri LogC4
#  Input Color Space: Arri Wide Gamut 4
#  floating point data (range 0.0 - 1.0)   
#       
#  Output Gamma: Gamma 2.2 (Display)
#  Output Color Space: Rec.709
#  floating point data (range 0.0 - 1.0)
LUT_3D_SIZE 5
0.000000 0.000000 0.000000
0.388493 0.000000 0.000000
0.973819 0.419593 0.293175
0.997175 0.941406 0.921172
0.997868 0.963199 0.950238
0.017781 0.332139 0.011816
0.331345 0.332162 0.022651
0.973286 0.417036 0.290329
0.997174 0.941369 0.921123
0.997868 0.963199 0.950238
0.371427 0.882028 0.325435
0.369816 0.881390 0.323810
0.877452 0.883778 0.512394
0.997162 0.940829 0.920405
0.997868 0.963199 0.950238
0.932950 0.986195 0.925820
0.932922 0.986189 0.925788
0.932502 0.986114 0.925325
0.991820 0.992754 0.959870
0.997868 0.963199 0.950238
0.970663 0.995614 0.977884
0.970662 0.995614 0.977883
0.970659 0.995610 0.977870
0.970605 0.995553 0.977673
0.994808 0.995166 0.991964
0.000000 0.000000 0.266917
0.408405 0.000000 0.328844
0.974531 0.426528 0.341520
0.997175 0.941408 0.921174
0.997868 0.963199 0.950238
0.011940 0.339179 0.311809
0.319077 0.319077 0.319077
0.974323 0.424431 0.343799
0.997174 0.941371 0.921125
0.997868 0.963199 0.950238
0.383320 0.874821 0.339154
0.381585 0.874170 0.337380
0.872568 0.878436 0.525856
0.997162 0.940830 0.920407
0.997868 0.963199 0.950238
0.933158 0.986145 0.926048
0.933129 0.986139 0.926016
0.932712 0.986064 0.925555
0.991762 0.992721 0.959989
0.997868 0.963199 0.950238
0.970692 0.995644 0.977990
0.970691 0.995644 0.977989
0.970688 0.995640 0.977976
0.970634 0.995584 0.977780
0.994806 0.995162 0.991987
0.000000 0.317066 0.931004
0.128206 0.339989 0.917416
1.000000 0.504668 0.886560
0.997597 0.943080 0.926157
0.997868 0.963199 0.950238
0.024366 0.344289 0.909955
0.088014 0.365695 0.894816
1.000000 0.513278 0.881350
0.997599 0.943051 0.926134
0.997868 0.963199 0.950238
0.493015 0.908766 0.862026
0.491584 0.907804 0.863038
0.828016 0.828016 0.828016
0.997636 0.942617 0.925788
0.997868 0.963199 0.950238
0.935858 0.985625 0.929132
0.935831 0.985619 0.929103
0.935440 0.985537 0.928671
0.991219 0.992061 0.962421
0.997868 0.963249 0.950346
0.971094 0.996068 0.979468
0.971094 0.996067 0.979467
0.971091 0.996064 0.979455
0.971041 0.996012 0.979272
0.994785 0.995097 0.992306
0.860498 0.915773 0.997410
0.861388 0.916342 0.997038
0.876897 0.923063 0.994559
1.000000 0.958773 0.991881
1.000000 0.971301 0.979238
0.861279 0.916272 0.997037
0.862167 0.916838 0.996670
0.877233 0.923566 0.994107
1.000000 0.958756 0.991920
1.000000 0.971303 0.979246
0.873222 0.924045 0.992378
0.873434 0.924180 0.992309
0.884126 0.930334 0.989124
1.000000 0.960231 0.992044
1.000000 0.971330 0.979360
0.956416 0.996042 0.990644
0.956401 0.996038 0.990655
0.956178 0.995988 0.990815
0.988306 0.988306 0.988306
1.000000 0.971713 0.980953
0.975461 0.997659 0.996615
0.975461 0.997659 0.996615
0.975461 0.997659 0.996615
0.975461 0.997659 0.996615
0.994745 0.994749 0.994713
0.969313 0.992967 0.999311
0.969384 0.992943 0.999265
0.970314 0.992646 0.998687
0.990714 0.991291 0.992774
1.000000 0.976353 1.000000
0.969387 0.993057 0.999331
0.969458 0.993033 0.999285
0.970384 0.992731 0.998707
0.990718 0.991325 0.992783
1.000000 0.976353 1.000000
0.970469 0.993788 0.998878
0.970527 0.993770 0.998844
0.971408 0.993490 0.998375
0.990849 0.991831 0.992945
1.000000 0.976353 1.000000
0.975461 0.997659 0.996615
0.975461 0.997659 0.996615
0.975792 0.997491 0.996490
0.991908 0.993990 0.993922
0.993744 0.989962 0.992976
0.975461 0.997659 0.996615
0.975461 0.997659 0.996615
0.975461 0.997659 0.996615
0.975461 0.997659 0.996615
0.994747 0.994747 0.994747
