Assets/Data/Textures/70 CGC LUTs/LUTs_AgX_Filmic_ViewTransforms/ARRILogC4AWG4-to-JP2499DRT-ClassicNegative-sRGB.cube
#  Baked from the PixelManager OCIO config by Joe Genco
#  https://github.com/Joegenco/PixelManager
#  Input Gamma: Arri LogC4
#  Input Color Space: Arri Wide Gamut 4
#  floating point data (range 0.0 - 1.0)   
#       
#  Output Gamma: Gamma 2.2 (Display)
#  Output Color Space: Rec.709
#  floating point data (range 0.0 - 1.0)
LUT_3D_SIZE 5
0.001953 0.001953 0.001953
0.247692 0.018698 0.017886
0.854127 0.176492 0.061549
0.999854 0.763438 0.658881
0.998555 0.952442 0.997098
0.003723 0.219206 0.003443
0.333416 0.307976 0.004570
0.873221 0.213591 0.062949
0.999856 0.763600 0.660931
0.998554 0.952457 0.997101
0.332642 0.790576 0.025811
0.353796 0.800053 0.027680
0.896198 0.850024 0.038437
0.999882 0.799073 0.678401
0.998543 0.952677 0.997140
0.957080 0.985806 0.714741
0.957111 0.985815 0.714962
0.960903 0.986924 0.732400
0.997283 0.992168 0.825521
0.996825 0.981703 0.996825
0.991167 0.995760 0.994872
0.991167 0.995760 0.994876
0.991166 0.995760 0.994926
0.993284 0.996014 0.995796
0.995947 0.995947 0.995947
0.010229 0.020624 0.112695
0.321803 0.031841 0.227694
0.873071 0.213725 0.136133
0.999865 0.764984 0.676581
0.998548 0.952577 0.997122
0.004113 0.299667 0.256756
0.345146 0.351457 0.340376
0.894085 0.252022 0.151537
0.999866 0.765138 0.678528
0.998547 0.952592 0.997125
0.363333 0.805471 0.039041
0.384430 0.814509 0.043916
0.903634 0.857865 0.069746
0.999890 0.800307 0.694184
0.998536 0.952811 0.997164
0.957468 0.985920 0.717360
0.957497 0.985928 0.717573
0.961178 0.987001 0.734496
0.997291 0.992198 0.826174
0.996824 0.981718 0.996824
0.991167 0.995760 0.994912
0.991167 0.995760 0.994915
0.991166 0.995760 0.994965
0.993281 0.996014 0.995805
0.995947 0.995947 0.995947
0.050871 0.405739 0.810083
0.060526 0.437993 0.836890
0.895672 0.540739 0.875819
0.999847 0.788768 0.850304
0.998448 0.954480 0.997464
0.049527 0.449434 0.840107
0.051139 0.476670 0.862404
0.902150 0.559051 0.888133
0.999847 0.789189 0.851212
0.998448 0.954494 0.997466
0.458600 0.834558 0.869870
0.477003 0.841253 0.877980
0.891284 0.865110 0.913166
0.999915 0.819408 0.865918
0.998437 0.954664 0.997506
0.960925 0.986692 0.767047
0.960939 0.986693 0.767485
0.964405 0.987734 0.782555
0.997175 0.992145 0.860721
0.996804 0.982042 0.996804
0.991160 0.995760 0.995428
0.991160 0.995760 0.995429
0.991158 0.995761 0.995441
0.993248 0.996013 0.995936
0.995947 0.995947 0.995947
0.492775 0.893928 0.999383
0.499527 0.895073 0.999400
0.705110 0.906521 0.999590
0.996082 0.939952 0.998653
0.997542 0.969781 0.997542
0.496320 0.895338 0.999400
0.502231 0.896458 0.999417
0.701290 0.907638 0.999598
0.996101 0.940242 0.998650
0.997542 0.969787 0.997542
0.564180 0.913515 0.999543
0.567115 0.914277 0.999551
0.666024 0.922846 0.999667
0.996371 0.944493 0.998604
0.997515 0.970242 0.997515
0.965345 0.987168 0.995882
0.965495 0.987214 0.995906
0.967352 0.987868 0.996254
0.994528 0.990636 0.996321
0.996628 0.984924 0.996628
0.990976 0.995834 0.996080
0.990976 0.995834 0.996080
0.990973 0.995834 0.996080
0.992866 0.996020 0.996020
0.995947 0.995947 0.995947
0.967298 0.991139 0.996961
0.967337 0.991151 0.996959
0.968121 0.991306 0.996931
0.994257 0.991810 0.996254
0.996298 0.990302 0.996298
0.967492 0.991170 0.996954
0.967531 0.991181 0.996953
0.968305 0.991337 0.996924
0.994254 0.991848 0.996251
0.996295 0.990340 0.996295
0.970240 0.991605 0.996860
0.970279 0.991616 0.996859
0.970908 0.991772 0.996834
0.994199 0.992373 0.996219
0.996263 0.990868 0.996263
0.986565 0.995145 0.996234
0.986582 0.995149 0.996234
0.986807 0.995202 0.996225
0.993408 0.995631 0.996032
0.995982 0.995395 0.995982
0.990682 0.995907 0.996082
0.990695 0.995911 0.996082
0.990885 0.995970 0.996073
0.992994 0.996017 0.996017
0.995947 0.995947 0.995947
