Assets/Data/Textures/70 CGC LUTs/LUTs_AgX_Filmic_ViewTransforms/ARRILogC4AWG4-to-JP2499DRT-ClassicNegative-sRGB.cube
#  Baked from the PixelManager OCIO config by Joe Genco
#  https://github.com/Joegenco/PixelManager
#  Input Gamma: Arri LogC4
#  Input Color Space: Arri Wide Gamut 4
#  floating point data (range 0.0 - 1.0)   
#       
#  Output Gamma: Gamma 2.2 (Display)
#  Output Color Space: Rec.709
#  floating point data (range 0.0 - 1.0)
LUT_3D_SIZE 33
0.001953 0.001953 0.001953
0.001953 0.001953 0.001953
0.001953 0.001953 0.001953
0.002618 0.001999 0.001972
0.027945 0.004069 0.002795
0.059035 0.006715 0.004677
0.107201 0.009222 0.007490
0.174680 0.013541 0.012647
0.247692 0.018698 0.017886
0.323212 0.024141 0.023415
0.406334 0.030712 0.029403
0.494145 0.037804 0.035746
0.578364 0.046333 0.041778
0.658057 0.057515 0.047377
0.731835 0.077466 0.052476
0.798387 0.113656 0.056984
0.854127 0.176492 0.061549
0.898758 0.252888 0.070666
0.935108 0.331752 0.093733
0.964451 0.410637 0.154849
0.983895 0.488217 0.254856
0.994172 0.563489 0.365193
0.998507 0.636034 0.470167
0.999615 0.703323 0.568712
0.999854 0.763438 0.658881
0.999933 0.815524 0.739756
0.999963 0.859179 0.806906
0.999950 0.894385 0.861571
0.999947 0.908735 0.913294
0.999857 0.917239 0.957993
0.999606 0.928029 0.981394
0.999201 0.940588 0.992371
0.998555 0.952442 0.997098
0.001953 0.001953 0.001953
0.001953 0.001953 0.001953
0.001953 0.001953 0.001953
0.002361 0.001981 0.001965
0.027716 0.004044 0.002782
0.058845 0.006695 0.004664
0.106991 0.009208 0.007479
0.174498 0.013528 0.012635
0.247547 0.018688 0.017876
0.323108 0.024134 0.023408
0.406966 0.030761 0.029450
0.494543 0.037838 0.035778
0.578633 0.046364 0.041799
0.658212 0.057553 0.047399
0.731930 0.077517 0.052491
0.798465 0.113808 0.057012
0.854174 0.176618 0.061602
0.898800 0.252981 0.070784
0.935150 0.331823 0.094027
0.964476 0.410686 0.155191
0.983902 0.488247 0.255162
0.994173 0.563508 0.365393
0.998508 0.636046 0.470303
0.999615 0.703331 0.568803
0.999854 0.763443 0.658941
0.999933 0.815527 0.739792
0.999963 0.859181 0.806928
0.999950 0.894386 0.861584
0.999947 0.908736 0.913301
0.999857 0.917240 0.957996
0.999606 0.928030 0.981395
0.999201 0.940588 0.992372
0.998555 0.952443 0.997098
0.001953 0.001953 0.001953
0.001953 0.001953 0.001953
0.001953 0.001953 0.001953
0.001953 0.001953 0.001953
0.027392 0.004009 0.002763
0.058578 0.006666 0.004645
0.106697 0.009189 0.007463
0.174245 0.013510 0.012618
0.247345 0.018674 0.017861
0.322964 0.024123 0.023397
0.407743 0.030821 0.029508
0.495077 0.037886 0.035820
0.579002 0.046409 0.041829
0.658426 0.057605 0.047429
0.732060 0.077588 0.052511
0.798574 0.114020 0.057051
0.854241 0.176792 0.061686
0.898858 0.253110 0.070947
0.935209 0.331922 0.094437
0.964511 0.410755 0.155669
0.983912 0.488289 0.255588
0.994174 0.563533 0.365673
0.998508 0.636062 0.470492
0.999615 0.703342 0.568930
0.999854 0.763450 0.659026
0.999933 0.815532 0.739842
0.999963 0.859184 0.806959
0.999950 0.894388 0.861603
0.999947 0.908737 0.913310
0.999857 0.917241 0.958000
0.999606 0.928031 0.981397
0.999201 0.940589 0.992372
0.998555 0.952443 0.997099
0.001953 0.001953 0.001953
0.001953 0.001953 0.001953
0.001953 0.001953 0.001953
0.001953 0.001953 0.001953
0.026932 0.003960 0.002736
0.058204 0.006626 0.004619
0.106284 0.009162 0.007442
0.173889 0.013485 0.012595
0.247054 0.018653 0.017839
0.322761 0.024109 0.023382
0.408779 0.030902 0.029587
0.495783 0.037948 0.035876
0.579505 0.046472 0.041870
0.658719 0.057677 0.047470
0.732241 0.077686 0.052539
0.798726 0.114314 0.057109
0.854339 0.177034 0.061825
0.898939 0.253289 0.071175
0.935291 0.332060 0.095008
0.964559 0.410851 0.156335
0.983927 0.488348 0.256183
0.994175 0.563569 0.366064
0.998508 0.636085 0.470758
0.999615 0.703357 0.569107
0.999855 0.763459 0.659144
0.999933 0.815537 0.739912
0.999963 0.859187 0.807003
0.999950 0.894390 0.861630
0.999947 0.908738 0.913322
0.999857 0.917243 0.958005
0.999606 0.928033 0.981399
0.999201 0.940590 0.992373
0.998555 0.952444 0.997099
0.004363 0.022579 0.003011
0.004354 0.022513 0.003007
0.004341 0.022422 0.003001
0.004323 0.022292 0.002993
0.039257 0.031815 0.004568
0.097412 0.016852 0.007008
0.161475 0.014044 0.011677
0.222003 0.017091 0.016011
0.282950 0.021341 0.020473
0.348275 0.026059 0.025214
0.427896 0.032507 0.030948
0.507132 0.038929 0.036697
0.585396 0.047099 0.042289
0.660735 0.058059 0.047631
0.732490 0.077821 0.052578
0.798939 0.114720 0.057206
0.854475 0.177369 0.062017
0.899051 0.253538 0.071491
0.935404 0.332252 0.095803
0.964627 0.410985 0.157262
0.983947 0.488430 0.257012
0.994176 0.563619 0.366609
0.998509 0.636118 0.471127
0.999615 0.703377 0.569355
0.999855 0.763472 0.659308
0.999933 0.815546 0.740009
0.999963 0.859192 0.807063
0.999950 0.894393 0.861667
0.999947 0.908740 0.913340
0.999857 0.917245 0.958012
0.999606 0.928035 0.981402
0.999201 0.940592 0.992374
0.998555 0.952445 0.997099
0.006491 0.048992 0.003503
0.006524 0.048912 0.003543
0.006571 0.048799 0.003599
0.006636 0.048640 0.003677
0.006086 0.080432 0.004246
0.088497 0.075536 0.004427
0.184304 0.054620 0.011723
0.260614 0.031926 0.018353
0.326472 0.027820 0.023451
0.391937 0.030981 0.028278
0.463156 0.035804 0.033422
0.533858 0.041979 0.038563
0.604736 0.049446 0.043628
0.674157 0.060553 0.048532
0.740859 0.081008 0.053074
0.802736 0.119247 0.057413
0.855343 0.179044 0.062254
0.899207 0.253884 0.071931
0.935563 0.332519 0.096908
0.964721 0.411171 0.158553
0.983976 0.488544 0.258168
0.994178 0.563689 0.367369
0.998510 0.636163 0.471643
0.999615 0.703406 0.569701
0.999855 0.763490 0.659538
0.999933 0.815557 0.740145
0.999963 0.859199 0.807148
0.999950 0.894397 0.861718
0.999947 0.908743 0.913365
0.999857 0.917249 0.958022
0.999605 0.928037 0.981406
0.999201 0.940594 0.992375
0.998555 0.952447 0.997099
0.004123 0.090586 0.003729
0.004127 0.090507 0.003733
0.004132 0.090397 0.003738
0.004139 0.090242 0.003746
0.003305 0.126728 0.002966
0.019692 0.155053 0.002982
0.163156 0.146698 0.004348
0.268385 0.123649 0.014019
0.351663 0.082998 0.023195
0.428171 0.052503 0.030017
0.499001 0.044717 0.035711
0.564955 0.047419 0.040630
0.628854 0.054878 0.045166
0.691764 0.066222 0.049594
0.753179 0.089051 0.053702
0.809934 0.128451 0.057669
0.859736 0.187168 0.062429
0.901204 0.258564 0.072237
0.936047 0.333673 0.098307
0.964852 0.411431 0.160347
0.984015 0.488703 0.259776
0.994180 0.563787 0.368428
0.998511 0.636225 0.472362
0.999616 0.703447 0.570183
0.999855 0.763516 0.659859
0.999933 0.815573 0.740335
0.999963 0.859209 0.807267
0.999950 0.894402 0.861790
0.999947 0.908746 0.913399
0.999857 0.917253 0.958037
0.999605 0.928041 0.981412
0.999201 0.940597 0.992377
0.998555 0.952449 0.997100
0.003647 0.151818 0.003287
0.003646 0.151741 0.003286
0.003645 0.151634 0.003284
0.003643 0.151483 0.003282
0.004065 0.179727 0.003735
0.004493 0.219613 0.003791
0.090051 0.233979 0.004213
0.243195 0.224348 0.003306
0.355446 0.205438 0.014582
0.449925 0.173442 0.025914
0.529648 0.124680 0.034791
0.597019 0.082320 0.041499
0.656553 0.071445 0.046452
0.713138 0.079006 0.050599
0.768057 0.101698 0.054312
0.819756 0.141133 0.057995
0.865647 0.198299 0.062680
0.904682 0.266810 0.072505
0.938132 0.339467 0.099481
0.965474 0.413991 0.162196
0.984055 0.488917 0.262030
0.994184 0.563923 0.369902
0.998513 0.636313 0.473365
0.999616 0.703503 0.570856
0.999855 0.763551 0.660307
0.999933 0.815596 0.740601
0.999963 0.859222 0.807432
0.999950 0.894410 0.861890
0.999947 0.908751 0.913448
0.999857 0.917260 0.958057
0.999605 0.928047 0.981420
0.999201 0.940601 0.992380
0.998554 0.952453 0.997100
0.003723 0.219206 0.003443
0.003723 0.219153 0.003442
0.003722 0.219078 0.003441
0.003721 0.218973 0.003440
0.004408 0.238159 0.004056
0.005862 0.270588 0.005261
0.007636 0.304850 0.005486
0.178846 0.315398 0.004342
0.333416 0.307976 0.004570
0.449953 0.288735 0.015607
0.542961 0.257655 0.027390
0.620018 0.212883 0.037384
0.684708 0.157137 0.045222
0.738338 0.119410 0.050925
0.786394 0.127631 0.054677
0.832066 0.159696 0.058321
0.873221 0.213591 0.062949
0.909262 0.278125 0.072768
0.940952 0.347518 0.100956
0.966753 0.419747 0.164028
0.984573 0.492440 0.264250
0.994208 0.564324 0.371913
0.998515 0.636435 0.474760
0.999616 0.703582 0.571793
0.999856 0.763600 0.660931
0.999934 0.815627 0.740971
0.999963 0.859241 0.807664
0.999950 0.894421 0.862031
0.999947 0.908758 0.913515
0.999857 0.917268 0.958084
0.999605 0.928055 0.981431
0.999200 0.940606 0.992384
0.998554 0.952457 0.997101
0.006104 0.289876 0.005398
0.006106 0.290415 0.005397
0.006108 0.291102 0.005396
0.006111 0.292128 0.005394
0.006151 0.305384 0.005373
0.006584 0.331054 0.005588
0.007748 0.364244 0.006567
0.016351 0.395401 0.007377
0.269168 0.398373 0.005174
0.424467 0.388668 0.005413
0.539396 0.369480 0.016277
0.629043 0.338586 0.028011
0.700727 0.296248 0.038389
0.759332 0.241361 0.047301
0.806603 0.200479 0.053297
0.846925 0.203863 0.057686
0.883092 0.239674 0.062713
0.915205 0.295053 0.072970
0.944052 0.358991 0.102497
0.968448 0.427752 0.166263
0.985407 0.498177 0.267002
0.994562 0.568259 0.374034
0.998549 0.637288 0.476606
0.999617 0.703691 0.573091
0.999856 0.763669 0.661802
0.999934 0.815670 0.741487
0.999963 0.859267 0.807986
0.999950 0.894437 0.862227
0.999947 0.908768 0.913609
0.999857 0.917281 0.958123
0.999605 0.928065 0.981447
0.999200 0.940614 0.992390
0.998554 0.952464 0.997102
0.008013 0.369452 0.006727
0.008029 0.369757 0.006736
0.008051 0.370166 0.006749
0.008087 0.370859 0.006770
0.008455 0.377797 0.006985
0.009243 0.397228 0.007396
0.009918 0.422344 0.007657
0.010997 0.451635 0.008012
0.069051 0.479847 0.008399
0.358618 0.478243 0.005265
0.512061 0.467730 0.006391
0.623264 0.447549 0.016995
0.706137 0.417489 0.027986
0.769589 0.376384 0.038188
0.819679 0.325647 0.047201
0.859627 0.286858 0.054517
0.892445 0.287312 0.061040
0.921240 0.322167 0.071971
0.947899 0.376250 0.102996
0.970746 0.439408 0.168353
0.986492 0.505999 0.270505
0.995046 0.573733 0.376814
0.998701 0.640979 0.478695
0.999621 0.704788 0.574730
0.999857 0.763765 0.663014
0.999934 0.815731 0.742207
0.999963 0.859304 0.808436
0.999950 0.894458 0.862500
0.999947 0.908782 0.913740
0.999856 0.917298 0.958178
0.999604 0.928080 0.981470
0.999199 0.940625 0.992397
0.998553 0.952473 0.997104
0.010751 0.446542 0.007932
0.010760 0.446755 0.007935
0.010771 0.447048 0.007939
0.010787 0.447446 0.007945
0.010872 0.450014 0.007978
0.011973 0.464729 0.008364
0.013464 0.483596 0.008929
0.015600 0.506552 0.009569
0.023043 0.534671 0.010099
0.184161 0.558192 0.009599
0.445979 0.554774 0.006292
0.595298 0.543481 0.007416
0.699481 0.524150 0.017280
0.772952 0.495101 0.027088
0.826848 0.455336 0.036625
0.868664 0.407026 0.046288
0.901275 0.370207 0.055971
0.928150 0.369563 0.069673
0.952546 0.403429 0.102447
0.973665 0.456541 0.169840
0.987982 0.517447 0.274479
0.995698 0.581434 0.380438
0.998879 0.646174 0.481456
0.999632 0.708161 0.576582
0.999859 0.764938 0.664484
0.999935 0.815815 0.743210
0.999964 0.859355 0.809063
0.999950 0.894488 0.862881
0.999947 0.908801 0.913924
0.999856 0.917322 0.958254
0.999604 0.928101 0.981500
0.999198 0.940640 0.992408
0.998553 0.952485 0.997106
0.017509 0.522770 0.009886
0.017541 0.522955 0.009891
0.017585 0.523210 0.009897
0.017649 0.523564 0.009905
0.017742 0.524049 0.009917
0.019453 0.533343 0.010124
0.021992 0.547223 0.010433
0.025230 0.564636 0.010821
0.032972 0.586892 0.011354
0.068371 0.613662 0.011917
0.286571 0.631539 0.010987
0.531835 0.627051 0.007031
0.672923 0.616000 0.008139
0.765605 0.597775 0.017154
0.828867 0.570724 0.025872
0.873321 0.533019 0.034667
0.907338 0.486934 0.045777
0.934284 0.452024 0.062689
0.957460 0.451086 0.098219
0.977158 0.483779 0.169293
0.989875 0.534268 0.278166
0.996574 0.592545 0.384874
0.998942 0.653560 0.485002
0.999646 0.712870 0.578984
0.999862 0.767970 0.666220
0.999936 0.816968 0.744386
0.999964 0.859426 0.809936
0.999950 0.894530 0.863412
0.999947 0.908827 0.914179
0.999856 0.917356 0.958360
0.999603 0.928130 0.981544
0.999197 0.940661 0.992422
0.998552 0.952503 0.997109
0.037609 0.597192 0.011633
0.037666 0.597308 0.011636
0.037744 0.597468 0.011641
0.037853 0.597690 0.011647
0.038002 0.597995 0.011657
0.039928 0.602205 0.011767
0.044418 0.612023 0.012022
0.051985 0.625032 0.012355
0.070233 0.641545 0.012730
0.091322 0.662627 0.013458
0.176312 0.686270 0.014205
0.384429 0.698866 0.012628
0.614545 0.693944 0.007945
0.742947 0.684119 0.009877
0.821597 0.667376 0.017208
0.873807 0.642833 0.025043
0.909009 0.608636 0.034284
0.936727 0.566031 0.050827
0.960180 0.533502 0.086044
0.979843 0.531869 0.162999
0.991427 0.561464 0.280500
0.996922 0.609169 0.389948
0.999020 0.664098 0.489172
0.999664 0.719684 0.582149
0.999867 0.772142 0.668426
0.999937 0.819601 0.745765
0.999964 0.860467 0.810919
0.999951 0.894588 0.864152
0.999946 0.908864 0.914535
0.999855 0.917403 0.958507
0.999602 0.928171 0.981604
0.999196 0.940691 0.992443
0.998550 0.952528 0.997114
0.097180 0.668287 0.013718
0.097263 0.668361 0.013722
0.097378 0.668463 0.013728
0.097537 0.668604 0.013736
0.097758 0.668801 0.013747
0.098482 0.669482 0.013780
0.108410 0.676293 0.014077
0.124350 0.685313 0.014461
0.145084 0.696870 0.014958
0.172512 0.711947 0.015711
0.207846 0.730447 0.017175
0.295416 0.750071 0.018350
0.482962 0.759535 0.016255
0.692451 0.754469 0.010226
0.802630 0.745930 0.012363
0.867717 0.731895 0.018536
0.908410 0.710666 0.026837
0.936818 0.681299 0.039076
0.960334 0.643094 0.068761
0.980678 0.613147 0.147838
0.992599 0.608950 0.277904
0.997324 0.635508 0.393141
0.999105 0.679753 0.493522
0.999685 0.729330 0.585938
0.999873 0.778247 0.671363
0.999938 0.823241 0.747504
0.999962 0.862672 0.812057
0.999950 0.895500 0.864964
0.999946 0.908916 0.915032
0.999854 0.917469 0.958713
0.999600 0.928227 0.981689
0.999193 0.940732 0.992472
0.998549 0.952562 0.997120
0.212502 0.732889 0.017390
0.212598 0.732934 0.017395
0.212731 0.732996 0.017401
0.212918 0.733082 0.017410
0.213176 0.733201 0.017422
0.213534 0.733367 0.017439
0.218882 0.736180 0.017700
0.230632 0.742391 0.018265
0.247204 0.750124 0.018964
0.269726 0.760270 0.020138
0.297277 0.773467 0.022621
0.331931 0.789946 0.025671
0.411335 0.806159 0.028999
0.581863 0.813477 0.026371
0.763142 0.808536 0.017459
0.853493 0.801281 0.019035
0.904165 0.790004 0.024182
0.936303 0.773138 0.035857
0.959507 0.748762 0.059489
0.979624 0.716286 0.130130
0.992843 0.687211 0.264782
0.997762 0.680848 0.392600
0.999226 0.703991 0.497066
0.999702 0.743757 0.589844
0.999880 0.786892 0.674837
0.999939 0.828546 0.749809
0.999961 0.865743 0.813478
0.999948 0.897329 0.865929
0.999944 0.909807 0.915601
0.999853 0.917561 0.959000
0.999598 0.928306 0.981806
0.999190 0.940789 0.992513
0.998546 0.952610 0.997128
0.332642 0.790576 0.025811
0.332725 0.790618 0.025825
0.332841 0.790677 0.025844
0.333003 0.790758 0.025872
0.333227 0.790872 0.025910
0.333539 0.791029 0.025963
0.333971 0.791248 0.026036
0.342029 0.795141 0.026680
0.353796 0.800053 0.027680
0.369629 0.806719 0.030513
0.391170 0.815745 0.034287
0.418715 0.827259 0.038853
0.453819 0.841452 0.046239
0.528346 0.854849 0.058486
0.677758 0.860345 0.054352
0.825696 0.855852 0.038476
0.896198 0.850024 0.038437
0.934017 0.841148 0.043526
0.959300 0.829240 0.063861
0.978281 0.809730 0.126853
0.991639 0.780901 0.254273
0.997546 0.752635 0.385034
0.999293 0.746136 0.496388
0.999731 0.765025 0.592970
0.999882 0.799073 0.678401
0.999937 0.836037 0.752467
0.999955 0.870195 0.815370
0.999944 0.899837 0.867116
0.999941 0.911510 0.916289
0.999847 0.918763 0.959459
0.999594 0.928416 0.981970
0.999185 0.940870 0.992569
0.998543 0.952677 0.997140
0.452495 0.841201 0.046258
0.452558 0.841225 0.046314
0.452648 0.841260 0.046392
0.452772 0.841309 0.046501
0.452945 0.841376 0.046652
0.453186 0.841470 0.046863
0.453521 0.841601 0.047156
0.455783 0.842418 0.048239
0.464708 0.845599 0.051923
0.476899 0.849953 0.056906
0.493184 0.855778 0.062838
0.514760 0.863478 0.070479
0.542572 0.873380 0.080055
0.576994 0.884491 0.110303
0.642791 0.895252 0.136515
0.764906 0.899684 0.133718
0.878466 0.896499 0.108430
0.931008 0.892165 0.101176
0.958906 0.885521 0.104906
0.977445 0.876574 0.168277
0.989622 0.859823 0.263853
0.996094 0.834364 0.382047
0.998922 0.808909 0.491371
0.999660 0.802083 0.592498
0.999863 0.817507 0.680975
0.999936 0.845604 0.755362
0.999947 0.875580 0.817642
0.999933 0.902811 0.868568
0.999937 0.914000 0.917131
0.999836 0.921007 0.960119
0.999566 0.929679 0.982377
0.999179 0.940981 0.992648
0.998538 0.952770 0.997157
0.574686 0.883830 0.109531
0.574727 0.883845 0.109603
0.574785 0.883864 0.109702
0.574865 0.883892 0.109841
0.574978 0.883931 0.110034
0.575134 0.883984 0.110304
0.575352 0.884059 0.110679
0.575655 0.884163 0.111200
0.579258 0.885268 0.114465
0.587821 0.887876 0.121774
0.599199 0.891337 0.131518
0.615022 0.896156 0.144616
0.634816 0.902452 0.160690
0.659440 0.909722 0.188266
0.690052 0.917232 0.225308
0.744066 0.925051 0.262669
0.837081 0.928256 0.271862
0.917337 0.926825 0.259346
0.955516 0.924456 0.249380
0.976050 0.919724 0.254846
0.987550 0.911586 0.317601
0.994441 0.897837 0.396068
0.998022 0.877022 0.492148
0.999426 0.855603 0.588871
0.999810 0.848891 0.680642
0.999925 0.861302 0.757369
0.999936 0.883456 0.820010
0.999918 0.907064 0.870089
0.999931 0.917445 0.918457
0.999798 0.923713 0.960984
0.999513 0.932003 0.983044
0.999113 0.942283 0.992892
0.998531 0.952900 0.997180
0.687014 0.916500 0.223291
0.687039 0.916507 0.223355
0.687074 0.916517 0.223444
0.687123 0.916530 0.223569
0.687192 0.916548 0.223742
0.687288 0.916574 0.223983
0.687422 0.916610 0.224320
0.687607 0.916659 0.224788
0.687866 0.916728 0.225439
0.691820 0.917766 0.230841
0.699069 0.919670 0.240440
0.708675 0.922201 0.253183
0.721874 0.925672 0.270208
0.738746 0.929953 0.288930
0.758228 0.934970 0.314226
0.782778 0.940469 0.346592
0.822837 0.946179 0.377592
0.888732 0.948842 0.391769
0.944418 0.948111 0.389189
0.970919 0.946942 0.385613
0.985121 0.943554 0.393688
0.992866 0.937154 0.443431
0.996966 0.927094 0.508484
0.998915 0.910109 0.592344
0.999652 0.893026 0.677744
0.999877 0.886807 0.757142
0.999914 0.896455 0.821630
0.999893 0.913456 0.871643
0.999916 0.922631 0.920284
0.999736 0.927259 0.962087
0.999439 0.935274 0.983877
0.998994 0.944625 0.993259
0.998447 0.954558 0.997305
0.779524 0.939804 0.344289
0.779539 0.939808 0.344327
0.779561 0.939812 0.344381
0.779591 0.939819 0.344456
0.779632 0.939828 0.344560
0.779690 0.939840 0.344706
0.779771 0.939858 0.344909
0.779884 0.939883 0.345191
0.780041 0.939916 0.345585
0.780259 0.939964 0.346132
0.784166 0.940846 0.351476
0.790209 0.942233 0.359749
0.797286 0.944093 0.369749
0.806964 0.946628 0.382870
0.819486 0.949982 0.400067
0.835292 0.953346 0.422762
0.852311 0.957579 0.451233
0.880719 0.962006 0.479576
0.926031 0.963792 0.496301
0.963107 0.963547 0.498363
0.981615 0.962870 0.497705
0.991003 0.960942 0.507272
0.995975 0.956110 0.549539
0.998257 0.948193 0.608230
0.999307 0.935302 0.681578
0.999715 0.922063 0.754691
0.999827 0.916456 0.821426
0.999847 0.923889 0.872620
0.999846 0.928991 0.922303
0.999649 0.932547 0.963283
0.999331 0.939895 0.984711
0.998832 0.947846 0.993708
0.998311 0.956800 0.997547
0.849733 0.957002 0.448922
0.849741 0.957004 0.448944
0.849751 0.957007 0.448975
0.849766 0.957010 0.449018
0.849786 0.957015 0.449079
0.849815 0.957022 0.449163
0.849855 0.957031 0.449281
0.849910 0.957044 0.449445
0.849988 0.957063 0.449674
0.850095 0.957088 0.449992
0.850245 0.957123 0.450434
0.853252 0.957872 0.455274
0.857463 0.958927 0.462080
0.863151 0.960365 0.471227
0.870763 0.962321 0.483623
0.879011 0.964518 0.500212
0.889611 0.967053 0.521655
0.902393 0.970258 0.546827
0.920999 0.973538 0.574405
0.950515 0.974822 0.592324
0.975773 0.974808 0.596073
0.988402 0.974434 0.596932
0.994729 0.973042 0.606629
0.997595 0.969841 0.644837
0.998888 0.963620 0.696114
0.999360 0.953996 0.758718
0.999588 0.943764 0.819668
0.999689 0.939285 0.872332
0.999724 0.939826 0.923414
0.999507 0.941127 0.964355
0.999057 0.945569 0.985579
0.998602 0.952429 0.994280
0.998134 0.959812 0.997589
0.900702 0.969772 0.544291
0.900705 0.969772 0.544306
0.900710 0.969774 0.544327
0.900716 0.969776 0.544356
0.900725 0.969778 0.544397
0.900737 0.969782 0.544454
0.900755 0.969787 0.544533
0.900779 0.969794 0.544643
0.900813 0.969804 0.544798
0.900860 0.969818 0.545012
0.900925 0.969837 0.545312
0.901075 0.969883 0.545865
0.903003 0.970478 0.550651
0.905610 0.971287 0.557149
0.909157 0.972404 0.565936
0.913943 0.973728 0.577872
0.920222 0.975186 0.593563
0.927473 0.977090 0.612277
0.935378 0.979529 0.636070
0.947888 0.981694 0.662106
0.967539 0.982718 0.678238
0.984441 0.982817 0.682950
0.992833 0.982622 0.684712
0.996879 0.981610 0.694592
0.998487 0.979287 0.728391
0.998947 0.974674 0.771997
0.999128 0.967608 0.823646
0.999278 0.959542 0.871058
0.999302 0.955549 0.923834
0.998969 0.954807 0.964692
0.998567 0.955764 0.986282
0.998241 0.958832 0.994780
0.997882 0.964118 0.997529
0.934137 0.979134 0.633427
0.934139 0.979134 0.633437
0.934141 0.979135 0.633451
0.934144 0.979136 0.633470
0.934149 0.979137 0.633497
0.934156 0.979139 0.633535
0.934165 0.979142 0.633588
0.934177 0.979146 0.633661
0.934195 0.979151 0.633764
0.934220 0.979158 0.633907
0.934254 0.979168 0.634107
0.934302 0.979183 0.634384
0.934479 0.979237 0.635093
0.935909 0.979683 0.639571
0.937850 0.980291 0.645656
0.940530 0.980978 0.653942
0.943955 0.981793 0.664767
0.947563 0.982885 0.678129
0.952208 0.984306 0.695392
0.958014 0.986072 0.717286
0.965778 0.987463 0.739257
0.978840 0.988262 0.754322
0.990082 0.988398 0.759369
0.995636 0.988301 0.761587
0.998047 0.987552 0.770962
0.998573 0.985754 0.797798
0.998624 0.982500 0.833357
0.998667 0.977250 0.873862
0.998457 0.973727 0.923578
0.997978 0.972351 0.963570
0.997666 0.971076 0.986171
0.997574 0.970074 0.994802
0.997487 0.970746 0.997340
0.957080 0.985806 0.714741
0.957081 0.985806 0.714748
0.957082 0.985806 0.714757
0.957084 0.985807 0.714770
0.957086 0.985808 0.714787
0.957090 0.985809 0.714812
0.957095 0.985810 0.714847
0.957101 0.985812 0.714895
0.957111 0.985815 0.714962
0.957123 0.985819 0.715056
0.957141 0.985824 0.715187
0.957167 0.985831 0.715369
0.957201 0.985841 0.715623
0.957366 0.985892 0.716398
0.958288 0.986147 0.720529
0.959386 0.986472 0.725621
0.960903 0.986924 0.732400
0.962920 0.987528 0.741550
0.965565 0.988325 0.753519
0.968934 0.989364 0.769051
0.972174 0.990459 0.786884
0.977676 0.991469 0.805708
0.986074 0.992077 0.819247
0.993582 0.992214 0.823576
0.997283 0.992168 0.825521
0.998211 0.991626 0.832492
0.998198 0.990239 0.854643
0.998108 0.987964 0.881981
0.997783 0.986053 0.921945
0.997234 0.985098 0.961345
0.996884 0.984160 0.984977
0.996788 0.983021 0.994323
0.996825 0.981703 0.996825
0.971600 0.990292 0.784855
0.971600 0.990293 0.784858
0.971601 0.990293 0.784863
0.971601 0.990293 0.784870
0.971602 0.990293 0.784880
0.971604 0.990293 0.784893
0.971606 0.990294 0.784912
0.971608 0.990295 0.784939
0.971612 0.990296 0.784976
0.971617 0.990297 0.785027
0.971625 0.990299 0.785099
0.971635 0.990301 0.785200
0.971649 0.990304 0.785340
0.971667 0.990309 0.785536
0.971773 0.990339 0.786211
0.972359 0.990510 0.789397
0.973160 0.990745 0.793748
0.974273 0.991071 0.799670
0.975746 0.991506 0.807647
0.977497 0.992084 0.818144
0.979357 0.992799 0.830069
0.981731 0.993474 0.844551
0.985169 0.994211 0.860478
0.990921 0.994636 0.870089
0.995882 0.994684 0.873697
0.997712 0.994663 0.875455
0.997771 0.994349 0.881252
0.997652 0.993347 0.898031
0.997410 0.992480 0.920969
0.996861 0.991886 0.958253
0.996478 0.991315 0.982612
0.996317 0.990746 0.993683
0.996311 0.990089 0.996311
0.981304 0.993350 0.842784
0.981304 0.993350 0.842786
0.981304 0.993350 0.842789
0.981304 0.993350 0.842794
0.981305 0.993350 0.842799
0.981306 0.993351 0.842808
0.981307 0.993351 0.842820
0.981308 0.993351 0.842835
0.981310 0.993352 0.842858
0.981313 0.993352 0.842889
0.981316 0.993353 0.842933
0.981321 0.993354 0.842994
0.981329 0.993356 0.843080
0.981339 0.993358 0.843198
0.981352 0.993361 0.843364
0.981436 0.993385 0.843977
0.981865 0.993506 0.846682
0.982450 0.993674 0.850379
