Assets/Data/Textures/70 CGC LUTs/LUTs_AgX_Filmic_ViewTransforms/ARRILogC4AWG4-to-AgX-BlenderPunchy-sRGB.cube
#  Baked from the PixelManager OCIO config by Joe Genco
#  https://github.com/Joegenco/PixelManager
#  Input Gamma: Arri LogC4
#  Input Color Space: Arri Wide Gamut 4
#  floating point data (range 0.0 - 1.0)   
#       
#  Output Gamma: Gamma 2.2 (Display)
#  Output Color Space: Rec.709
#  floating point data (range 0.0 - 1.0)
LUT_3D_SIZE 9
0.015538 0.015538 0.015538
0.052314 0.000000 0.007717
0.330126 0.000000 0.029314
0.687983 0.000000 0.143946
0.991706 0.303699 0.373690
1.000000 0.660536 0.689335
1.000000 0.854603 0.870206
1.000000 0.966619 0.976035
1.000000 1.000000 1.000000
0.000000 0.044711 0.023538
0.047034 0.045295 0.000000
0.333472 0.063597 0.000000
0.686397 0.000000 0.146862
0.991625 0.304311 0.375277
1.000000 0.660615 0.689560
1.000000 0.854612 0.870235
1.000000 0.966621 0.976040
1.000000 1.000000 1.000000
0.000000 0.301127 0.151708
0.000000 0.301096 0.144225
0.324735 0.310828 0.000000
0.696314 0.275173 0.000000
0.994115 0.304289 0.326335
1.000000 0.660919 0.690422
1.000000 0.854647 0.870345
1.000000 0.966625 0.976057
1.000000 1.000000 1.000000
0.000000 0.601683 0.293067
0.000000 0.600835 0.295995
0.027419 0.609285 0.103098
0.614222 0.589297 0.000000
0.949894 0.528307 0.341415
1.000000 0.658609 0.656177
1.000000 0.854778 0.870762
1.000000 0.966642 0.976123
1.000000 1.000000 1.000000
0.000000 0.838632 0.411259
0.000000 0.838407 0.412411
0.000000 0.838609 0.407219
0.332829 0.848203 0.212162
0.831465 0.805168 0.390194
1.000000 0.766168 0.670875
1.000000 0.853523 0.851212
1.000000 0.966708 0.976373
1.000000 1.000000 1.000000
0.380623 0.987812 0.568752
0.379704 0.987836 0.568658
0.376237 0.987927 0.568306
0.415214 0.986122 0.570847
0.671677 0.968013 0.618561
0.953605 0.935714 0.707277
1.000000 0.912626 0.859395
1.000000 0.965511 0.964469
1.000000 1.000000 1.000000
0.730531 1.000000 0.804096
0.730469 1.000000 0.804084
0.730231 1.000000 0.804039
0.729330 1.000000 0.803866
0.741846 1.000000 0.805192
0.860011 1.000000 0.830773
0.999814 1.000000 0.881633
1.000000 0.997072 0.968874
1.000000 1.000000 1.000000
0.895484 1.000000 0.936988
0.895474 1.000000 0.936986
0.895432 1.000000 0.936978
0.895303 1.000000 0.936951
0.894965 1.000000 0.936864
0.902100 1.000000 0.937667
0.968712 1.000000 0.952024
1.000000 1.000000 0.982743
1.000000 1.000000 1.000000
0.990336 1.000000 1.000000
0.990334 1.000000 1.000000
0.990329 1.000000 1.000000
0.990310 1.000000 1.000000
0.990236 1.000000 1.000000
0.989955 1.000000 1.000000
0.993958 1.000000 1.000000
1.000000 1.000000 1.000000
1.000000 1.000000 1.000000
0.014755 0.016686 0.027569
0.054326 0.000000 0.041204
0.327697 0.000000 0.095798
0.686416 0.000000 0.203350
0.991542 0.316439 0.399668
1.000000 0.662293 0.693314
1.000000 0.854825 0.870724
1.000000 0.966650 0.976117
1.000000 1.000000 1.000000
0.000000 0.048607 0.042623
0.044047 0.044047 0.044053
0.331693 0.000000 0.086112
0.686041 0.000000 0.205013
0.991452 0.316947 0.401055
1.000000 0.662371 0.693535
1.000000 0.854834 0.870752
1.000000 0.966651 0.976122
1.000000 1.000000 1.000000
0.000000 0.295430 0.155059
0.000000 0.293887 0.156519
0.305194 0.292215 0.000000
0.706915 0.240173 0.000000
0.995319 0.294815 0.334103
1.000000 0.662663 0.694373
1.000000 0.854868 0.870862
1.000000 0.966656 0.976139
1.000000 1.000000 1.000000
0.000000 0.596262 0.320259
0.000000 0.595711 0.320445
0.000000 0.603562 0.176324
0.610022 0.585316 0.000000
0.950746 0.525292 0.352306
1.000000 0.656694 0.656479
1.000000 0.854998 0.871278
1.000000 0.966673 0.976205
1.000000 1.000000 1.000000
0.000000 0.836618 0.424566
0.000000 0.836203 0.427170
0.000000 0.835810 0.427036
0.310095 0.848318 0.209879
0.830864 0.804480 0.388439
1.000000 0.766000 0.672731
1.000000 0.853250 0.851257
1.000000 0.966739 0.976455
1.000000 1.000000 1.000000
0.373398 0.988066 0.568064
0.373036 0.988076 0.567995
0.370100 0.988072 0.567620
0.399022 0.986767 0.569297
0.669793 0.968086 0.618145
0.953522 0.935613 0.707053
1.000000 0.912610 0.859655
1.000000 0.965481 0.964474
1.000000 1.000000 1.000000
0.729912 1.000000 0.804001
0.729850 1.000000 0.803989
0.729613 1.000000 0.803944
0.728717 1.000000 0.803772
0.740392 1.000000 0.804961
0.859724 1.000000 0.830710
0.999814 1.000000 0.881597
1.000000 0.997070 0.968918
1.000000 1.000000 1.000000
0.895376 1.000000 0.936971
0.895365 1.000000 0.936969
0.895332 1.000000 0.936962
0.895244 1.000000 0.936939
0.894906 1.000000 0.936852
0.901950 1.000000 0.937639
0.968670 1.000000 0.952014
1.000000 1.000000 0.982737
1.000000 1.000000 1.000000
0.990322 1.000000 1.000000
0.990320 1.000000 1.000000
0.990315 1.000000 1.000000
0.990296 1.000000 1.000000
0.990222 1.000000 1.000000
0.989941 1.000000 1.000000
0.993927 1.000000 1.000000
1.000000 1.000000 1.000000
1.000000 1.000000 1.000000
0.000000 0.055350 0.186135
0.074389 0.052533 0.221626
0.332631 0.000000 0.283772
0.692572 0.000000 0.341506
0.986597 0.334578 0.465418
1.000000 0.667566 0.705672
1.000000 0.855650 0.872664
1.000000 0.966767 0.976428
1.000000 1.000000 1.000000
0.000000 0.099964 0.227698
0.000000 0.077068 0.256714
0.337135 0.000000 0.289805
0.693550 0.000000 0.339363
0.986437 0.334541 0.466299
1.000000 0.667564 0.705821
1.000000 0.855659 0.872692
1.000000 0.966769 0.976433
1.000000 1.000000 1.000000
0.000000 0.313795 0.301715
0.000000 0.306984 0.296534
0.285169 0.285167 0.285196
0.719818 0.213408 0.288660
0.992356 0.334515 0.430384
1.000000 0.667556 0.706387
1.000000 0.855691 0.872797
1.000000 0.966773 0.976450
1.000000 1.000000 1.000000
0.000000 0.600097 0.403829
0.000000 0.599985 0.405510
0.000000 0.600991 0.335843
0.603067 0.581268 0.215547
0.947538 0.529237 0.417265
1.000000 0.654926 0.663341
1.000000 0.855814 0.873196
1.000000 0.966791 0.976517
1.000000 1.000000 1.000000
0.000000 0.834573 0.470927
0.000000 0.834599 0.472095
0.000000 0.833860 0.466097
0.256519 0.848026 0.275162
0.827461 0.803220 0.436118
1.000000 0.765436 0.679085
1.000000 0.852167 0.851424
1.000000 0.966857 0.976768
1.000000 1.000000 1.000000
0.292781 0.990106 0.562668
0.291697 0.990098 0.562562
0.284657 0.990208 0.562129
0.357568 0.988049 0.565451
0.661076 0.968540 0.616629
0.952973 0.935268 0.707081
1.000000 0.912550 0.860626
1.000000 0.965368 0.964494
1.000000 1.000000 1.000000
0.724991 1.000000 0.803318
0.724824 1.000000 0.803289
0.724114 1.000000 0.803182
0.721109 1.000000 0.802768
0.736096 1.000000 0.804272
0.858661 1.000000 0.830478
0.999815 1.000000 0.881463
1.000000 0.997062 0.969085
1.000000 1.000000 1.000000
0.895136 1.000000 0.936924
0.895130 1.000000 0.936922
0.895107 1.000000 0.936916
0.895018 1.000000 0.936894
0.894493 1.000000 0.936779
0.901282 1.000000 0.937530
0.968510 1.000000 0.951977
1.000000 1.000000 0.982717
1.000000 1.000000 1.000000
0.990269 1.000000 1.000000
0.990268 1.000000 1.000000
0.990263 1.000000 1.000000
0.990243 1.000000 1.000000
0.990170 1.000000 1.000000
0.989888 1.000000 1.000000
0.993806 1.000000 1.000000
1.000000 1.000000 1.000000
1.000000 1.000000 1.000000
0.009121 0.157885 0.482132
0.107866 0.137694 0.520003
0.347080 0.125675 0.559791
0.697242 0.084703 0.600863
0.970070 0.375302 0.607849
1.000000 0.673212 0.737108
1.000000 0.858628 0.879612
1.000000 0.967213 0.977605
1.000000 1.000000 1.000000
0.000000 0.206928 0.490423
0.007660 0.179056 0.529801
0.330619 0.140039 0.579552
0.699531 0.088686 0.603190
0.969898 0.375340 0.608278
1.000000 0.673208 0.737221
1.000000 0.858636 0.879638
1.000000 0.967214 0.977610
1.000000 1.000000 1.000000
0.000000 0.362063 0.537107
0.000000 0.346838 0.543817
0.202972 0.279766 0.621284
0.696483 0.207451 0.608084
0.976045 0.375614 0.592873
1.000000 0.673193 0.737651
1.000000 0.858637 0.879727
1.000000 0.967218 0.977627
1.000000 1.000000 1.000000
0.000000 0.615302 0.595083
0.000000 0.613183 0.593515
0.000000 0.604559 0.585025
0.579721 0.579719 0.579752
0.923334 0.573158 0.606811
1.000000 0.675653 0.716134
1.000000 0.858627 0.880059
1.000000 0.967235 0.977690
1.000000 1.000000 1.000000
0.000000 0.839303 0.600944
0.000000 0.839275 0.601544
0.000000 0.837929 0.594005
0.380329 0.838522 0.557300
0.818704 0.802258 0.591358
1.000000 0.772351 0.715604
1.000000 0.851181 0.855048
1.000000 0.967297 0.977932
1.000000 1.000000 1.000000
0.342775 0.987410 0.625918
0.343178 0.987403 0.626446
0.344705 0.987374 0.628444
0.361035 0.986379 0.617691
0.658156 0.967339 0.646964
0.950692 0.934576 0.731022
1.000000 0.912345 0.864058
1.000000 0.964939 0.964567
1.000000 1.000000 1.000000
0.704599 1.000000 0.802344
0.704646 1.000000 0.802434
0.704748 1.000000 0.802721
0.705207 1.000000 0.803788
0.721663 1.000000 0.802105
0.853765 1.000000 0.829578
0.999803 1.000000 0.880882
1.000000 0.997034 0.969706
1.000000 1.000000 1.000000
0.891979 1.000000 0.936465
0.891957 1.000000 0.936461
0.891875 1.000000 0.936447
0.891558 1.000000 0.936391
0.889990 1.000000 0.936161
0.898451 1.000000 0.937084
0.967915 1.000000 0.951841
1.000000 1.000000 0.982641
1.000000 1.000000 1.000000
0.990068 1.000000 1.000000
0.990067 1.000000 1.000000
0.990062 1.000000 1.000000
0.990042 1.000000 1.000000
0.989968 1.000000 1.000000
0.989379 1.000000 1.000000
0.993346 1.000000 1.000000
1.000000 1.000000 1.000000
1.000000 1.000000 1.000000
0.116127 0.330094 0.827346
0.210569 0.334087 0.828877
0.370322 0.348443 0.830957
0.617630 0.377704 0.834745
0.919810 0.488923 0.826051
1.000000 0.693098 0.816026
1.000000 0.861741 0.897225
1.000000 0.968654 0.981378
1.000000 1.000000 1.000000
0.059927 0.334904 0.831679
0.153970 0.337992 0.834867
0.354299 0.354451 0.836129
0.613776 0.381323 0.837900
0.920137 0.489780 0.826485
1.000000 0.693093 0.816092
1.000000 0.861740 0.897243
1.000000 0.968655 0.981382
1.000000 1.000000 1.000000
0.000000 0.402405 0.801852
0.000000 0.390048 0.810956
0.205263 0.368586 0.861696
0.593307 0.397475 0.850506
0.921414 0.492982 0.828050
1.000000 0.693233 0.815163
1.000000 0.861738 0.897311
1.000000 0.968660 0.981396
1.000000 1.000000 1.000000
0.000000 0.589855 0.806736
0.000000 0.585188 0.808456
0.000000 0.567028 0.820081
0.528736 0.573456 0.849818
0.901106 0.573456 0.825328
1.000000 0.693815 0.804359
1.000000 0.861728 0.897489
1.000000 0.968677 0.981450
1.000000 1.000000 1.000000
0.000000 0.843565 0.817523
0.000000 0.843021 0.817087
0.000000 0.840399 0.814330
0.303004 0.833201 0.810661
0.801560 0.801558 0.801579
0.999359 0.801437 0.818988
1.000000 0.862786 0.884454
1.000000 0.968742 0.981655
1.000000 1.000000 1.000000
0.375845 0.984436 0.758817
0.375876 0.984426 0.758977
0.375999 0.984386 0.759583
0.372533 0.983858 0.749778
0.715333 0.958262 0.792091
0.944469 0.934062 0.813446
1.000000 0.916478 0.883873
1.000000 0.963980 0.966117
1.000000 1.000000 1.000000
0.719924 1.000000 0.834040
0.719970 1.000000 0.834122
0.720144 1.000000 0.834430
0.720804 1.000000 0.835598
0.723550 1.000000 0.828940
0.852851 1.000000 0.846177
0.999745 1.000000 0.893517
1.000000 0.996916 0.971849
1.000000 1.000000 1.000000
0.884657 1.000000 0.937403
0.884654 1.000000 0.937402
0.884642 1.000000 0.937400
0.884597 1.000000 0.937390
0.884429 1.000000 0.937352
0.891055 1.000000 0.935897
0.965319 1.000000 0.951290
1.000000 1.000000 0.982303
1.000000 1.000000 1.000000
0.988124 1.000000 1.000000
0.988118 1.000000 1.000000
0.988099 1.000000 1.000000
0.988023 1.000000 1.000000
0.987867 1.000000 1.000000
0.986986 1.000000 1.000000
0.992025 1.000000 1.000000
1.000000 1.000000 1.000000
1.000000 1.000000 1.000000
0.521019 0.606762 0.979955
0.531837 0.609295 0.979305
0.567342 0.617663 0.977225
0.662722 0.637866 0.972472
0.821548 0.672133 0.965566
1.000000 0.752737 0.951164
1.000000 0.872701 0.942327
1.000000 0.970675 0.991487
1.000000 1.000000 1.000000
0.514435 0.606845 0.981299
0.525253 0.609385 0.980650
0.561343 0.617830 0.978495
0.660708 0.638878 0.973184
0.820887 0.672710 0.966021
1.000000 0.752881 0.951248
1.000000 0.872700 0.942336
1.000000 0.970675 0.991489
1.000000 1.000000 1.000000
0.468851 0.606012 0.987446
0.492382 0.609271 0.986437
0.532553 0.617947 0.983997
0.649984 0.643504 0.976597
0.817807 0.674940 0.967887
1.000000 0.753321 0.951404
1.000000 0.872695 0.942373
1.000000 0.970674 0.991500
1.000000 1.000000 1.000000
0.345859 0.634717 0.992747
0.350995 0.631687 0.993334
0.369284 0.622937 0.994926
0.565909 0.646315 0.991963
0.804780 0.685176 0.975421
1.000000 0.755054 0.952244
1.000000 0.872840 0.941553
1.000000 0.970673 0.991538
1.000000 1.000000 1.000000
0.370566 0.784417 0.986509
0.371311 0.783635 0.986760
0.376008 0.779510 0.988235
0.426973 0.768930 0.990896
0.772953 0.797420 0.967715
0.990896 0.802680 0.949128
1.000000 0.873468 0.935574
1.000000 0.970669 0.991529
1.000000 1.000000 1.000000
0.480007 0.972490 0.949350
0.479572 0.972398 0.949278
0.477925 0.972072 0.948945
0.471385 0.970777 0.947618
0.692881 0.954358 0.940391
0.933519 0.933518 0.933531
1.000000 0.934231 0.944505
1.000000 0.970888 0.983980
1.000000 1.000000 1.000000
0.732999 1.000000 0.908739
0.732999 1.000000 0.908759
0.733000 1.000000 0.908839
0.733004 1.000000 0.909141
0.730403 1.000000 0.902292
0.885826 1.000000 0.928490
0.999825 1.000000 0.940944
1.000000 0.998759 0.983416
1.000000 1.000000 1.000000
0.890550 1.000000 0.953544
0.890556 1.000000 0.953556
0.890580 1.000000 0.953601
0.890669 1.000000 0.953774
0.891007 1.000000 0.954427
0.890587 1.000000 0.950196
0.964368 1.000000 0.960350
1.000000 1.000000 0.989293
1.000000 1.000000 1.000000
0.984873 1.000000 1.000000
0.984873 1.000000 1.000000
0.984871 1.000000 1.000000
0.984864 1.000000 1.000000
0.984839 1.000000 1.000000
0.984744 1.000000 1.000000
0.987808 1.000000 1.000000
1.000000 1.000000 1.000000
1.000000 1.000000 1.000000
0.771468 0.816790 1.000000
0.773189 0.817225 1.000000
0.779502 0.818822 1.000000
0.800306 0.824117 1.000000
0.852454 0.836173 1.000000
0.945155 0.857610 1.000000
1.000000 0.905940 1.000000
1.000000 0.977229 1.000000
1.000000 1.000000 1.000000
0.770503 0.816784 1.000000
0.772223 0.817219 1.000000
0.778537 0.818816 1.000000
0.799570 0.824145 1.000000
0.852142 0.836346 1.000000
0.945045 0.857703 1.000000
1.000000 0.905964 1.000000
1.000000 0.977229 1.000000
1.000000 1.000000 1.000000
0.766987 0.816758 1.000000
0.768709 0.817195 1.000000
0.775024 0.818794 1.000000
0.796187 0.824148 1.000000
0.851005 0.836973 1.000000
0.944646 0.858040 1.000000
1.000000 0.906050 1.000000
1.000000 0.977228 1.000000
1.000000 1.000000 1.000000
0.744836 0.815711 1.000000
0.747548 0.816312 1.000000
0.757507 0.818514 1.000000
0.779080 0.824080 1.000000
0.844322 0.840104 1.000000
0.942726 0.859346 1.000000
1.000000 0.906328 1.000000
1.000000 0.977226 1.000000
1.000000 1.000000 1.000000
0.687040 0.828757 1.000000
0.687362 0.828317 1.000000
0.688534 0.826709 1.000000
0.695157 0.822653 1.000000
0.797635 0.841823 1.000000
0.935373 0.864866 1.000000
1.000000 0.907369 1.000000
1.000000 0.977302 1.000000
1.000000 1.000000 1.000000
0.710336 0.920371 1.000000
0.710379 0.920253 1.000000
0.710632 0.919687 1.000000
0.711673 0.917385 1.000000
0.736432 0.911556 1.000000
0.917494 0.931267 1.000000
1.000000 0.934588 1.000000
1.000000 0.977547 1.000000
1.000000 1.000000 1.000000
0.773196 1.000000 0.999806
0.773141 1.000000 0.999805
0.772946 1.000000 0.999801
0.772205 1.000000 0.999783
0.769358 1.000000 0.999720
0.873540 1.000000 0.999516
1.000000 1.000000 1.000000
1.000000 1.000000 1.000000
1.000000 1.000000 1.000000
0.898046 1.000000 0.995499
0.898046 1.000000 0.995501
0.898046 1.000000 0.995507
0.898047 1.000000 0.995532
0.898050 1.000000 0.995626
0.896454 1.000000 0.993224
0.984180 1.000000 1.000000
1.000000 1.000000 1.000000
1.000000 1.000000 1.000000
0.987495 1.000000 1.000000
0.987496 1.000000 1.000000
0.987500 1.000000 1.000000
0.987515 1.000000 1.000000
0.987573 1.000000 1.000000
0.987794 1.000000 1.000000
0.986873 1.000000 1.000000
1.000000 1.000000 1.000000
1.000000 1.000000 1.000000
0.917856 0.943879 1.000000
0.918100 0.943945 1.000000
0.919024 0.944194 1.000000
0.922409 0.945098 1.000000
0.933584 0.948086 1.000000
0.964305 0.955311 1.000000
1.000000 0.967800 1.000000
1.000000 0.995439 1.000000
1.000000 1.000000 1.000000
0.917712 0.943880 1.000000
0.917957 0.943947 1.000000
0.918881 0.944196 1.000000
0.922265 0.945097 1.000000
0.933470 0.948089 1.000000
0.964259 0.955336 1.000000
1.000000 0.967815 1.000000
1.000000 0.995441 1.000000
1.000000 1.000000 1.000000
0.917174 0.943883 1.000000
0.917418 0.943948 1.000000
0.918340 0.944193 1.000000
0.921722 0.945091 1.000000
0.933039 0.948099 1.000000
0.964085 0.955433 1.000000
1.000000 0.967869 1.000000
1.000000 0.995448 1.000000
1.000000 1.000000 1.000000
0.915198 0.943860 1.000000
0.915443 0.943925 1.000000
0.916365 0.944170 1.000000
0.919749 0.945070 1.000000
0.931103 0.948087 1.000000
0.963453 0.955784 1.000000
1.000000 0.968064 1.000000
1.000000 0.995474 1.000000
1.000000 1.000000 1.000000
0.903203 0.943144 1.000000
0.903631 0.943246 1.000000
0.905245 0.943630 1.000000
0.910622 0.944933 1.000000
0.921619 0.948036 1.000000
0.959648 0.957578 1.000000
1.000000 0.968915 1.000000
1.000000 0.995575 1.000000
1.000000 1.000000 1.000000
0.869118 0.949560 1.000000
0.869172 0.949489 1.000000
0.869376 0.949222 1.000000
0.870119 0.948248 1.000000
0.874608 0.945997 1.000000
0.933420 0.958696 1.000000
0.999563 0.972515 1.000000
1.000000 0.995941 1.000000
1.000000 1.000000 1.000000
0.883770 0.997932 1.000000
0.883777 0.997921 1.000000
0.883801 0.997879 1.000000
0.883963 0.997659 1.000000
0.884526 0.996805 1.000000
0.897249 0.994268 1.000000
0.997216 1.000000 1.000000
1.000000 1.000000 1.000000
1.000000 1.000000 1.000000
0.920074 1.000000 1.000000
0.920066 1.000000 1.000000
0.920037 1.000000 1.000000
0.919925 1.000000 1.000000
0.919499 1.000000 1.000000
0.917875 1.000000 1.000000
0.977083 1.000000 1.000000
1.000000 1.000000 1.000000
1.000000 1.000000 1.000000
0.991902 1.000000 1.000000
0.991902 1.000000 1.000000
0.991901 1.000000 1.000000
0.991900 1.000000 1.000000
0.991897 1.000000 1.000000
0.991886 1.000000 1.000000
0.991164 1.000000 1.000000
1.000000 1.000000 1.000000
1.000000 1.000000 1.000000
0.997105 1.000000 1.000000
0.997122 1.000000 1.000000
0.997188 1.000000 1.000000
0.997437 1.000000 1.000000
0.998350 1.000000 1.000000
1.000000 1.000000 1.000000
1.000000 1.000000 1.000000
1.000000 1.000000 1.000000
1.000000 1.000000 1.000000
0.997098 1.000000 1.000000
0.997116 1.000000 1.000000
0.997182 1.000000 1.000000
0.997430 1.000000 1.000000
0.998344 1.000000 1.000000
1.000000 1.000000 1.000000
1.000000 1.000000 1.000000
1.000000 1.000000 1.000000
1.000000 1.000000 1.000000
0.997074 1.000000 1.000000
0.997091 1.000000 1.000000
0.997157 1.000000 1.000000
0.997406 1.000000 1.000000
0.998319 1.000000 1.000000
1.000000 1.000000 1.000000
1.000000 1.000000 1.000000
1.000000 1.000000 1.000000
1.000000 1.000000 1.000000
0.996982 1.000000 1.000000
0.996999 1.000000 1.000000
0.997065 1.000000 1.000000
0.997314 1.000000 1.000000
0.998227 1.000000 1.000000
1.000000 1.000000 1.000000
1.000000 1.000000 1.000000
1.000000 1.000000 1.000000
1.000000 1.000000 1.000000
0.996646 1.000000 1.000000
0.996663 1.000000 1.000000
0.996729 1.000000 1.000000
0.996978 1.000000 1.000000
0.997892 1.000000 1.000000
1.000000 1.000000 1.000000
1.000000 1.000000 1.000000
1.000000 1.000000 1.000000
1.000000 1.000000 1.000000
0.994070 1.000000 1.000000
0.994125 1.000000 1.000000
0.994336 1.000000 1.000000
0.995130 1.000000 1.000000
0.997595 1.000000 1.000000
0.999290 1.000000 1.000000
1.000000 1.000000 1.000000
1.000000 1.000000 1.000000
1.000000 1.000000 1.000000
0.974733 1.000000 1.000000
0.974741 1.000000 1.000000
0.974772 1.000000 1.000000
0.974889 1.000000 1.000000
0.975314 1.000000 1.000000
0.977516 1.000000 1.000000
1.000000 1.000000 1.000000
1.000000 1.000000 1.000000
1.000000 1.000000 1.000000
0.983135 1.000000 1.000000
0.983136 1.000000 1.000000
0.983140 1.000000 1.000000
0.983154 1.000000 1.000000
0.983254 1.000000 1.000000
0.983611 1.000000 1.000000
0.991596 1.000000 1.000000
1.000000 1.000000 1.000000
1.000000 1.000000 1.000000
1.000000 1.000000 1.000000
1.000000 1.000000 1.000000
1.000000 1.000000 1.000000
1.000000 1.000000 1.000000
1.000000 1.000000 1.000000
0.999958 1.000000 1.000000
0.999759 1.000000 1.000000
1.000000 1.000000 1.000000
1.000000 1.000000 1.000000
