Assets/Data/Textures/70 CGC LUTs/LUTs_AgX_Filmic_ViewTransforms/ARRILogC4AWG4-to-AgX-Resolve-Bombastic-sRGB.cube
#  Baked from the PixelManager OCIO config by Joe Genco
#  https://github.com/Joegenco/PixelManager
#  Input Gamma: Arri LogC4
#  Input Color Space: Arri Wide Gamut 4
#  floating point data (range 0.0 - 1.0)   
#       
#  Output Gamma: Gamma 2.2 (Display)
#  Output Color Space: Rec.709
#  floating point data (range 0.0 - 1.0)
LUT_3D_SIZE 33
0.000000 0.000000 0.000000
0.000000 0.000000 0.000000
0.008867 0.000000 0.000000
0.024835 0.000000 0.000000
0.056967 0.000000 0.000000
0.110869 0.000000 0.000000
0.189564 0.000000 0.000000
0.290154 0.000000 0.000000
0.429661 0.000000 0.000000
0.581528 0.000000 0.000000
0.729723 0.000000 0.000000
0.858319 0.000000 0.000000
0.955257 0.000000 0.127555
1.021342 0.170550 0.252751
1.059206 0.340282 0.379246
1.073921 0.482901 0.504117
1.072633 0.605090 0.617153
1.063157 0.702849 0.710204
1.052161 0.777243 0.782078
1.042327 0.832733 0.836140
1.034551 0.873857 0.876389
1.028821 0.904440 0.906405
1.024792 0.927401 0.928972
1.022125 0.944592 0.945881
1.020385 0.957796 0.958869
1.019557 0.965089 0.966047
1.019557 0.965089 0.966047
1.019557 0.965089 0.966047
1.019557 0.965089 0.966047
1.019557 0.965089 0.966047
1.019557 0.965089 0.966047
1.019557 0.965089 0.966047
1.019557 0.965089 0.966047
0.000000 0.000000 0.000000
0.000000 0.000000 0.000000
0.007997 0.000000 0.000000
0.023734 0.000000 0.000000
0.055674 0.000000 0.000000
0.109531 0.000000 0.000000
0.187885 0.000000 0.000000
0.287863 0.000000 0.000000
0.428067 0.000000 0.000000
0.580427 0.000000 0.000000
0.729000 0.000000 0.000000
0.857899 0.000000 0.000000
0.955040 0.000000 0.127162
1.021239 0.170159 0.252513
1.059166 0.340081 0.379078
1.073911 0.482775 0.504003
1.072639 0.605011 0.617079
1.063163 0.702806 0.710163
1.052165 0.777220 0.782055
1.042329 0.832721 0.836127
1.034552 0.873850 0.876382
1.028822 0.904436 0.906401
1.024792 0.927399 0.928970
1.022125 0.944591 0.945880
1.020385 0.957795 0.958868
1.019557 0.965089 0.966047
1.019557 0.965089 0.966047
1.019557 0.965089 0.966047
1.019557 0.965089 0.966047
1.019557 0.965089 0.966047
1.019557 0.965089 0.966047
1.019557 0.965089 0.966047
1.019557 0.965089 0.966047
0.000000 0.004566 0.000000
0.000000 0.004035 0.000000
0.006057 0.004034 0.000000
0.021996 0.005317 0.000000
0.054626 0.000000 0.000000
0.108027 0.000000 0.000000
0.185487 0.000000 0.000000
0.284602 0.000000 0.000000
0.425818 0.000000 0.000000
0.578880 0.000000 0.000000
0.727986 0.000000 0.000000
0.857311 0.000000 0.000000
0.954737 0.000000 0.126609
1.021097 0.169611 0.252179
1.059110 0.339800 0.378843
1.073897 0.482598 0.503843
1.072648 0.604902 0.616975
1.063171 0.702746 0.710106
1.052171 0.777188 0.782024
1.042332 0.832703 0.836110
1.034554 0.873841 0.876373
1.028823 0.904431 0.906396
1.024793 0.927396 0.928967
1.022125 0.944590 0.945879
1.020385 0.957794 0.958867
1.019557 0.965089 0.966047
1.019557 0.965089 0.966047
1.019557 0.965089 0.966047
1.019557 0.965089 0.966047
1.019557 0.965089 0.966047
1.019557 0.965089 0.966047
1.019557 0.965089 0.966047
1.019557 0.965089 0.966047
0.000000 0.014288 0.000000
0.000000 0.013724 0.000000
0.000000 0.014706 0.000000
0.017346 0.014482 0.000000
0.052032 0.009925 0.000000
0.106619 0.000000 0.000000
0.183652 0.000000 0.000000
0.282956 0.000000 0.000000
0.422807 0.000000 0.000000
0.576700 0.000000 0.000000
0.726561 0.000000 0.000000
0.856487 0.000000 0.000000
0.954312 0.000000 0.125830
1.020897 0.168840 0.251712
1.059032 0.339406 0.378514
1.073878 0.482351 0.503619
1.072661 0.604748 0.616830
1.063182 0.702663 0.710026
1.052178 0.777143 0.781980
1.042337 0.832679 0.836086
1.034556 0.873828 0.876360
1.028824 0.904424 0.906389
1.024794 0.927392 0.928963
1.022125 0.944588 0.945877
1.020385 0.957793 0.958866
1.019557 0.965089 0.966047
1.019557 0.965089 0.966047
1.019557 0.965089 0.966047
1.019557 0.965089 0.966047
1.019557 0.965089 0.966047
1.019557 0.965089 0.966047
1.019557 0.965089 0.966047
1.019557 0.965089 0.966047
0.000000 0.032295 0.000000
0.000000 0.031480 0.000000
0.000000 0.031534 0.000000
0.000000 0.032819 0.000000
0.043254 0.033216 0.000000
0.101746 0.028460 0.000000
0.179348 0.000000 0.000000
0.280870 0.000000 0.000000
0.419879 0.000000 0.000000
0.574252 0.000000 0.000000
0.724557 0.000000 0.000000
0.855331 0.000000 0.000000
0.953717 0.000000 0.124730
1.020618 0.167755 0.251056
1.058922 0.338854 0.378053
1.073851 0.482005 0.503306
1.072679 0.604534 0.616628
1.063197 0.702547 0.709914
1.052189 0.777080 0.781919
1.042343 0.832645 0.836053
1.034560 0.873809 0.876341
1.028826 0.904413 0.906379
1.024795 0.927386 0.928958
1.022126 0.944585 0.945874
1.020385 0.957792 0.958865
1.019557 0.965089 0.966047
1.019557 0.965089 0.966047
1.019557 0.965089 0.966047
1.019557 0.965089 0.966047
1.019557 0.965089 0.966047
1.019557 0.965089 0.966047
1.019557 0.965089 0.966047
1.019557 0.965089 0.966047
0.000000 0.067883 0.000000
0.000000 0.066965 0.000000
0.000000 0.066300 0.000000
0.000000 0.068068 0.000000
0.000000 0.070057 0.000000
0.085176 0.069726 0.000000
0.167845 0.066069 0.000000
0.274312 0.042607 0.000000
0.413414 0.000000 0.000000
0.570212 0.000000 0.000000
0.721547 0.000000 0.000000
0.853186 0.000000 0.000000
0.952883 0.000000 0.123170
1.020226 0.166220 0.250134
1.058769 0.338081 0.377408
1.073812 0.481521 0.502869
1.072704 0.604235 0.616345
1.063219 0.702385 0.709758
1.052204 0.776992 0.781833
1.042352 0.832597 0.836006
1.034565 0.873783 0.876316
1.028829 0.904399 0.906365
1.024796 0.927378 0.928950
1.022126 0.944582 0.945871
1.020386 0.957790 0.958863
1.019557 0.965089 0.966047
1.019557 0.965089 0.966047
1.019557 0.965089 0.966047
1.019557 0.965089 0.966047
1.019557 0.965089 0.966047
1.019557 0.965089 0.966047
1.019557 0.965089 0.966047
1.019557 0.965089 0.966047
0.000000 0.117057 0.000000
0.000000 0.115871 0.000000
0.000000 0.114168 0.000000
0.000000 0.114754 0.000000
0.000000 0.118134 0.000000
0.000000 0.121676 0.000000
0.138300 0.123268 0.000000
0.258929 0.119222 0.000000
0.400026 0.099648 0.000000
0.560905 0.036195 0.000000
0.714187 0.000000 0.000000
0.846726 0.000000 0.000000
0.949176 0.000000 0.104930
1.019678 0.164042 0.248836
1.058555 0.336994 0.376502
1.073759 0.480843 0.502255
1.072739 0.603816 0.615948
1.063250 0.702157 0.709539
1.052224 0.776869 0.781714
1.042364 0.832530 0.835941
1.034572 0.873747 0.876280
1.028833 0.904379 0.906345
1.024798 0.927367 0.928939
1.022127 0.944577 0.945866
1.020386 0.957787 0.958860
1.019557 0.965089 0.966047
1.019557 0.965089 0.966047
1.019557 0.965089 0.966047
1.019557 0.965089 0.966047
1.019557 0.965089 0.966047
1.019557 0.965089 0.966047
1.019557 0.965089 0.966047
1.019557 0.965089 0.966047
0.000000 0.190129 0.000000
0.000000 0.189290 0.000000
0.000000 0.188104 0.000000
0.000000 0.187724 0.000000
0.000000 0.190580 0.000000
0.000000 0.194564 0.000000
0.000000 0.197415 0.000000
0.221874 0.197366 0.000000
0.373712 0.189946 0.000000
0.542950 0.180602 0.000000
0.700086 0.166346 0.000000
0.834871 0.164033 0.000000
0.937999 0.192406 0.000000
1.012389 0.239269 0.230363
1.058254 0.335465 0.375228
1.073684 0.479891 0.501395
1.072788 0.603228 0.615394
1.063293 0.701839 0.709233
1.052253 0.776697 0.781547
1.042382 0.832437 0.835850
1.034582 0.873696 0.876230
1.028838 0.904351 0.906318
1.024801 0.927352 0.928923
1.022128 0.944569 0.945859
1.020386 0.957783 0.958856
1.019557 0.965089 0.966047
1.019557 0.965089 0.966047
1.019557 0.965089 0.966047
1.019557 0.965089 0.966047
1.019557 0.965089 0.966047
1.019557 0.965089 0.966047
1.019557 0.965089 0.966047
1.019557 0.965089 0.966047
0.000000 0.282650 0.000000
0.000000 0.281987 0.000000
0.000000 0.281055 0.000000
0.000000 0.279740 0.000000
0.000000 0.281704 0.000000
0.000000 0.286269 0.000000
0.000000 0.291970 0.000000
0.093370 0.296412 0.000000
0.319224 0.297956 0.000000
0.507119 0.296775 0.000000
0.674453 0.292691 0.000000
0.813759 0.298416 0.000000
0.919594 0.323246 0.000000
0.995044 0.356284 0.174921
1.045805 0.403938 0.355471
1.073579 0.478554 0.500187
1.072855 0.602405 0.614616
1.063353 0.701394 0.708805
1.052294 0.776456 0.781313
1.042406 0.832307 0.835723
1.034595 0.873625 0.876161
1.028845 0.904312 0.906279
1.024804 0.927330 0.928902
1.022129 0.944560 0.945849
1.020387 0.957777 0.958850
1.019557 0.965089 0.966047
1.019557 0.965089 0.966047
1.019557 0.965089 0.966047
1.019557 0.965089 0.966047
1.019557 0.965089 0.966047
1.019557 0.965089 0.966047
1.019557 0.965089 0.966047
1.019557 0.965089 0.966047
0.000000 0.407863 0.000000
0.000000 0.407060 0.000000
0.000000 0.405933 0.000000
0.000000 0.404346 0.000000
0.000000 0.402346 0.000000
0.000000 0.405310 0.000000
0.000000 0.409335 0.000000
0.000000 0.413656 0.000000
0.191229 0.415330 0.000000
0.439452 0.418035 0.000000
0.628120 0.421845 0.000000
0.777659 0.429157 0.000000
0.890411 0.446395 0.000000
0.969015 0.471565 0.000000
1.022656 0.503037 0.317641
1.056759 0.543372 0.481782
1.072882 0.601251 0.613535
1.063436 0.700770 0.708205
1.052350 0.776120 0.780986
1.042440 0.832125 0.835545
1.034614 0.873525 0.876063
1.028856 0.904257 0.906226
1.024810 0.927299 0.928872
1.022131 0.944546 0.945835
1.020388 0.957769 0.958842
1.019557 0.965089 0.966047
1.019557 0.965089 0.966047
1.019557 0.965089 0.966047
1.019557 0.965089 0.966047
1.019557 0.965089 0.966047
1.019557 0.965089 0.966047
1.019557 0.965089 0.966047
1.019557 0.965089 0.966047
0.000000 0.541931 0.000000
0.000000 0.541396 0.000000
0.000000 0.540647 0.000000
0.000000 0.539597 0.000000
0.000000 0.538120 0.000000
0.000000 0.537654 0.000000
0.000000 0.541012 0.000000
0.000000 0.545236 0.000000
0.000000 0.548501 0.000000
0.301750 0.549137 0.000000
0.554028 0.549736 0.000000
0.724968 0.553696 0.000000
0.848532 0.567047 0.000000
0.934480 0.581563 0.000000
0.992784 0.600515 0.281961
1.031210 0.625329 0.457021
1.054124 0.657749 0.598220
1.063554 0.699895 0.707362
1.052430 0.775648 0.780527
1.042488 0.831870 0.835296
1.034641 0.873386 0.875927
1.028870 0.904181 0.906150
1.024817 0.927257 0.928830
1.022134 0.944526 0.945816
1.020389 0.957758 0.958831
1.019557 0.965089 0.966047
1.019557 0.965089 0.966047
1.019557 0.965089 0.966047
1.019557 0.965089 0.966047
1.019557 0.965089 0.966047
1.019557 0.965089 0.966047
1.019557 0.965089 0.966047
1.019557 0.965089 0.966047
0.000000 0.668645 0.000000
0.000000 0.668306 0.000000
0.000000 0.667832 0.000000
0.000000 0.667167 0.000000
0.000000 0.666236 0.000000
0.000000 0.664927 0.000000
0.000000 0.665477 0.000000
0.000000 0.668453 0.000000
0.000000 0.671857 0.000000
0.000000 0.671689 0.000000
0.440326 0.670789 0.000000
0.653476 0.671965 0.000000
0.796512 0.677936 0.000000
0.892047 0.683994 0.000000
0.957572 0.690969 0.262446
1.001258 0.704251 0.446675
1.029568 0.722138 0.584129
1.045805 0.745060 0.695672
1.052541 0.774986 0.779884
1.042554 0.831512 0.834946
1.034678 0.873192 0.875737
1.028890 0.904074 0.906045
1.024828 0.927197 0.928772
1.022137 0.944499 0.945789
1.020391 0.957742 0.958816
1.019557 0.965089 0.966047
1.019557 0.965089 0.966047
1.019557 0.965089 0.966047
1.019557 0.965089 0.966047
1.019557 0.965089 0.966047
1.019557 0.965089 0.966047
1.019557 0.965089 0.966047
1.019557 0.965089 0.966047
0.000000 0.778039 0.000000
0.000000 0.777833 0.000000
0.000000 0.777544 0.000000
0.000000 0.777140 0.000000
0.000000 0.776575 0.000000
0.000000 0.775783 0.000000
0.000000 0.774670 0.000000
0.000000 0.775618 0.000000
0.000000 0.777702 0.000000
0.000000 0.777972 0.000000
0.255066 0.775079 0.000000
0.567143 0.773171 0.000000
0.736310 0.772443 0.000000
0.845932 0.770267 0.000000
0.919299 0.770641 0.277042
0.969596 0.773998 0.452162
1.003249 0.781752 0.583431
1.024595 0.793663 0.687993
1.037020 0.809945 0.771155
1.042647 0.831011 0.834457
1.034730 0.872920 0.875470
1.028918 0.903924 0.905899
1.024842 0.927114 0.928690
1.022143 0.944461 0.945752
1.020393 0.957720 0.958794
1.019557 0.965089 0.966047
1.019557 0.965089 0.966047
1.019557 0.965089 0.966047
1.019557 0.965089 0.966047
1.019557 0.965089 0.966047
1.019557 0.965089 0.966047
1.019557 0.965089 0.966047
1.019557 0.965089 0.966047
0.000000 0.865814 0.000000
0.000000 0.865706 0.000000
0.000000 0.865555 0.000000
0.000000 0.865344 0.000000
0.000000 0.865048 0.000000
0.000000 0.864634 0.000000
0.000000 0.864055 0.000000
0.000000 0.863242 0.000000
0.000000 0.864108 0.000000
0.000000 0.864782 0.000000
0.000000 0.860621 0.000000
0.463765 0.854246 0.000000
0.671806 0.846299 0.000000
0.799284 0.839906 0.079534
0.881789 0.834884 0.338670
0.938281 0.832645 0.479974
0.976947 0.833848 0.594577
1.003112 0.837842 0.690312
1.019792 0.845742 0.766784
1.029799 0.857548 0.827972
1.034803 0.872538 0.875096
1.028957 0.903715 0.905693
1.024862 0.926998 0.928576
1.022150 0.944408 0.945700
1.020397 0.957690 0.958764
1.019557 0.965089 0.966047
1.019557 0.965089 0.966047
1.019557 0.965089 0.966047
1.019557 0.965089 0.966047
1.019557 0.965089 0.966047
1.019557 0.965089 0.966047
1.019557 0.965089 0.966047
1.019557 0.965089 0.966047
0.000000 0.927311 0.000000
0.000000 0.927269 0.000000
0.000000 0.927210 0.000000
0.000000 0.927128 0.000000
0.000000 0.927014 0.000000
0.000000 0.926854 0.000000
0.000000 0.926629 0.000000
0.000000 0.926315 0.000000
0.000000 0.925874 0.000000
0.000000 0.924372 0.000000
0.000000 0.917950 0.000000
0.329338 0.908990 0.000000
0.605750 0.900049 0.162309
0.753325 0.892220 0.310601
0.846475 0.885419 0.425632
0.909054 0.879708 0.527832
0.952568 0.876311 0.619547
0.982640 0.875925 0.701313
1.002785 0.878293 0.769545
1.016216 0.883908 0.825340
1.024489 0.892580 0.870254
1.028913 0.903608 0.905355
1.024891 0.926835 0.928415
1.022160 0.944333 0.945626
1.020402 0.957647 0.958722
1.019557 0.965089 0.966047
1.019557 0.965089 0.966047
1.019557 0.965089 0.966047
1.019557 0.965089 0.966047
1.019557 0.965089 0.966047
1.019557 0.965089 0.966047
1.019557 0.965089 0.966047
1.019557 0.965089 0.966047
0.000000 0.962364 0.294034
0.000000 0.962345 0.293750
0.000000 0.962318 0.293353
0.000000 0.962281 0.292796
0.000000 0.962228 0.292017
0.000000 0.962155 0.290921
0.000000 0.962053 0.289382
0.000000 0.961910 0.287209
0.000000 0.961709 0.284133
0.000000 0.961428 0.279750
0.000000 0.956280 0.314644
0.000000 0.946928 0.353586
0.536340 0.937356 0.401626
0.709704 0.928816 0.458569
0.815731 0.921523 0.522184
0.883093 0.915610 0.589402
0.930199 0.910861 0.656645
0.963813 0.907379 0.720980
0.986980 0.906256 0.778241
1.002964 0.908030 0.827670
1.013902 0.912144 0.868577
1.020909 0.918486 0.901769
1.024801 0.926852 0.928127
1.022174 0.944229 0.945524
1.020409 0.957587 0.958663
1.019557 0.965089 0.966047
1.019557 0.965089 0.966047
1.019557 0.965089 0.966047
1.019557 0.965089 0.966047
1.019557 0.965089 0.966047
1.019557 0.965089 0.966047
1.019557 0.965089 0.966047
1.019557 0.965089 0.966047
0.000000 0.983518 0.521836
0.000000 0.983510 0.521735
0.000000 0.983499 0.521594
0.000000 0.983484 0.521396
0.000000 0.983463 0.521120
0.000000 0.983433 0.520733
0.000000 0.983391 0.520192
0.000000 0.983334 0.519434
0.000000 0.983253 0.518371
0.000000 0.983139 0.516878
0.000000 0.982762 0.515326
0.000000 0.973672 0.529672
0.448984 0.963705 0.549859
0.667430 0.954925 0.578007
0.785294 0.947632 0.613438
0.860850 0.941486 0.654948
0.911194 0.936442 0.701017
0.946990 0.932602 0.748002
0.972511 0.929952 0.793276
0.990815 0.928768 0.834215
1.003662 0.930119 0.870251
1.012724 0.933090 0.900569
1.018594 0.938007 0.925427
1.022056 0.944335 0.945321
1.020418 0.957503 0.958581
1.019557 0.965089 0.966047
1.019557 0.965089 0.966047
1.019557 0.965089 0.966047
1.019557 0.965089 0.966047
1.019557 0.965089 0.966047
1.019557 0.965089 0.966047
1.019557 0.965089 0.966047
1.019557 0.965089 0.966047
0.000000 0.994508 0.659358
0.000000 0.994505 0.659307
0.000000 0.994501 0.659236
0.000000 0.994496 0.659136
0.000000 0.994489 0.658997
0.000000 0.994479 0.658802
0.000000 0.994466 0.658530
0.000000 0.994446 0.658148
0.000000 0.994419 0.657614
0.000000 0.994381 0.656866
0.000000 0.994328 0.655816
0.000000 0.993513 0.654845
0.301527 0.982979 0.662317
0.615146 0.973868 0.675177
0.756111 0.966587 0.694036
0.840141 0.960675 0.718512
0.894549 0.955788 0.746931
0.932594 0.951733 0.779404
0.960137 0.948618 0.813151
0.979618 0.946716 0.845150
0.994234 0.945815 0.875114
1.004761 0.946712 0.901793
1.012221 0.949095 0.924529
1.017185 0.952910 0.943292
1.020299 0.957621 0.958411
1.019557 0.965089 0.966047
1.019557 0.965089 0.966047
1.019557 0.965089 0.966047
1.019557 0.965089 0.966047
1.019557 0.965089 0.966047
1.019557 0.965089 0.966047
1.019557 0.965089 0.966047
1.019557 0.965089 0.966047
0.000000 0.999716 0.752772
0.000000 0.999715 0.752747
0.000000 0.999713 0.752713
0.000000 0.999712 0.752665
0.000000 0.999709 0.752598
0.000000 0.999705 0.752505
0.000000 0.999700 0.752374
0.000000 0.999694 0.752191
0.000000 0.999684 0.751935
0.000000 0.999670 0.751577
0.000000 0.999651 0.751076
0.000000 0.999628 0.750334
0.000000 0.998473 0.749561
0.541491 0.988288 0.753568
0.721847 0.980697 0.762190
0.818817 0.974955 0.775180
0.879850 0.970329 0.792355
0.919856 0.966562 0.812174
0.949008 0.963382 0.835523
0.970051 0.960959 0.859402
0.985589 0.959436 0.882965
0.997282 0.958958 0.905270
1.005976 0.959581 0.925351
1.012169 0.961492 0.942655
1.016412 0.964345 0.956816
1.019422 0.965327 0.965990
1.019557 0.965089 0.966047
1.019557 0.965089 0.966047
1.019557 0.965089 0.966047
1.019557 0.965089 0.966047
1.019557 0.965089 0.966047
1.019557 0.965089 0.966047
1.019557 0.965089 0.966047
0.346228 1.001961 0.816888
0.346165 1.001961 0.816877
0.346076 1.001961 0.816862
0.345953 1.001961 0.816840
0.345780 1.001961 0.816810
0.345539 1.001961 0.816767
0.345201 1.001961 0.816708
0.344729 1.001961 0.816625
0.344067 1.001961 0.816509
0.343139 1.001961 0.816347
0.341836 1.001962 0.816121
0.340003 1.001962 0.815803
0.337415 1.001963 0.815359
0.399816 1.000678 0.814836
0.675228 0.991879 0.817339
0.795114 0.985885 0.823503
0.863925 0.981448 0.832775
0.908522 0.977910 0.844893
0.939062 0.974986 0.859189
0.961646 0.972523 0.876164
0.978003 0.970649 0.893359
0.990532 0.969447 0.910973
1.000013 0.969204 0.927875
1.007222 0.969692 0.943233
1.012389 0.971139 0.956295
1.015831 0.971592 0.964706
1.019364 0.965439 0.965963
1.019557 0.965089 0.966047
1.019557 0.965089 0.966047
1.019557 0.965089 0.966047
1.019557 0.965089 0.966047
1.019557 0.965089 0.966047
1.019557 0.965089 0.966047
0.560616 1.003021 0.862150
0.560594 1.003021 0.862144
0.560563 1.003021 0.862136
0.560519 1.003022 0.862124
0.560459 1.003022 0.862108
0.560374 1.003022 0.862085
0.560256 1.003022 0.862054
0.560091 1.003022 0.862010
0.559860 1.003022 0.861948
0.559536 1.003023 0.861862
0.559084 1.003023 0.861741
0.558451 1.003024 0.861573
0.557563 1.003025 0.861337
0.556318 1.003026 0.861006
0.591791 1.001796 0.860560
0.762748 0.994645 0.862221
0.846620 0.990013 0.866756
0.896860 0.986643 0.873672
0.930115 0.983993 0.882659
0.953809 0.981769 0.893534
0.971282 0.979874 0.905766
0.984442 0.978403 0.918681
0.994656 0.977457 0.932036
1.002485 0.977258 0.945049
1.008400 0.977697 0.956753
1.012244 0.977768 0.964521
1.014645 0.973650 0.964388
1.019268 0.965607 0.965923
1.019557 0.965089 0.966047
1.019557 0.965089 0.966047
1.019557 0.965089 0.966047
1.019557 0.965089 0.966047
1.019557 0.965089 0.966047
0.684819 1.003844 0.895192
0.684809 1.003844 0.895189
0.684794 1.003844 0.895184
0.684774 1.003844 0.895178
0.684745 1.003844 0.895169
0.684706 1.003844 0.895157
0.684650 1.003844 0.895140
0.684573 1.003844 0.895116
0.684465 1.003844 0.895082
0.684314 1.003844 0.895035
0.684102 1.003844 0.894970
0.683806 1.003844 0.894878
0.683392 1.003844 0.894750
0.682812 1.003844 0.894570
0.681999 1.003843 0.894319
0.706780 1.002771 0.893961
0.823115 0.997160 0.895142
0.883916 0.993577 0.898530
0.921381 0.990975 0.903686
0.946672 0.988931 0.910355
0.965353 0.987199 0.918646
0.979019 0.985826 0.927943
0.989706 0.984690 0.937870
0.998121 0.983938 0.948165
1.004604 0.983764 0.958201
1.008818 0.983580 0.965280
1.010378 0.980947 0.964603
1.013157 0.976215 0.964090
1.019134 0.965831 0.965874
1.019557 0.965089 0.966047
1.019557 0.965089 0.966047
1.019557 0.965089 0.966047
1.019557 0.965089 0.966047
0.767840 1.004731 0.919811
0.767835 1.004731 0.919809
0.767828 1.004731 0.919806
0.767818 1.004731 0.919803
0.767803 1.004731 0.919798
0.767783 1.004731 0.919791
0.767755 1.004731 0.919782
0.767716 1.004730 0.919768
0.767661 1.004730 0.919749
0.767585 1.004730 0.919723
0.767478 1.004730 0.919687
0.767328 1.004729 0.919636
0.767119 1.004728 0.919565
0.766827 1.004727 0.919466
0.766417 1.004725 0.919327
0.765843 1.004723 0.919131
0.783518 1.003848 0.918852
0.866030 0.999511 0.919737
0.911330 0.996720 0.922308
0.939902 0.994696 0.926228
0.959510 0.993100 0.931274
0.974257 0.991745 0.937559
0.985328 0.990658 0.944730
0.994082 0.989829 0.952605
1.001050 0.989246 0.960679
1.005680 0.988873 0.966978
1.006655 0.987232 0.966115
1.008299 0.984479 0.965019
1.011408 0.979220 0.963905
1.018971 0.966127 0.965806
1.019557 0.965089 0.966047
1.019557 0.965089 0.966047
1.019557 0.965089 0.966047
0.826008 1.005743 0.938498
0.826005 1.005743 0.938497
0.826001 1.005743 0.938496
0.825996 1.005743 0.938494
0.825988 1.005743 0.938491
0.825977 1.005743 0.938487
0.825963 1.005743 0.938482
0.825942 1.005743 0.938475
0.825913 1.005742 0.938464
0.825873 1.005742 0.938449
0.825817 1.005741 0.938429
0.825739 1.005741 0.938400
0.825629 1.005739 0.938360
0.825476 1.005738 0.938304
0.825261 1.005736 0.938226
0.824961 1.005733 0.938116
0.824541 1.005728 0.937963
0.837619 1.005023 0.937742
0.897573 1.001680 0.938434
0.931736 0.999513 0.940398
0.953915 0.997920 0.943394
0.969618 0.996641 0.947337
0.981377 0.995573 0.952150
0.990489 0.994696 0.957794
0.997760 0.994030 0.964041
1.002909 0.993549 0.969498
1.003505 0.992543 0.968752
1.004451 0.990952 0.967575
1.006105 0.988180 0.965927
1.009424 0.982603 0.963928
1.018720 0.966553 0.965703
1.019557 0.965089 0.966047
1.019557 0.965089 0.966047
0.867876 1.006855 0.952891
0.867874 1.006855 0.952891
0.867872 1.006854 0.952890
0.867870 1.006854 0.952889
0.867866 1.006854 0.952888
0.867860 1.006854 0.952886
0.867852 1.006854 0.952883
0.867842 1.006854 0.952879
0.867827 1.006853 0.952873
0.867806 1.006853 0.952865
0.867777 1.006852 0.952854
0.867736 1.006851 0.952839
0.867679 1.006850 0.952818
0.867599 1.006848 0.952788
0.867487 1.006845 0.952747
0.867331 1.006842 0.952688
0.867112 1.006837 0.952607
0.866806 1.006830 0.952493
0.876671 1.006260 0.952333
0.921225 1.003677 0.952883
0.947458 1.001978 0.954405
0.964942 1.000710 0.956729
0.977680 0.999679 0.959856
0.987174 0.998822 0.963598
0.994745 0.998109 0.968104
1.000556 0.997571 0.972820
1.000892 0.996985 0.972128
1.001435 0.996059 0.971160
1.002324 0.994553 0.969680
1.003907 0.991893 0.967427
1.007273 0.986251 0.964310
1.018392 0.967134 0.965575
1.019557 0.965089 0.966047
0.898689 1.008008 0.964135
0.898688 1.008008 0.964135
0.898687 1.008008 0.964134
0.898685 1.008008 0.964134
0.898683 1.008008 0.964133
0.898680 1.008008 0.964132
0.898676 1.008008 0.964130
0.898670 1.008007 0.964128
0.898662 1.008007 0.964124
0.898650 1.008007 0.964120
0.898634 1.008006 0.964114
0.898612 1.008005 0.964105
0.898580 1.008004 0.964092
0.898536 1.008003 0.964075
0.898475 1.008001 0.964051
0.898389 1.007998 0.964017
0.898269 1.007994 0.963970
0.898102 1.007989 0.963903
0.897867 1.007981 0.963811
0.905319 1.007536 0.963695
0.939256 1.005505 0.964160
0.959751 1.004153 0.965379
0.973736 1.003132 0.967236
0.984087 1.002298 0.969713
0.991942 1.001595 0.972708
0.998291 1.001012 0.976346
0.998822 1.000642 0.976096
0.999113 1.000114 0.975323
0.999565 0.999300 0.974163
1.000360 0.997921 0.972416
1.001802 0.995465 0.969578
1.005052 0.990009 0.965191
1.017949 0.967908 0.965411
0.902193 1.007489 0.967311
0.902193 1.007489 0.967311
0.902193 1.007489 0.967311
0.902193 1.007489 0.967311
0.902193 1.007489 0.967310
0.902192 1.007489 0.967310
0.902192 1.007489 0.967310
0.902191 1.007489 0.967309
0.902190 1.007490 0.967308
0.902189 1.007490 0.967307
0.902187 1.007490 0.967305
0.902184 1.007491 0.967302
0.902180 1.007491 0.967298
0.902175 1.007492 0.967293
0.902167 1.007494 0.967286
0.902157 1.007496 0.967275
0.902142 1.007498 0.967261
0.902121 1.007502 0.967241
