Assets/Data/Textures/70 CGC LUTs/LUTs_AgX_Filmic_ViewTransforms/ARRILogC4AWG4-to-AgX-Blender-sRGB.cube
#  Baked from the PixelManager OCIO config by Joe Genco
#  https://github.com/Joegenco/PixelManager
#  Input Gamma: Arri LogC4
#  Input Color Space: Arri Wide Gamut 4
#  floating point data (range 0.0 - 1.0)   
#       
#  Output Gamma: Gamma 2.2 (Display)
#  Output Color Space: Rec.709
#  floating point data (range 0.0 - 1.0)
LUT_3D_SIZE 33
0.000000 0.000000 0.000001
0.000000 0.000000 0.000001
0.000000 0.000000 0.000001
0.000000 0.000000 0.000001
0.129250 0.000000 0.004121
0.206695 0.002993 0.000000
0.283794 0.000000 0.003085
0.366995 0.000000 0.007356
0.459158 0.002706 0.004327
0.559372 0.023082 0.000000
0.655743 0.000000 0.081689
0.745739 0.000000 0.130926
0.835739 0.000000 0.167166
0.923422 0.028410 0.210412
0.977713 0.230061 0.306397
0.999500 0.359451 0.412831
1.000000 0.462388 0.505237
1.000000 0.548195 0.583687
1.000000 0.621533 0.651516
1.000000 0.684611 0.710228
1.000000 0.739072 0.761127
1.000000 0.786243 0.805351
1.000000 0.827234 0.843880
1.000000 0.862758 0.877452
1.000000 0.893864 0.906880
1.000000 0.921159 0.932676
1.000000 0.945265 0.955499
1.000000 0.966631 0.975765
1.000000 0.985640 0.992705
1.000000 0.997729 1.000000
1.000000 1.000000 1.000000
1.000000 1.000000 1.000000
1.000000 1.000000 1.000000
0.000000 0.000000 0.000001
0.000000 0.000000 0.000001
0.000000 0.000000 0.000001
0.000000 0.000000 0.000001
0.127981 0.000000 0.004190
0.205841 0.002990 0.000000
0.283143 0.000000 0.003039
0.366523 0.000000 0.007339
0.458756 0.002631 0.004359
0.559075 0.023021 0.000000
0.655176 0.000000 0.083895
0.745298 0.000000 0.132140
0.835479 0.000000 0.168067
0.923416 0.027957 0.210701
0.977633 0.230375 0.307008
0.999492 0.359619 0.413206
1.000000 0.462469 0.505432
1.000000 0.548244 0.583807
1.000000 0.621563 0.651590
1.000000 0.684630 0.710273
1.000000 0.739084 0.761156
1.000000 0.786250 0.805369
1.000000 0.827239 0.843892
1.000000 0.862762 0.877459
1.000000 0.893866 0.906884
1.000000 0.921160 0.932678
1.000000 0.945265 0.955501
1.000000 0.966632 0.975766
1.000000 0.985641 0.992706
1.000000 0.997729 1.000000
1.000000 1.000000 1.000000
1.000000 1.000000 1.000000
1.000000 1.000000 1.000000
0.000000 0.000000 0.000001
0.000000 0.000000 0.000001
0.000000 0.000000 0.000001
0.000000 0.000000 0.000001
0.126170 0.000000 0.004290
0.204637 0.002985 0.000000
0.282230 0.000000 0.002975
0.365862 0.000000 0.007316
0.458193 0.002526 0.004404
0.558660 0.022935 0.000000
0.654393 0.000000 0.086928
0.744689 0.000000 0.133808
0.835118 0.000000 0.169314
0.923407 0.027327 0.211102
0.977522 0.230811 0.307859
0.999480 0.359853 0.413728
1.000000 0.462583 0.505705
1.000000 0.548314 0.583973
1.000000 0.621606 0.651693
1.000000 0.684657 0.710337
1.000000 0.739100 0.761195
1.000000 0.786261 0.805394
1.000000 0.827245 0.843907
1.000000 0.862766 0.877469
1.000000 0.893868 0.906890
1.000000 0.921162 0.932682
1.000000 0.945266 0.955503
1.000000 0.966633 0.975767
1.000000 0.985641 0.992706
1.000000 0.997729 1.000000
1.000000 1.000000 1.000000
1.000000 1.000000 1.000000
1.000000 1.000000 1.000000
0.000000 0.000000 0.000001
0.000000 0.000000 0.000001
0.000000 0.000000 0.000001
0.000000 0.000000 0.000001
0.123565 0.000000 0.004434
0.202936 0.002979 0.000000
0.280946 0.000000 0.002885
0.364934 0.000000 0.007283
0.457405 0.002379 0.004467
0.558078 0.022816 0.000000
0.653342 0.000000 0.090923
0.743851 0.000000 0.136088
0.834617 0.000000 0.171037
0.923394 0.026454 0.211658
0.977367 0.231418 0.309042
0.999464 0.360179 0.414455
1.000000 0.462741 0.506086
1.000000 0.548410 0.584206
1.000000 0.621665 0.651836
1.000000 0.684694 0.710426
1.000000 0.739123 0.761251
1.000000 0.786275 0.805429
1.000000 0.827254 0.843929
1.000000 0.862772 0.877483
1.000000 0.893871 0.906898
1.000000 0.921164 0.932687
1.000000 0.945268 0.955506
1.000000 0.966633 0.975770
1.000000 0.985641 0.992707
1.000000 0.997729 1.000000
1.000000 1.000000 1.000000
1.000000 1.000000 1.000000
1.000000 1.000000 1.000000
0.000000 0.113763 0.054799
0.000000 0.113300 0.054579
0.000000 0.112648 0.054268
0.000000 0.111725 0.053830
0.115933 0.112254 0.000000
0.200164 0.114865 0.000000
0.279753 0.115899 0.000000
0.364510 0.115698 0.000000
0.456909 0.113472 0.000000
0.557348 0.109218 0.000000
0.662189 0.008161 0.022348
0.747551 0.000000 0.124386
0.833924 0.000000 0.173405
0.923395 0.025516 0.212598
0.977152 0.232259 0.310684
0.999442 0.360632 0.415467
1.000000 0.462961 0.506615
1.000000 0.548545 0.584530
1.000000 0.621748 0.652036
1.000000 0.684745 0.710550
1.000000 0.739155 0.761328
1.000000 0.786295 0.805477
1.000000 0.827267 0.843960
1.000000 0.862780 0.877502
1.000000 0.893876 0.906909
1.000000 0.921167 0.932694
1.000000 0.945269 0.955511
1.000000 0.966635 0.975772
1.000000 0.985642 0.992708
1.000000 0.997729 1.000000
1.000000 1.000000 1.000000
1.000000 1.000000 1.000000
1.000000 1.000000 1.000000
0.000000 0.181495 0.087179
0.000000 0.181189 0.087032
0.000000 0.180760 0.086826
0.000000 0.180158 0.086537
0.090927 0.181029 0.000000
0.189351 0.181971 0.000000
0.273905 0.184856 0.000000
0.361290 0.186759 0.000000
0.454763 0.187726 0.000000
0.555542 0.185252 0.000000
0.659630 0.156217 0.000000
0.761766 0.098273 0.000000
0.851407 0.002759 0.100628
0.928686 0.031576 0.183023
0.977883 0.228361 0.302374
0.999411 0.361261 0.416870
1.000000 0.463267 0.507351
1.000000 0.548732 0.584981
1.000000 0.621864 0.652314
1.000000 0.684817 0.710723
1.000000 0.739200 0.761436
1.000000 0.786323 0.805545
1.000000 0.827284 0.844002
1.000000 0.862791 0.877529
1.000000 0.893882 0.906924
1.000000 0.921171 0.932704
1.000000 0.945272 0.955517
1.000000 0.966636 0.975776
1.000000 0.985643 0.992710
1.000000 0.997729 1.000000
1.000000 1.000000 1.000000
1.000000 1.000000 1.000000
1.000000 1.000000 1.000000
0.000000 0.248390 0.119359
0.000000 0.248159 0.119248
0.000000 0.247835 0.119092
0.000000 0.247382 0.118874
0.013476 0.248935 0.041072
0.170201 0.250041 0.000000
0.261780 0.251001 0.000000
0.353742 0.254067 0.000000
0.449527 0.256065 0.000000
0.551180 0.252892 0.000000
0.653993 0.234802 0.000000
0.754527 0.205112 0.000000
0.853646 0.157751 0.001767
0.926224 0.172351 0.168481
0.978480 0.246947 0.282101
1.000000 0.355635 0.397542
1.000000 0.461829 0.504126
1.000000 0.548992 0.585609
1.000000 0.622024 0.652702
1.000000 0.684917 0.710964
1.000000 0.739263 0.761587
1.000000 0.786363 0.805639
1.000000 0.827309 0.844062
1.000000 0.862807 0.877567
1.000000 0.893891 0.906945
1.000000 0.921176 0.932717
1.000000 0.945276 0.955525
1.000000 0.966638 0.975782
1.000000 0.985645 0.992713
1.000000 0.997729 1.000000
1.000000 1.000000 1.000000
1.000000 1.000000 1.000000
1.000000 1.000000 1.000000
0.000000 0.320497 0.154073
0.000000 0.320331 0.153993
0.000000 0.320098 0.153881
0.000000 0.319772 0.153724
0.000000 0.320997 0.123720
0.129999 0.323949 0.000000
0.242605 0.324678 0.000000
0.340233 0.325670 0.000000
0.439519 0.328273 0.000000
0.542388 0.323797 0.000000
0.644775 0.310124 0.000000
0.744245 0.288879 0.000000
0.841921 0.259269 0.000772
0.917546 0.259594 0.163262
0.973032 0.300214 0.274339
1.000000 0.361896 0.374662
1.000000 0.456100 0.483381
1.000000 0.545159 0.576863
1.000000 0.622248 0.653242
1.000000 0.685056 0.711300
1.000000 0.739350 0.761797
1.000000 0.786417 0.805771
1.000000 0.827343 0.844145
1.000000 0.862830 0.877620
1.000000 0.893903 0.906975
1.000000 0.921184 0.932736
1.000000 0.945281 0.955538
1.000000 0.966642 0.975790
1.000000 0.985647 0.992716
1.000000 0.997728 1.000000
1.000000 1.000000 1.000000
1.000000 1.000000 1.000000
1.000000 1.000000 1.000000
0.000000 0.398941 0.191657
0.000000 0.398801 0.191591
0.000000 0.398607 0.191498
0.000000 0.398335 0.191369
0.000000 0.399046 0.177023
0.020004 0.403393 0.067890
0.205481 0.404743 0.000000
0.318819 0.405083 0.000000
0.422737 0.404795 0.000000
0.527865 0.399620 0.000000
0.631022 0.387936 0.000000
0.730189 0.369481 0.000000
0.826692 0.345679 0.000000
0.905223 0.338733 0.156368
0.963018 0.359609 0.273100
1.000000 0.404161 0.374345
1.000000 0.463137 0.465380
1.000000 0.540332 0.558708
1.000000 0.617747 0.642454
1.000000 0.684996 0.711185
1.000000 0.739471 0.762089
1.000000 0.786493 0.805955
1.000000 0.827391 0.844260
1.000000 0.862861 0.877693
1.000000 0.893920 0.907016
1.000000 0.921195 0.932762
1.000000 0.945288 0.955554
1.000000 0.966646 0.975801
1.000000 0.985650 0.992721
1.000000 0.997728 1.000000
1.000000 1.000000 1.000000
1.000000 1.000000 1.000000
1.000000 1.000000 1.000000
0.000000 0.483270 0.231426
0.000000 0.483170 0.231380
0.000000 0.483029 0.231314
0.000000 0.482834 0.231223
0.000000 0.482874 0.227655
0.000000 0.486572 0.174000
0.125321 0.491162 0.000000
0.280360 0.490447 0.000000
0.392040 0.487837 0.000000
0.504084 0.482921 0.000000
0.610274 0.471107 0.000000
0.710379 0.452931 0.000000
0.807000 0.429679 0.000000
0.889658 0.413569 0.150194
0.949808 0.424079 0.272179
0.991862 0.452668 0.374788
1.000000 0.495557 0.465618
1.000000 0.548745 0.545720
1.000000 0.611812 0.624964
1.000000 0.680839 0.700582
1.000000 0.738840 0.760661
1.000000 0.786599 0.806210
1.000000 0.827458 0.844422
1.000000 0.862904 0.877796
1.000000 0.893944 0.907073
1.000000 0.921210 0.932799
1.000000 0.945297 0.955578
1.000000 0.966652 0.975816
1.000000 0.985654 0.992727
1.000000 0.997728 1.000000
1.000000 1.000000 1.000000
1.000000 1.000000 1.000000
1.000000 1.000000 1.000000
0.000000 0.565842 0.268760
0.000000 0.565775 0.268731
0.000000 0.565681 0.268689
0.000000 0.565550 0.268632
0.000000 0.565367 0.268551
0.000000 0.567509 0.238761
0.000000 0.571683 0.154302
0.191419 0.573174 0.000000
0.341204 0.569885 0.000000
0.464091 0.565036 0.000000
0.581307 0.557412 0.000000
0.684839 0.537783 0.000000
0.782658 0.513173 0.000000
0.868493 0.492193 0.146185
0.933018 0.488800 0.273893
0.983127 0.504083 0.376550
1.000000 0.535391 0.466695
1.000000 0.575413 0.546252
1.000000 0.621297 0.616503
1.000000 0.675547 0.685491
1.000000 0.735083 0.751314
1.000000 0.785690 0.804139
1.000000 0.827551 0.844646
1.000000 0.862965 0.877939
1.000000 0.893977 0.907154
1.000000 0.921232 0.932850
1.000000 0.945311 0.955611
1.000000 0.966661 0.975837
1.000000 0.985659 0.992736
1.000000 0.997727 1.000000
1.000000 1.000000 1.000000
1.000000 1.000000 1.000000
1.000000 1.000000 1.000000
0.000000 0.639899 0.304924
0.000000 0.639750 0.305432
0.000000 0.639515 0.306202
0.000000 0.639211 0.307247
0.000000 0.638767 0.308700
0.000000 0.639353 0.297974
0.000000 0.642456 0.252389
0.008305 0.647694 0.126901
0.257205 0.646532 0.000000
0.405174 0.641635 0.000000
0.531214 0.635031 0.000000
0.650879 0.624659 0.000000
0.752326 0.597788 0.000000
0.842009 0.571929 0.149309
0.911415 0.558928 0.279015
0.966506 0.561059 0.381531
1.000000 0.577299 0.469096
1.000000 0.607263 0.547592
1.000000 0.644151 0.617152
1.000000 0.683926 0.678557
1.000000 0.730501 0.737812
1.000000 0.782359 0.795981
1.000000 0.826534 0.842321
1.000000 0.863049 0.878138
1.000000 0.894023 0.907265
1.000000 0.921261 0.932922
1.000000 0.945330 0.955657
1.000000 0.966673 0.975866
1.000000 0.985667 0.992749
1.000000 0.997727 1.000000
1.000000 1.000000 1.000000
1.000000 1.000000 1.000000
1.000000 1.000000 1.000000
0.000000 0.705118 0.340149
0.000000 0.705009 0.340588
0.000000 0.704861 0.341181
0.000000 0.704646 0.342018
0.000000 0.704310 0.343395
0.000000 0.703867 0.345174
0.000000 0.706331 0.314526
0.000000 0.710489 0.251234
0.077526 0.715431 0.072486
0.322380 0.711996 0.000000
0.464365 0.705686 0.000000
0.590991 0.697682 0.000000
0.713032 0.684656 0.000000
0.808667 0.653924 0.163737
0.884654 0.631576 0.289477
0.945328 0.622056 0.388206
0.988796 0.627385 0.476730
1.000000 0.644054 0.552438
1.000000 0.670670 0.619148
1.000000 0.703271 0.679236
1.000000 0.738143 0.732830
1.000000 0.778320 0.784043
1.000000 0.823845 0.835392
1.000000 0.862020 0.875774
1.000000 0.894087 0.907421
1.000000 0.921302 0.933022
1.000000 0.945356 0.955721
1.000000 0.966690 0.975908
1.000000 0.985678 0.992766
1.000000 0.997726 1.000000
1.000000 1.000000 1.000000
1.000000 1.000000 1.000000
1.000000 1.000000 1.000000
0.000000 0.763173 0.367724
0.000000 0.763096 0.368093
0.000000 0.762987 0.368636
0.000000 0.762826 0.369507
0.000000 0.762575 0.370719
0.000000 0.762235 0.372343
0.000000 0.762995 0.362336
0.000000 0.766451 0.320301
0.000000 0.771893 0.233904
0.156767 0.775577 0.007700
0.378659 0.769891 0.005182
0.517244 0.762372 0.008183
0.644624 0.752675 0.068478
0.766319 0.737699 0.193352
0.851713 0.707195 0.307237
0.919267 0.687024 0.399764
0.972592 0.679739 0.481399
0.998228 0.686576 0.558641
1.000000 0.702782 0.624621
1.000000 0.726637 0.682549
1.000000 0.754830 0.733699
1.000000 0.785391 0.780240
1.000000 0.820036 0.824679
1.000000 0.859526 0.869530
1.000000 0.893076 0.905095
1.000000 0.921360 0.933161
1.000000 0.945393 0.955810
1.000000 0.966714 0.975965
1.000000 0.985694 0.992791
1.000000 0.997725 1.000000
1.000000 1.000000 1.000000
1.000000 1.000000 1.000000
1.000000 1.000000 1.000000
0.000000 0.815636 0.389507
0.000000 0.815571 0.389862
0.000000 0.815481 0.390353
0.000000 0.815356 0.391029
0.000000 0.815184 0.391958
0.000000 0.814948 0.393223
0.000000 0.814620 0.395016
0.000000 0.816907 0.370543
0.000000 0.821222 0.317460
0.020831 0.827618 0.190875
0.267249 0.827285 0.037499
0.437282 0.819758 0.122365
0.574581 0.810130 0.199593
0.698795 0.798864 0.266432
0.811039 0.783914 0.332889
0.888022 0.754647 0.416699
0.947925 0.736828 0.492405
0.989284 0.731427 0.561956
1.000000 0.738952 0.629515
1.000000 0.754096 0.687011
1.000000 0.775266 0.737341
1.000000 0.800006 0.781667
1.000000 0.826436 0.821668
1.000000 0.856193 0.860094
1.000000 0.890811 0.899487
1.000000 0.920411 0.930974
1.000000 0.945444 0.955935
1.000000 0.966747 0.976046
1.000000 0.985715 0.992825
1.000000 0.997723 1.000000
1.000000 1.000000 1.000000
1.000000 1.000000 1.000000
1.000000 1.000000 1.000000
0.000000 0.863764 0.407535
0.000000 0.863715 0.407838
0.000000 0.863646 0.408258
0.000000 0.863551 0.408841
0.000000 0.863419 0.409645
0.000000 0.863238 0.410750
0.000000 0.862960 0.412373
0.000000 0.862830 0.412155
0.000000 0.866347 0.375837
0.000000 0.871563 0.311122
0.157308 0.873214 0.248004
0.382076 0.867430 0.262279
0.516470 0.859203 0.297796
0.636632 0.849683 0.340906
0.748106 0.838721 0.387667
0.849684 0.824508 0.439252
0.918761 0.797140 0.508325
0.971953 0.781409 0.572061
0.999101 0.777224 0.631853
1.000000 0.784873 0.690862
1.000000 0.798911 0.741024
1.000000 0.817595 0.784802
1.000000 0.839262 0.823252
1.000000 0.861996 0.857660
1.000000 0.887924 0.891211
1.000000 0.918380 0.925972
1.000000 0.944571 0.953917
1.000000 0.966793 0.976157
1.000000 0.985745 0.992873
1.000000 0.997721 1.000000
1.000000 1.000000 1.000000
1.000000 1.000000 1.000000
1.000000 1.000000 1.000000
0.000000 0.908080 0.425047
0.000000 0.908037 0.425307
0.000000 0.907977 0.425668
0.000000 0.907893 0.426169
0.000000 0.907776 0.426864
0.000000 0.907615 0.427825
0.000000 0.907393 0.429147
0.000000 0.907088 0.430956
0.000000 0.907834 0.422958
0.064002 0.910580 0.390670
0.160159 0.913023 0.345874
0.358090 0.907471 0.363185
0.477898 0.900900 0.383949
0.588803 0.892876 0.412306
0.693134 0.883697 0.446618
0.791618 0.873435 0.484749
0.883211 0.860169 0.527936
0.944865 0.835168 0.587424
0.988890 0.821134 0.640972
1.000000 0.817910 0.692597
1.000000 0.825176 0.743978
1.000000 0.837943 0.787636
1.000000 0.854479 0.825781
1.000000 0.873357 0.859256
1.000000 0.893203 0.889310
1.000000 0.915863 0.918684
1.000000 0.942751 0.949447
1.000000 0.965999 0.974320
1.000000 0.985786 0.992940
1.000000 0.997718 1.000000
1.000000 1.000000 1.000000
1.000000 1.000000 1.000000
1.000000 1.000000 1.000000
0.108094 0.945694 0.458948
0.108073 0.945664 0.459141
0.108045 0.945621 0.459411
0.108005 0.945562 0.459787
0.107949 0.945480 0.460309
0.107872 0.945366 0.461032
0.107763 0.945208 0.462032
0.107612 0.944990 0.463410
0.107400 0.944691 0.465296
0.125881 0.944881 0.458897
0.228502 0.945496 0.439530
0.367509 0.941106 0.449920
0.471608 0.935707 0.464344
0.559693 0.929484 0.481408
0.653382 0.921841 0.505752
0.743266 0.913205 0.534378
0.830130 0.903769 0.566762
0.912427 0.891539 0.603631
0.967412 0.868933 0.655205
0.998312 0.856466 0.700706
1.000000 0.853932 0.745438
1.000000 0.860647 0.790182
1.000000 0.872061 0.828258
1.000000 0.886679 0.861486
1.000000 0.903221 0.890785
1.000000 0.920669 0.917207
1.000000 0.940544 0.943002
1.000000 0.964365 0.970311
1.000000 0.985068 0.991898
1.000000 0.997714 1.000000
1.000000 1.000000 1.000000
1.000000 1.000000 1.000000
1.000000 1.000000 1.000000
0.250800 0.973799 0.520532
0.249475 0.973808 0.520499
0.247628 0.973821 0.520454
0.245055 0.973838 0.520389
0.241482 0.973863 0.520300
0.236520 0.973897 0.520176
0.229653 0.973944 0.520004
0.220721 0.974010 0.519765
0.217474 0.974107 0.519427
0.213024 0.974239 0.518964
0.320771 0.972594 0.521426
0.407940 0.969164 0.527952
0.483351 0.964998 0.536865
0.558664 0.959900 0.549017
0.630531 0.954076 0.563827
0.710262 0.946923 0.584941
0.787473 0.938963 0.609111
0.864312 0.930356 0.637052
0.938024 0.919208 0.668814
0.985756 0.898885 0.713603
1.000000 0.887829 0.752566
1.000000 0.885814 0.791524
1.000000 0.891903 0.830473
1.000000 0.901997 0.863642
1.000000 0.914866 0.892741
1.000000 0.929511 0.918511
1.000000 0.944899 0.941825
1.000000 0.962420 0.964588
1.000000 0.983599 0.988911
1.000000 0.997380 1.000000
1.000000 1.000000 1.000000
1.000000 1.000000 1.000000
1.000000 1.000000 1.000000
0.439566 0.994038 0.596350
0.439409 0.994042 0.596329
0.439191 0.994047 0.596300
0.438884 0.994054 0.596259
0.438460 0.994064 0.596203
0.437866 0.994077 0.596124
0.437043 0.994096 0.596014
0.435902 0.994122 0.595862
0.434320 0.994157 0.595652
0.432142 0.994206 0.595361
0.429152 0.994273 0.594960
0.465486 0.992604 0.597924
0.517267 0.989426 0.603494
0.572754 0.985533 0.611216
0.631760 0.980804 0.621595
0.692281 0.975391 0.634664
0.760142 0.968809 0.652877
0.826740 0.961559 0.673469
0.894673 0.953757 0.697665
0.960560 0.943677 0.725165
0.997318 0.925462 0.764106
1.000000 0.915657 0.797676
1.000000 0.914014 0.831681
1.000000 0.919458 0.865605
1.000000 0.928363 0.894607
1.000000 0.939733 0.920232
1.000000 0.952741 0.942983
1.000000 0.966359 0.963630
1.000000 0.981877 0.983808
1.000000 0.996489 0.998599
1.000000 1.000000 1.000000
1.000000 1.000000 1.000000
1.000000 1.000000 1.000000
0.543032 1.000000 0.662156
0.542947 1.000000 0.662144
0.542827 1.000000 0.662125
0.542660 1.000000 0.662100
0.542428 1.000000 0.662065
0.542103 1.000000 0.662016
0.541652 1.000000 0.661948
0.541024 1.000000 0.661853
0.540154 1.000000 0.661721
0.538948 1.000000 0.661538
0.537286 1.000000 0.661286
0.535006 1.000000 0.660939
0.562994 0.999638 0.663762
0.601971 0.998867 0.668591
0.645426 0.997990 0.675198
0.694076 0.996691 0.684228
0.745616 0.994047 0.695717
0.803300 0.988080 0.711298
0.861618 0.981493 0.729166
0.921636 0.974446 0.750113
0.980488 0.965368 0.773995
1.000000 0.949074 0.807927
1.000000 0.940367 0.837008
1.000000 0.938981 0.866702
1.000000 0.943798 0.896311
1.000000 0.951694 0.921860
1.000000 0.961761 0.944503
1.000000 0.973337 0.964660
1.000000 0.985437 0.983013
1.000000 0.995846 0.996271
1.000000 1.000000 1.000000
1.000000 1.000000 1.000000
1.000000 1.000000 1.000000
0.623440 1.000000 0.719171
0.623391 1.000000 0.719163
0.623322 1.000000 0.719152
0.623226 1.000000 0.719136
0.623091 1.000000 0.719114
0.622904 1.000000 0.719084
0.622643 1.000000 0.719041
0.622281 1.000000 0.718982
0.621776 1.000000 0.718899
0.621075 1.000000 0.718784
0.620105 1.000000 0.718625
0.618768 1.000000 0.718406
0.616931 1.000000 0.718103
0.639987 1.000000 0.720703
0.671553 1.000000 0.724937
0.707099 1.000000 0.730650
0.747745 1.000000 0.738493
0.791855 0.999530 0.748528
0.841268 0.998193 0.761899
0.892489 0.997113 0.777445
0.945604 0.992799 0.795633
0.995723 0.984659 0.816434
1.000000 0.970100 0.846013
1.000000 0.962343 0.871398
1.000000 0.961111 0.897233
1.000000 0.965398 0.923345
1.000000 0.972406 0.945931
1.000000 0.981343 0.966009
1.000000 0.991503 0.983931
1.000000 0.997791 0.996463
1.000000 1.000000 1.000000
1.000000 1.000000 1.000000
1.000000 1.000000 1.000000
0.689421 1.000000 0.768675
0.689391 1.000000 0.768670
0.689350 1.000000 0.768663
0.689293 1.000000 0.768653
0.689213 1.000000 0.768639
0.689102 1.000000 0.768620
0.688947 1.000000 0.768594
0.688730 1.000000 0.768556
0.688429 1.000000 0.768504
0.688011 1.000000 0.768432
0.687429 1.000000 0.768332
0.686625 1.000000 0.768193
0.685515 1.000000 0.768001
0.683990 1.000000 0.767736
0.703788 1.000000 0.770119
0.729915 1.000000 0.773818
0.759613 1.000000 0.778768
0.793995 1.000000 0.785575
0.832075 1.000000 0.794346
0.874693 1.000000 0.805856
0.919831 1.000000 0.819420
0.966943 0.999443 0.835262
0.999172 0.998393 0.853438
1.000000 0.988857 0.879294
1.000000 0.981924 0.901352
1.000000 0.980812 0.924123
1.000000 0.984624 0.947231
1.000000 0.990856 0.967268
1.000000 0.995913 0.985135
1.000000 1.000000 0.997052
1.000000 1.000000 1.000000
1.000000 1.000000 1.000000
1.000000 1.000000 1.000000
0.744659 1.000000 0.811659
0.744642 1.000000 0.811656
0.744617 1.000000 0.811652
0.744583 1.000000 0.811646
0.744535 1.000000 0.811637
0.744468 1.000000 0.811625
0.744374 1.000000 0.811609
0.744244 1.000000 0.811586
0.744062 1.000000 0.811554
0.743809 1.000000 0.811509
0.743457 1.000000 0.811447
0.742968 1.000000 0.811361
0.742292 1.000000 0.811241
0.741359 1.000000 0.811076
0.740078 1.000000 0.810849
0.757159 1.000000 0.812999
0.779113 1.000000 0.816223
0.804502 1.000000 0.820566
0.834048 1.000000 0.826514
0.866881 1.000000 0.834133
0.904165 1.000000 0.844160
0.944083 1.000000 0.856031
0.985983 1.000000 0.869876
0.999785 1.000000 0.885814
1.000000 0.998942 0.908419
1.000000 0.998101 0.927746
1.000000 0.997492 0.947891
1.000000 0.998175 0.968411
1.000000 0.999689 0.986250
1.000000 1.000000 0.997781
1.000000 1.000000 1.000000
1.000000 1.000000 1.000000
1.000000 1.000000 1.000000
0.791210 1.000000 0.848891
0.791200 1.000000 0.848889
0.791184 1.000000 0.848886
0.791163 1.000000 0.848882
0.791134 1.000000 0.848877
0.791093 1.000000 0.848870
0.791035 1.000000 0.848859
0.790955 1.000000 0.848845
0.790843 1.000000 0.848825
0.790686 1.000000 0.848796
0.790469 1.000000 0.848757
0.790167 1.000000 0.848702
0.789748 1.000000 0.848626
0.789167 1.000000 0.848521
0.788366 1.000000 0.848375
0.787266 1.000000 0.848175
0.802196 1.000000 0.850103
0.821100 1.000000 0.852943
0.842978 1.000000 0.856742
0.868713 1.000000 0.861965
0.897318 1.000000 0.868616
0.930265 1.000000 0.877457
0.965700 1.000000 0.887911
0.995815 1.000000 0.900114
1.000000 1.000000 0.914187
1.000000 1.000000 0.934021
1.000000 0.999976 0.951092
1.000000 1.000000 0.968972
1.000000 1.000000 0.987258
1.000000 1.000000 0.998684
1.000000 1.000000 1.000000
1.000000 1.000000 1.000000
1.000000 1.000000 1.000000
0.831368 1.000000 0.881529
0.831361 1.000000 0.881527
0.831352 1.000000 0.881526
0.831338 1.000000 0.881523
0.831320 1.000000 0.881520
0.831295 1.000000 0.881515
0.831259 1.000000 0.881509
0.831209 1.000000 0.881499
0.831139 1.000000 0.881487
0.831042 1.000000 0.881469
0.830906 1.000000 0.881444
0.830718 1.000000 0.881409
0.830455 1.000000 0.881361
0.830092 1.000000 0.881294
0.829588 1.000000 0.881200
0.828892 1.000000 0.881072
0.827937 1.000000 0.880895
0.841069 1.000000 0.882622
0.857513 1.000000 0.885132
0.876489 1.000000 0.888457
0.899063 1.000000 0.893059
0.924133 1.000000 0.898883
0.953394 1.000000 0.906693
0.984965 1.000000 0.915906
0.999410 1.000000 0.926697
1.000000 1.000000 0.939030
1.000000 1.000000 0.956632
1.000000 1.000000 0.971793
1.000000 1.000000 0.987724
1.000000 1.000000 0.999246
1.000000 1.000000 1.000000
1.000000 1.000000 1.000000
1.000000 1.000000 1.000000
0.866241 1.000000 0.910231
0.866237 1.000000 0.910230
0.866231 1.000000 0.910229
0.866222 1.000000 0.910227
0.866211 1.000000 0.910225
0.866195 1.000000 0.910222
0.866172 1.000000 0.910218
0.866141 1.000000 0.910212
0.866097 1.000000 0.910204
0.866036 1.000000 0.910193
0.865951 1.000000 0.910177
0.865833 1.000000 0.910155
0.865667 1.000000 0.910124
0.865438 1.000000 0.910081
0.865120 1.000000 0.910022
0.864678 1.000000 0.909939
0.864069 1.000000 0.909825
0.863260 1.000000 0.909672
