Assets/Data/Textures/70 CGC LUTs/LUTs_AgX_Filmic_ViewTransforms/ARRILogC4AWG4-to-AgX-KrakenPunchy-sRGB.cube
#  Baked from the PixelManager OCIO config by Joe Genco
#  https://github.com/Joegenco/PixelManager
#  Input Gamma: Arri LogC4
#  Input Color Space: Arri Wide Gamut 4
#  floating point data (range 0.0 - 1.0)   
#       
#  Output Gamma: Gamma 2.2 (Display)
#  Output Color Space: Rec.709
#  floating point data (range 0.0 - 1.0)
LUT_3D_SIZE 9
0.000000 0.000000 0.000000
0.165865 -0.004072 -0.004061
0.543520 0.013222 0.013293
0.874969 0.122367 0.122571
1.067154 0.345746 0.346036
1.100846 0.622426 0.622731
1.040735 0.859649 0.859839
1.006479 0.977674 0.977751
1.000000 1.000000 1.000000
-0.014359 0.088495 -0.014359
0.059818 0.062864 -0.012415
0.521009 0.010236 0.010300
0.870484 0.119626 0.119829
1.066738 0.344676 0.344966
1.100860 0.622124 0.622429
1.040750 0.859599 0.859789
1.006480 0.977669 0.977746
1.000000 1.000000 1.000000
-0.029526 0.397168 -0.029526
-0.030226 0.390164 -0.030226
0.340518 0.345311 -0.025389
0.820110 0.236860 0.093786
1.065107 0.340556 0.340844
1.100915 0.620970 0.621276
1.040805 0.859407 0.859598
1.006486 0.977648 0.977725
1.000000 1.000000 1.000000
0.078268 0.696617 0.078268
0.077196 0.694974 0.077196
0.073080 0.688571 0.073080
0.628130 0.632997 0.103085
1.004984 0.531465 0.305425
1.101116 0.616511 0.616817
1.041018 0.858676 0.858867
1.006508 0.977571 0.977648
1.000000 1.000000 1.000000
0.316998 0.920057 0.316998
0.316561 0.919822 0.316561
0.314891 0.918917 0.314891
0.308437 0.915359 0.308437
0.863326 0.866472 0.354384
1.049461 0.799864 0.585918
1.041844 0.855829 0.856022
1.006594 0.977275 0.977353
1.000000 1.000000 1.000000
0.624086 1.011449 0.624086
0.623964 1.011431 0.623964
0.623499 1.011363 0.623499
0.621718 1.011101 0.621718
0.614781 1.010062 0.614781
0.979037 0.980321 0.666896
1.016533 0.953318 0.841253
1.006929 0.976122 0.976201
1.000000 1.000000 1.000000
0.872819 1.011266 0.872819
0.872800 1.011267 0.872800
0.872729 1.011274 0.872729
0.872456 1.011298 0.872456
0.871408 1.011391 0.871408
0.867291 1.011755 0.867291
1.002147 1.002147 0.898070
1.000545 1.000545 0.974116
1.000000 1.000000 1.000000
0.989090 1.000966 0.989090
0.989088 1.000967 0.989088
0.989081 1.000967 0.989081
0.989053 1.000970 0.989053
0.988946 1.000979 0.988946
0.988537 1.001015 0.988537
0.986926 1.001158 0.986926
1.000000 1.000000 1.000000
1.000000 1.000000 1.000000
1.000000 1.000000 1.000000
1.000000 1.000000 1.000000
1.000000 1.000000 1.000000
1.000000 1.000000 1.000000
1.000000 1.000000 1.000000
1.000000 1.000000 1.000000
1.000000 1.000000 1.000000
1.000000 1.000000 1.000000
1.000000 1.000000 1.000000
0.003276 0.003270 0.082936
0.155894 0.000211 0.077545
0.538870 0.016705 0.082732
0.873275 0.123674 0.152530
1.067094 0.345592 0.345882
1.100848 0.622382 0.622687
1.040738 0.859642 0.859832
1.006479 0.977673 0.977750
1.000000 1.000000 1.000000
-0.009024 0.075671 0.049272
0.049811 0.049797 0.049807
0.516583 0.012532 0.059846
0.869271 0.120111 0.135616
1.066678 0.344522 0.344812
1.100862 0.622080 0.622386
1.040752 0.859591 0.859782
1.006480 0.977668 0.977745
1.000000 1.000000 1.000000
-0.029989 0.392611 -0.029989
-0.030658 0.385458 -0.030658
0.336330 0.340204 -0.026103
0.821148 0.229312 0.094004
1.065044 0.340399 0.340687
1.100917 0.620926 0.621232
1.040807 0.859400 0.859591
1.006486 0.977648 0.977725
1.000000 1.000000 1.000000
0.077567 0.695544 0.077567
0.076493 0.693890 0.076493
0.072367 0.687448 0.072367
0.627089 0.631732 0.102230
1.005358 0.529539 0.305295
1.101119 0.616466 0.616772
1.041020 0.858668 0.858860
1.006509 0.977571 0.977647
1.000000 1.000000 1.000000
0.316712 0.919903 0.316712
0.316275 0.919667 0.316275
0.314604 0.918761 0.314604
0.308142 0.915194 0.308142
0.863155 0.866265 0.354051
1.049546 0.799497 0.585841
1.041846 0.855821 0.856015
1.006595 0.977275 0.977352
1.000000 1.000000 1.000000
0.624007 1.011437 0.624007
0.623885 1.011419 0.623885
0.623419 1.011351 0.623419
0.621637 1.011089 0.621637
0.614698 1.010050 0.614698
0.979020 0.980300 0.666810
1.016545 0.953276 0.841236
1.006929 0.976122 0.976200
1.000000 1.000000 1.000000
0.872807 1.011267 0.872807
0.872788 1.011268 0.872788
0.872716 1.011275 0.872716
0.872444 1.011299 0.872444
0.871395 1.011392 0.871395
0.867278 1.011756 0.867278
1.002147 1.002147 0.898057
1.000545 1.000545 0.974113
1.000000 1.000000 1.000000
0.989089 1.000967 0.989089
0.989087 1.000967 0.989087
0.989079 1.000967 0.989079
0.989051 1.000970 0.989051
0.988945 1.000979 0.988945
0.988536 1.001016 0.988536
0.986924 1.001158 0.986924
1.000000 1.000000 1.000000
1.000000 1.000000 1.000000
1.000000 1.000000 1.000000
1.000000 1.000000 1.000000
1.000000 1.000000 1.000000
1.000000 1.000000 1.000000
1.000000 1.000000 1.000000
1.000000 1.000000 1.000000
1.000000 1.000000 1.000000
1.000000 1.000000 1.000000
1.000000 1.000000 1.000000
0.041757 0.041707 0.440280
0.134819 0.039840 0.434233
0.520005 0.053843 0.412548
0.860036 0.148020 0.406185
1.061855 0.353287 0.464870
1.100312 0.622961 0.636018
1.040745 0.859614 0.859805
1.006480 0.977670 0.977747
1.000000 1.000000 1.000000
0.038751 0.050889 0.430911
0.040248 0.040199 0.432741
0.497182 0.049876 0.406703
0.855684 0.144684 0.400023
1.061585 0.351935 0.460577
1.100385 0.622578 0.634281
1.040760 0.859564 0.859755
1.006481 0.977665 0.977742
1.000000 1.000000 1.000000
0.009680 0.377297 0.336332
0.009111 0.369925 0.336852
0.326853 0.326804 0.326839
0.817364 0.214173 0.358344
1.060529 0.346714 0.443520
1.100666 0.621110 0.627533
1.040815 0.859373 0.859563
1.006487 0.977645 0.977722
1.000000 1.000000 1.000000
0.087014 0.688972 0.218250
0.085916 0.687287 0.217089
0.081698 0.680718 0.212614
0.622245 0.625973 0.211806
1.005757 0.522673 0.342920
1.101126 0.616296 0.616602
1.041028 0.858641 0.858832
1.006510 0.977568 0.977645
1.000000 1.000000 1.000000
0.315622 0.919314 0.315622
0.315183 0.919076 0.315183
0.313505 0.918161 0.313505
0.307017 0.914563 0.307017
0.862500 0.865474 0.352779
1.049871 0.798089 0.585551
1.041855 0.855792 0.855986
1.006595 0.977272 0.977349
1.000000 1.000000 1.000000
0.623703 1.011393 0.623703
0.623580 1.011375 0.623580
0.623114 1.011306 0.623114
0.621330 1.011043 0.621330
0.614379 1.010001 0.614379
0.978954 0.980221 0.666479
1.016589 0.953117 0.841171
1.006930 0.976119 0.976197
1.000000 1.000000 1.000000
0.872760 1.011271 0.872760
0.872741 1.011273 0.872741
0.872670 1.011279 0.872670
0.872397 1.011303 0.872397
0.871348 1.011396 0.871348
0.867228 1.011761 0.867228
1.002148 1.002148 0.898010
1.000546 1.000546 0.974102
1.000000 1.000000 1.000000
0.989084 1.000967 0.989084
0.989082 1.000967 0.989082
0.989075 1.000968 0.989075
0.989047 1.000970 0.989047
0.988940 1.000980 0.988940
0.988531 1.001016 0.988531
0.986919 1.001159 0.986919
1.000000 1.000000 1.000000
1.000000 1.000000 1.000000
1.000000 1.000000 1.000000
1.000000 1.000000 1.000000
1.000000 1.000000 1.000000
1.000000 1.000000 1.000000
1.000000 1.000000 1.000000
1.000000 1.000000 1.000000
1.000000 1.000000 1.000000
1.000000 1.000000 1.000000
1.000000 1.000000 1.000000
0.173185 0.173045 0.778762
0.173106 0.172965 0.778634
0.477717 0.175289 0.755948
0.829577 0.230370 0.725016
1.046517 0.386675 0.709018
1.094749 0.632060 0.754761
1.040251 0.860233 0.872253
1.006483 0.977659 0.977736
1.000000 1.000000 1.000000
0.172235 0.172094 0.777228
0.172155 0.172015 0.777099
0.454128 0.173226 0.756155
0.824806 0.228092 0.723849
1.046128 0.385489 0.707566
1.094798 0.631684 0.753838
1.040275 0.860169 0.871988
1.006484 0.977654 0.977731
1.000000 1.000000 1.000000
0.149079 0.343678 0.727810
0.149484 0.335679 0.729610
0.313718 0.297398 0.726753
0.805254 0.219234 0.719390
1.044597 0.380914 0.701920
1.094987 0.630245 0.750272
1.040366 0.859927 0.870972
1.006490 0.977634 0.977711
1.000000 1.000000 1.000000
0.173069 0.670342 0.628984
0.172397 0.668565 0.629134
0.169833 0.661635 0.629745
0.612595 0.612540 0.612579
1.001018 0.508897 0.648218
1.095724 0.624670 0.735897
1.040716 0.858998 0.866996
1.006513 0.977556 0.977634
1.000000 1.000000 1.000000
0.332847 0.912133 0.524272
0.332416 0.911886 0.523937
0.330766 0.910938 0.522661
0.324390 0.907203 0.517740
0.857807 0.860198 0.516296
1.049495 0.793024 0.644932
1.041887 0.855683 0.855877
1.006599 0.977260 0.977338
1.000000 1.000000 1.000000
0.622540 1.011222 0.622540
0.622418 1.011204 0.622418
0.621949 1.011135 0.621949
0.620153 1.010869 0.620153
0.613159 1.009815 0.613159
0.978703 0.979915 0.665215
1.016757 0.952504 0.840927
1.006933 0.976107 0.976186
1.000000 1.000000 1.000000
0.872582 1.011287 0.872582
0.872563 1.011288 0.872563
0.872491 1.011295 0.872491
0.872217 1.011319 0.872217
0.871167 1.011412 0.871167
0.867037 1.011778 0.867037
1.002152 1.002152 0.897830
1.000546 1.000546 0.974059
1.000000 1.000000 1.000000
0.989066 1.000969 0.989066
0.989064 1.000969 0.989064
0.989056 1.000969 0.989056
0.989028 1.000972 0.989028
0.988922 1.000981 0.988922
0.988512 1.001018 0.988512
0.986899 1.001160 0.986899
1.000000 1.000000 1.000000
1.000000 1.000000 1.000000
1.000000 1.000000 1.000000
1.000000 1.000000 1.000000
1.000000 1.000000 1.000000
1.000000 1.000000 1.000000
1.000000 1.000000 1.000000
1.000000 1.000000 1.000000
1.000000 1.000000 1.000000
1.000000 1.000000 1.000000
1.000000 1.000000 1.000000
0.402823 0.402631 1.015824
0.402795 0.402603 1.015807
0.406589 0.402411 1.015460
0.774071 0.410863 0.985072
1.013043 0.488566 0.952197
1.081009 0.667010 0.924270
1.037055 0.866006 0.935160
1.006265 0.977937 0.983165
1.000000 1.000000 1.000000
0.402488 0.402297 1.015629
0.402460 0.402268 1.015613
0.402353 0.402162 1.015551
0.768855 0.410021 0.985351
1.012501 0.487815 0.952092
1.081022 0.666695 0.924081
1.037074 0.865945 0.935046
1.006268 0.977930 0.983138
1.000000 1.000000 1.000000
0.401208 0.401016 1.014882
0.401179 0.400988 1.014866
0.401072 0.400881 1.014803
0.747537 0.406854 0.986512
1.010379 0.484935 0.951694
1.081073 0.665491 0.923354
1.037147 0.865711 0.934607
1.006277 0.977905 0.983034
1.000000 1.000000 1.000000
0.375549 0.634906 0.950180
0.375514 0.632937 0.950665
0.375417 0.625252 0.952557
0.601060 0.585290 0.945343
1.001348 0.473642 0.950187
1.081263 0.660828 0.920500
1.037428 0.864818 0.932904
1.006314 0.977807 0.982633
1.000000 1.000000 1.000000
0.436581 0.895277 0.868839
0.436313 0.895004 0.868869
0.435290 0.893953 0.868985
0.431371 0.889818 0.869461
0.849996 0.849959 0.849985
1.045952 0.782684 0.876914
1.038534 0.861326 0.925928
1.006454 0.977432 0.981061
1.000000 1.000000 1.000000
0.640813 1.005405 0.805219
0.640695 1.005385 0.805156
0.640247 1.005307 0.804918
0.638531 1.005006 0.804006
0.631847 1.003816 0.800464
0.975398 0.976374 0.799819
1.016388 0.950119 0.878402
1.006946 0.976063 0.976141
1.000000 1.000000 1.000000
0.871899 1.011347 0.871899
0.871880 1.011349 0.871880
0.871808 1.011355 0.871808
0.871531 1.011380 0.871531
0.870472 1.011474 0.870472
0.866307 1.011842 0.866307
1.002167 1.002167 0.897141
1.000550 1.000550 0.973897
1.000000 1.000000 1.000000
0.988996 1.000975 0.988996
0.988994 1.000975 0.988994
0.988987 1.000976 0.988987
0.988959 1.000978 0.988959
0.988852 1.000988 0.988852
0.988441 1.001024 0.988441
0.986825 1.001167 0.986825
1.000000 1.000000 1.000000
1.000000 1.000000 1.000000
1.000000 1.000000 1.000000
1.000000 1.000000 1.000000
1.000000 1.000000 1.000000
1.000000 1.000000 1.000000
1.000000 1.000000 1.000000
1.000000 1.000000 1.000000
1.000000 1.000000 1.000000
1.000000 1.000000 1.000000
1.000000 1.000000 1.000000
0.670189 0.669995 1.081969
0.670182 0.669987 1.081969
0.670153 0.669959 1.081969
0.699580 0.669279 1.079727
0.958211 0.684141 1.055169
1.053440 0.760755 1.029429
1.029635 0.886872 1.007209
1.005053 0.980325 1.005053
1.000000 1.000000 1.000000
0.670100 0.669905 1.081968
0.670092 0.669898 1.081968
0.670064 0.669869 1.081967
0.694032 0.669280 1.080143
0.957528 0.683888 1.055254
1.053409 0.760588 1.029440
1.029648 0.886825 1.007193
1.005055 0.980318 1.005055
1.000000 1.000000 1.000000
0.669758 0.669563 1.081962
0.669751 0.669556 1.081962
0.669722 0.669527 1.081962
0.671387 0.669379 1.081827
0.954862 0.682924 1.055586
1.053289 0.759950 1.029483
1.029697 0.886645 1.007130
1.005061 0.980292 1.005061
1.000000 1.000000 1.000000
0.668451 0.668256 1.081941
0.668443 0.668248 1.081940
0.668414 0.668219 1.081940
0.668305 0.668110 1.081938
0.943661 0.679248 1.056930
1.052816 0.757493 1.029650
1.029885 0.885957 1.006888
1.005086 0.980195 1.005086
1.000000 1.000000 1.000000
0.652975 0.868234 1.026943
0.652921 0.867914 1.027030
0.652716 0.866681 1.027362
0.651963 0.861826 1.028671
0.843486 0.833001 1.021019
1.048536 0.756222 1.028216
1.030618 0.883274 1.005939
1.005182 0.979821 1.005182
1.000000 1.000000 1.000000
0.733234 0.994385 0.983635
0.733170 0.994358 0.983641
0.732924 0.994258 0.983661
0.731987 0.993871 0.983739
0.728365 0.992340 0.984054
0.971463 0.971448 0.971458
1.014776 0.945473 0.984974
1.005594 0.978387 1.003940
1.000000 1.000000 1.000000
0.882204 1.008672 0.960678
0.882187 1.008673 0.960671
0.882120 1.008678 0.960642
0.881865 1.008698 0.960534
0.880885 1.008772 0.960119
0.877038 1.009063 0.958500
1.000865 1.000865 0.958941
1.000235 1.000235 0.988854
1.000000 1.000000 1.000000
0.988729 1.000998 0.988729
0.988727 1.000998 0.988727
0.988720 1.000999 0.988720
0.988692 1.001002 0.988692
0.988584 1.001011 0.988584
0.988169 1.001048 0.988169
0.986538 1.001192 0.986538
1.000000 1.000000 1.000000
1.000000 1.000000 1.000000
1.000000 1.000000 1.000000
1.000000 1.000000 1.000000
1.000000 1.000000 1.000000
1.000000 1.000000 1.000000
1.000000 1.000000 1.000000
1.000000 1.000000 1.000000
1.000000 1.000000 1.000000
1.000000 1.000000 1.000000
1.000000 1.000000 1.000000
0.883889 0.883776 1.041913
0.883888 0.883774 1.041914
0.883884 0.883770 1.041915
0.883867 0.883753 1.041921
0.904049 0.883341 1.040368
1.018209 0.893752 1.028037
1.016559 0.935523 1.016559
1.002768 0.989222 1.002768
1.000000 1.000000 1.000000
0.883876 0.883762 1.041918
0.883874 0.883761 1.041919
0.883870 0.883756 1.041920
0.883853 0.883739 1.041926
0.903281 0.883336 1.040433
1.018143 0.893714 1.028053
1.016564 0.935502 1.016564
1.002769 0.989217 1.002769
1.000000 1.000000 1.000000
0.883823 0.883709 1.041937
0.883822 0.883708 1.041937
0.883817 0.883703 1.041939
0.883801 0.883686 1.041945
0.900291 0.883321 1.040684
1.017892 0.893568 1.028115
1.016585 0.935422 1.016585
1.002774 0.989199 1.002774
1.000000 1.000000 1.000000
0.883622 0.883507 1.042010
0.883620 0.883506 1.042010
0.883616 0.883502 1.042012
0.883599 0.883485 1.042018
0.887794 0.883330 1.041714
1.016907 0.893009 1.028352
1.016664 0.935115 1.016664
1.002792 0.989128 1.002792
1.000000 1.000000 1.000000
0.882850 0.882735 1.042288
0.882849 0.882734 1.042289
0.882844 0.882729 1.042290
0.882827 0.882712 1.042297
0.882762 0.882648 1.042320
1.012738 0.890854 1.029295
1.016969 0.933928 1.016969
1.002862 0.988854 1.002862
1.000000 1.000000 1.000000
0.878422 0.980375 1.015506
0.878411 0.980341 1.015516
0.878369 0.980212 1.015555
0.878209 0.979718 1.015706
0.877609 0.977761 1.016300
0.969419 0.965076 1.012238
1.016869 0.934315 1.016869
1.003136 0.987789 1.003136
1.000000 1.000000 1.000000
0.928586 1.004618 1.004618
0.928578 1.004619 1.004619
0.928544 1.004621 1.004621
0.928418 1.004629 1.004629
0.927933 1.004661 1.004661
0.926049 1.004782 1.004782
1.000000 1.000000 1.000000
1.000000 1.000000 1.000000
1.000000 1.000000 1.000000
0.993243 1.000437 1.000437
0.993241 1.000437 1.000437
0.993234 1.000438 1.000438
0.993208 1.000439 1.000439
0.993108 1.000446 1.000446
0.992724 1.000471 1.000471
0.991216 1.000568 1.000568
1.000000 1.000000 1.000000
1.000000 1.000000 1.000000
1.000000 1.000000 1.000000
1.000000 1.000000 1.000000
1.000000 1.000000 1.000000
1.000000 1.000000 1.000000
1.000000 1.000000 1.000000
1.000000 1.000000 1.000000
1.000000 1.000000 1.000000
1.000000 1.000000 1.000000
1.000000 1.000000 1.000000
0.985625 0.985580 1.005198
0.985625 0.985580 1.005198
0.985625 0.985579 1.005198
0.985623 0.985578 1.005198
0.985616 0.985571 1.005201
0.993884 0.985408 1.004563
1.002092 0.991855 1.002092
1.000000 1.000000 1.000000
1.000000 1.000000 1.000000
0.985624 0.985579 1.005198
0.985624 0.985578 1.005198
0.985623 0.985578 1.005198
0.985621 0.985576 1.005199
0.985615 0.985570 1.005201
0.993806 0.985407 1.004569
1.002093 0.991850 1.002093
1.000000 1.000000 1.000000
1.000000 1.000000 1.000000
0.985618 0.985573 1.005200
0.985618 0.985573 1.005200
0.985618 0.985573 1.005200
0.985616 0.985571 1.005201
0.985609 0.985564 1.005203
0.993510 0.985405 1.004595
1.002097 0.991833 1.002097
1.000000 1.000000 1.000000
1.000000 1.000000 1.000000
0.985597 0.985552 1.005208
0.985597 0.985552 1.005208
0.985597 0.985552 1.005208
0.985595 0.985550 1.005208
0.985588 0.985543 1.005211
0.992353 0.985397 1.004692
1.002114 0.991769 1.002114
1.000000 1.000000 1.000000
1.000000 1.000000 1.000000
0.985518 0.985472 1.005236
0.985517 0.985472 1.005237
0.985517 0.985472 1.005237
0.985515 0.985470 1.005237
0.985509 0.985463 1.005240
0.987493 0.985396 1.005095
1.002177 0.991522 1.002177
1.000000 1.000000 1.000000
1.000000 1.000000 1.000000
0.985212 0.985166 1.005347
0.985212 0.985166 1.005347
0.985211 0.985166 1.005347
0.985209 0.985164 1.005348
0.985203 0.985157 1.005350
0.985177 0.985132 1.005359
1.002424 0.990561 1.002424
1.000000 1.000000 1.000000
1.000000 1.000000 1.000000
0.989369 1.000687 1.000687
0.989367 1.000688 1.000688
0.989359 1.000688 1.000688
0.989329 1.000690 1.000690
0.989216 1.000697 1.000697
0.988778 1.000726 1.000726
1.000000 1.000000 1.000000
1.000000 1.000000 1.000000
1.000000 1.000000 1.000000
1.000000 1.000000 1.000000
1.000000 1.000000 1.000000
1.000000 1.000000 1.000000
1.000000 1.000000 1.000000
1.000000 1.000000 1.000000
1.000000 1.000000 1.000000
1.000000 1.000000 1.000000
1.000000 1.000000 1.000000
1.000000 1.000000 1.000000
1.000000 1.000000 1.000000
1.000000 1.000000 1.000000
1.000000 1.000000 1.000000
1.000000 1.000000 1.000000
1.000000 1.000000 1.000000
1.000000 1.000000 1.000000
1.000000 1.000000 1.000000
1.000000 1.000000 1.000000
1.000000 1.000000 1.000000
1.000000 1.000000 1.000000
1.000000 1.000000 1.000000
1.000000 1.000000 1.000000
1.000000 1.000000 1.000000
1.000000 1.000000 1.000000
1.000000 1.000000 1.000000
1.000000 1.000000 1.000000
1.000000 1.000000 1.000000
1.000000 1.000000 1.000000
1.000000 1.000000 1.000000
1.000000 1.000000 1.000000
1.000000 1.000000 1.000000
1.000000 1.000000 1.000000
1.000000 1.000000 1.000000
1.000000 1.000000 1.000000
1.000000 1.000000 1.000000
1.000000 1.000000 1.000000
1.000000 1.000000 1.000000
1.000000 1.000000 1.000000
1.000000 1.000000 1.000000
1.000000 1.000000 1.000000
1.000000 1.000000 1.000000
1.000000 1.000000 1.000000
1.000000 1.000000 1.000000
1.000000 1.000000 1.000000
1.000000 1.000000 1.000000
1.000000 1.000000 1.000000
1.000000 1.000000 1.000000
1.000000 1.000000 1.000000
1.000000 1.000000 1.000000
1.000000 1.000000 1.000000
1.000000 1.000000 1.000000
1.000000 1.000000 1.000000
1.000000 1.000000 1.000000
1.000000 1.000000 1.000000
1.000000 1.000000 1.000000
1.000000 1.000000 1.000000
1.000000 1.000000 1.000000
1.000000 1.000000 1.000000
1.000000 1.000000 1.000000
1.000000 1.000000 1.000000
1.000000 1.000000 1.000000
1.000000 1.000000 1.000000
1.000000 1.000000 1.000000
1.000000 1.000000 1.000000
1.000000 1.000000 1.000000
1.000000 1.000000 1.000000
1.000000 1.000000 1.000000
1.000000 1.000000 1.000000
1.000000 1.000000 1.000000
1.000000 1.000000 1.000000
1.000000 1.000000 1.000000
1.000000 1.000000 1.000000
1.000000 1.000000 1.000000
1.000000 1.000000 1.000000
1.000000 1.000000 1.000000
1.000000 1.000000 1.000000
1.000000 1.000000 1.000000
1.000000 1.000000 1.000000
1.000000 1.000000 1.000000
1.000000 1.000000 1.000000
1.000000 1.000000 1.000000
1.000000 1.000000 1.000000
1.000000 1.000000 1.000000
1.000000 1.000000 1.000000
1.000000 1.000000 1.000000
1.000000 1.000000 1.000000
1.000000 1.000000 1.000000
1.000000 1.000000 1.000000
1.000000 1.000000 1.000000
1.000000 1.000000 1.000000
1.000000 1.000000 1.000000
1.000000 1.000000 1.000000
1.000000 1.000000 1.000000
1.000000 1.000000 1.000000
1.000000 1.000000 1.000000
1.000000 1.000000 1.000000
1.000000 1.000000 1.000000
1.000000 1.000000 1.000000
1.000000 1.000000 1.000000
1.000000 1.000000 1.000000
