Assets/Data/Textures/70 CGC LUTs/LUTs_AgX_Filmic_ViewTransforms/ARRILogC4AWG4-to-JP2499DRT-PrintV2-sRGB.cube
#  Baked from the PixelManager OCIO config by Joe Genco
#  https://github.com/Joegenco/PixelManager
#  Input Gamma: Arri LogC4
#  Input Color Space: Arri Wide Gamut 4
#  floating point data (range 0.0 - 1.0)   
#       
#  Output Gamma: Gamma 2.2 (Display)
#  Output Color Space: Rec.709
#  floating point data (range 0.0 - 1.0)
LUT_3D_SIZE 9
0.044349 0.059667 0.049974
0.065909 0.060510 0.049316
0.253249 0.053253 0.029946
0.587019 0.073320 0.046511
0.818825 0.227279 0.085116
0.915710 0.528905 0.355390
0.939556 0.765596 0.649268
0.942748 0.872732 0.808827
0.940133 0.904115 0.887652
0.042602 0.080354 0.048922
0.073879 0.091200 0.045733
0.288055 0.052060 0.030086
0.593596 0.074601 0.047184
0.819278 0.228074 0.087197
0.915715 0.529088 0.357135
0.939553 0.765623 0.649543
0.942748 0.872735 0.808857
0.940133 0.904117 0.887654
0.012414 0.255083 0.011672
0.011988 0.272199 0.011445
0.333197 0.337897 0.004627
0.679066 0.204090 0.047147
0.832910 0.262512 0.089067
0.916224 0.532855 0.362931
0.939543 0.765729 0.650583
0.942746 0.872748 0.808972
0.940132 0.904124 0.887660
0.023870 0.558211 0.015622
0.024016 0.559458 0.015669
0.038130 0.619504 0.019359
0.665961 0.645580 0.010259
0.855500 0.528497 0.059284
0.921278 0.572938 0.374274
0.939680 0.769147 0.653881
0.942740 0.872796 0.809411
0.940130 0.904150 0.887684
0.339653 0.794315 0.081887
0.340285 0.794547 0.082510
0.362377 0.802051 0.094246
0.467460 0.831521 0.158795
0.848104 0.837654 0.143767
0.922409 0.781837 0.368198
0.940242 0.792903 0.661016
0.942805 0.874624 0.810801
0.940123 0.904251 0.887774
0.752816 0.895227 0.437855
0.752894 0.895244 0.438030
0.753190 0.895309 0.438693
0.766548 0.898386 0.455312
0.808764 0.908466 0.513212
0.913522 0.911617 0.546442
0.938130 0.890980 0.664041
0.942975 0.886645 0.814843
0.940356 0.907030 0.889102
0.891236 0.930228 0.685626
0.891241 0.930229 0.685652
0.891259 0.930235 0.685750
0.891329 0.930255 0.686124
0.894893 0.931156 0.696341
0.905633 0.934272 0.729867
0.934277 0.935830 0.751899
0.941133 0.930633 0.814724
0.940180 0.926930 0.892103
0.926364 0.941098 0.809691
0.926365 0.941098 0.809695
0.926366 0.941099 0.809708
0.926372 0.941101 0.809760
0.926393 0.941108 0.809954
0.927572 0.941535 0.815642
0.930972 0.942903 0.832041
0.939937 0.943466 0.841219
0.939228 0.942760 0.889409
0.927405 0.941068 0.886078
0.927405 0.941068 0.886079
0.927405 0.941068 0.886086
0.927404 0.941067 0.886111
0.927403 0.941067 0.886204
0.927399 0.941066 0.886559
0.929978 0.942171 0.889968
0.939174 0.942708 0.892846
0.939083 0.942618 0.898654
0.043929 0.061273 0.060776
0.075024 0.064605 0.074664
0.292312 0.053629 0.045977
0.602581 0.078166 0.054582
0.822892 0.234310 0.102464
0.915777 0.530637 0.370497
0.939534 0.765864 0.651678
0.942745 0.872761 0.809096
0.940132 0.904131 0.887667
0.038695 0.096324 0.078366
0.074870 0.105432 0.100625
0.341014 0.057886 0.048476
0.611553 0.080210 0.055785
0.823281 0.234966 0.104293
0.915781 0.530812 0.372167
0.939532 0.765891 0.651949
0.942744 0.872764 0.809126
0.940132 0.904133 0.887668
0.011971 0.298132 0.012219
0.011591 0.319364 0.011788
0.369118 0.369047 0.005260
0.691720 0.211924 0.054887
0.836823 0.269803 0.108581
0.916332 0.534788 0.377693
0.939522 0.765996 0.652978
0.942742 0.872777 0.809241
0.940131 0.904140 0.887675
0.025625 0.573424 0.017037
0.025712 0.574467 0.017163
0.041914 0.631458 0.020745
0.672728 0.652001 0.010687
0.858720 0.532845 0.075948
0.921326 0.574494 0.388504
0.939661 0.769445 0.656242
0.942736 0.872825 0.809678
0.940129 0.904167 0.887699
0.347302 0.797111 0.089021
0.347853 0.797317 0.089581
0.369738 0.804520 0.100341
0.472859 0.832991 0.165750
0.848931 0.838692 0.147604
0.922455 0.782233 0.382431
0.940223 0.793129 0.663311
0.942801 0.874656 0.811064
0.940122 0.904267 0.887789
0.753806 0.895444 0.439936
0.753882 0.895461 0.440105
0.754167 0.895523 0.440747
0.767475 0.898591 0.457183
0.809233 0.908576 0.514379
0.913585 0.911683 0.547144
0.938118 0.891005 0.666214
0.942970 0.886681 0.815172
0.940355 0.907047 0.889117
0.891298 0.930246 0.685938
0.891303 0.930248 0.685964
0.891321 0.930253 0.686062
0.891390 0.930273 0.686431
0.894952 0.931170 0.696620
0.905663 0.934281 0.730024
0.934281 0.935837 0.751986
0.941129 0.930633 0.814963
0.940179 0.926931 0.892114
0.926369 0.941100 0.809731
0.926369 0.941100 0.809735
0.926371 0.941100 0.809748
0.926376 0.941102 0.809800
0.926398 0.941109 0.809994
0.927576 0.941537 0.815678
0.930974 0.942904 0.832092
0.939937 0.943465 0.841228
0.939227 0.942760 0.889424
0.927405 0.941067 0.886097
0.927404 0.941068 0.886099
0.927404 0.941067 0.886105
0.927404 0.941067 0.886130
0.927403 0.941067 0.886223
0.927399 0.941066 0.886578
0.929977 0.942171 0.889979
0.939174 0.942708 0.892857
0.939083 0.942618 0.898657
0.030862 0.080182 0.192711
0.046644 0.089001 0.241627
0.322148 0.102573 0.304556
0.635088 0.113420 0.257436
0.833105 0.261458 0.240963
0.916012 0.536611 0.420339
0.939454 0.766861 0.660618
0.942730 0.872873 0.810114
0.940127 0.904193 0.887722
0.030262 0.103490 0.293739
0.034365 0.111357 0.337073
0.365218 0.116482 0.355013
0.652223 0.121737 0.273179
0.833432 0.262684 0.245532
0.916015 0.536760 0.421659
0.939451 0.766887 0.660879
0.942730 0.872876 0.810144
0.940127 0.904195 0.887724
0.005805 0.328941 0.330250
0.006975 0.342636 0.350512
0.342226 0.381231 0.409424
0.713537 0.246948 0.326990
0.847030 0.297721 0.261180
0.916701 0.541429 0.426090
0.939442 0.766987 0.661868
0.942728 0.872889 0.810258
0.940127 0.904202 0.887730
0.031380 0.613984 0.182279
0.031665 0.615235 0.192815
0.048261 0.662569 0.242040
0.693408 0.674844 0.210403
0.868563 0.546136 0.249847
0.921486 0.580018 0.435528
0.939590 0.770551 0.665009
0.942722 0.872936 0.810690
0.940125 0.904228 0.887754
0.372351 0.806738 0.124432
0.372858 0.806969 0.125938
0.394804 0.812995 0.146587
0.492094 0.838672 0.219754
0.851806 0.842147 0.218006
0.922521 0.783479 0.435911
0.940151 0.793928 0.671855
0.942788 0.874786 0.812063
0.940118 0.904328 0.887844
0.757295 0.896219 0.447341
0.757358 0.896233 0.447495
0.757598 0.896289 0.448076
0.770681 0.899329 0.463818
0.810925 0.908974 0.518577
0.913815 0.911924 0.549719
0.938070 0.891104 0.673862
0.942950 0.886819 0.816413
0.940351 0.907112 0.889175
0.891533 0.930315 0.687104
0.891537 0.930317 0.687129
0.891555 0.930322 0.687224
0.891622 0.930339 0.687583
0.895173 0.931222 0.697674
0.905778 0.934314 0.730614
0.934298 0.935860 0.752311
0.941117 0.930635 0.815866
0.940178 0.926941 0.892158
0.926386 0.941105 0.809884
0.926386 0.941105 0.809888
0.926387 0.941106 0.809901
0.926393 0.941108 0.809952
0.926414 0.941115 0.810145
0.927591 0.941542 0.815811
0.930985 0.942906 0.832288
0.939933 0.943462 0.841464
0.939226 0.942759 0.889479
0.927404 0.941067 0.886170
0.927404 0.941067 0.886172
0.927404 0.941067 0.886178
0.927403 0.941067 0.886203
0.927402 0.941067 0.886296
0.927399 0.941065 0.886650
0.929973 0.942170 0.890024
0.939174 0.942707 0.892896
0.939083 0.942618 0.898668
0.043607 0.178632 0.520180
0.045655 0.196144 0.546570
0.264033 0.242444 0.599636
0.662952 0.282063 0.612019
0.839713 0.359032 0.569958
0.916103 0.561996 0.569571
0.939179 0.770355 0.690240
0.942664 0.873400 0.814219
0.940111 0.904427 0.887932
0.045070 0.202437 0.554587
0.046478 0.217719 0.576791
0.262688 0.262375 0.622500
0.673745 0.296194 0.624943
0.842652 0.366330 0.575780
0.916098 0.562158 0.570460
0.939177 0.770378 0.690432
0.942664 0.873406 0.814254
0.940111 0.904428 0.887934
0.037480 0.341356 0.611142
0.037661 0.352388 0.624472
0.146481 0.383169 0.665623
0.701292 0.351539 0.661582
0.852885 0.394272 0.595807
0.917265 0.569619 0.574949
0.939169 0.770466 0.691159
0.942661 0.873426 0.814387
0.940110 0.904435 0.887940
0.019056 0.625761 0.615815
0.019779 0.629548 0.620191
0.025927 0.657390 0.649203
0.662838 0.673715 0.674467
0.868211 0.576590 0.633383
0.921104 0.602662 0.589351
0.939311 0.774434 0.693451
0.942652 0.873502 0.814892
0.940108 0.904461 0.887964
0.419969 0.818289 0.521725
0.419994 0.818268 0.523235
0.440155 0.823357 0.534337
0.521073 0.843015 0.574107
0.852602 0.844893 0.578827
0.922160 0.787210 0.593679
0.939906 0.796600 0.698822
0.942711 0.875525 0.816607
0.940101 0.904560 0.888053
0.768617 0.898650 0.492737
0.768673 0.898661 0.493120
0.768886 0.898701 0.494575
0.780808 0.901517 0.509159
0.817222 0.910307 0.553479
0.914359 0.912519 0.589585
0.937876 0.891377 0.701190
0.942875 0.887336 0.821031
0.940336 0.907360 0.889379
0.892371 0.930513 0.691257
0.892375 0.930514 0.691280
0.892391 0.930518 0.691364
0.892450 0.930532 0.691685
0.895964 0.931409 0.701439
0.906192 0.934436 0.732736
0.934361 0.935947 0.753507
0.941069 0.930641 0.819242
0.940172 0.926994 0.892312
0.926449 0.941126 0.810455
0.926449 0.941126 0.810458
0.926450 0.941127 0.810471
0.926456 0.941128 0.810520
0.926477 0.941135 0.810708
0.927651 0.941562 0.816324
0.931024 0.942916 0.833020
0.939919 0.943448 0.842450
0.939223 0.942756 0.889688
0.927401 0.941066 0.886448
0.927401 0.941066 0.886450
0.927401 0.941066 0.886456
0.927400 0.941066 0.886480
0.927399 0.941066 0.886573
0.927396 0.941065 0.886924
0.929959 0.942166 0.890195
0.939171 0.942705 0.893046
0.939082 0.942617 0.898707
0.042140 0.442066 0.755833
0.041935 0.449690 0.759783
0.054610 0.475629 0.772335
0.602212 0.526653 0.790169
0.844152 0.581220 0.791447
0.914782 0.653876 0.772080
0.937976 0.785613 0.769357
0.942377 0.875836 0.829437
0.940049 0.905294 0.888712
0.041538 0.451559 0.760441
0.041211 0.459081 0.764192
0.050161 0.484155 0.775952
0.602472 0.533247 0.793022
0.845327 0.584731 0.793094
0.915023 0.655532 0.772869
0.937974 0.785638 0.769472
0.942376 0.875841 0.829464
0.940049 0.905296 0.888714
0.038826 0.487000 0.773428
0.038676 0.493168 0.776539
0.040795 0.514646 0.786251
0.599125 0.555885 0.802286
0.849579 0.597894 0.799093
0.915790 0.661323 0.775611
0.937975 0.785919 0.769934
0.942374 0.875859 0.829566
0.940048 0.905302 0.888720
0.037238 0.643025 0.789524
0.037754 0.646373 0.791675
0.039987 0.657482 0.799390
0.520911 0.678415 0.815088
0.856854 0.654665 0.812486
0.918079 0.684011 0.785348
0.938178 0.790863 0.772118
0.942367 0.875926 0.829953
0.940046 0.905327 0.888743
0.472030 0.821661 0.785422
0.474551 0.822262 0.786159
0.490026 0.826032 0.790405
0.540766 0.838512 0.802735
0.839366 0.843006 0.810815
0.919539 0.800797 0.798541
0.938837 0.808368 0.778811
0.942447 0.878136 0.831427
0.940039 0.905423 0.888828
0.787287 0.900928 0.729996
0.787291 0.900925 0.730210
0.787306 0.900914 0.731025
0.796845 0.903394 0.738039
0.824731 0.910090 0.758870
0.913065 0.912103 0.769905
0.937177 0.892282 0.780127
0.942635 0.889209 0.834740
0.940283 0.908280 0.890042
0.895061 0.931040 0.717744
0.895064 0.931041 0.717796
0.895076 0.931043 0.717996
0.895121 0.931050 0.718752
0.898566 0.931927 0.727243
0.907618 0.934784 0.750818
0.934382 0.936049 0.774327
0.940902 0.930649 0.830753
0.940150 0.927195 0.892888
0.926672 0.941200 0.812481
0.926673 0.941200 0.812484
0.926674 0.941201 0.812496
0.926679 0.941202 0.812540
0.926697 0.941208 0.812708
0.927863 0.941631 0.818481
0.931164 0.942950 0.835635
0.939868 0.943397 0.846056
0.939211 0.942744 0.890470
0.927386 0.941063 0.887400
0.927386 0.941063 0.887401
0.927386 0.941064 0.887405
0.927386 0.941063 0.887420
0.927384 0.941064 0.887477
0.927377 0.941064 0.887692
0.929916 0.942156 0.890829
0.939162 0.942696 0.893609
0.939079 0.942615 0.898857
0.044735 0.710827 0.854776
0.046533 0.712367 0.855288
0.056091 0.717963 0.857196
0.346148 0.736627 0.863343
0.804959 0.764245 0.864429
0.909721 0.797901 0.864283
0.935209 0.834748 0.856600
0.941632 0.883744 0.859929
0.939837 0.908327 0.891077
0.045247 0.712597 0.855267
0.047041 0.714133 0.855777
0.056240 0.719675 0.857591
0.339750 0.738214 0.863737
0.804906 0.765325 0.864699
0.909794 0.798366 0.864434
0.935224 0.834948 0.856678
0.941631 0.883748 0.859940
0.939836 0.908328 0.891078
0.047057 0.718821 0.856890
0.048826 0.720342 0.857336
0.056785 0.725692 0.858980
0.318540 0.743962 0.865117
0.804668 0.769134 0.865653
0.910126 0.800239 0.865025
0.935276 0.835624 0.856949
0.941630 0.883764 0.859983
0.939836 0.908334 0.891082
0.070221 0.744436 0.862114
0.072618 0.745662 0.862488
0.082610 0.749851 0.863907
0.244324 0.763391 0.869379
0.802845 0.782409 0.868760
0.911201 0.807086 0.867193
0.935486 0.838235 0.857956
0.941640 0.884033 0.860204
0.939834 0.908356 0.891099
0.494801 0.831779 0.866252
0.496281 0.832210 0.866439
0.501387 0.833814 0.867167
0.519883 0.839387 0.869762
0.776881 0.845094 0.872359
0.913268 0.836709 0.872061
0.936203 0.847618 0.861496
0.941742 0.886464 0.861353
0.939829 0.908440 0.891160
0.800890 0.902829 0.857121
0.801285 0.902949 0.857235
0.802675 0.903403 0.857675
0.807686 0.904759 0.859318
0.823768 0.908849 0.864922
0.907664 0.911033 0.869575
0.935705 0.896905 0.865886
0.941957 0.895768 0.864730
0.940097 0.911494 0.892358
0.898795 0.931115 0.833862
0.898795 0.931114 0.833885
0.898793 0.931113 0.833975
0.898836 0.931123 0.834347
0.901450 0.931984 0.837567
0.908314 0.934322 0.846800
0.933527 0.935445 0.853028
0.940385 0.930697 0.864731
0.940071 0.927926 0.894911
0.927332 0.941332 0.829981
0.927333 0.941332 0.829987
0.927334 0.941332 0.830008
0.927337 0.941333 0.830090
0.927351 0.941336 0.830401
0.928440 0.941780 0.833798
0.931540 0.943047 0.844432
0.939717 0.943246 0.856735
0.939174 0.942707 0.892867
0.927315 0.941066 0.889732
0.927315 0.941066 0.889733
0.927315 0.941066 0.889736
0.927314 0.941066 0.889750
0.927313 0.941066 0.889801
0.927307 0.941066 0.889994
0.929774 0.942126 0.892778
0.939134 0.942669 0.895411
0.939072 0.942607 0.899322
0.489574 0.862210 0.892188
0.490839 0.862384 0.892215
0.496358 0.863021 0.892304
0.521050 0.865264 0.892569
0.688631 0.870613 0.892087
0.892906 0.881057 0.890580
0.932085 0.894744 0.890662
0.940203 0.906372 0.889066
0.939201 0.916974 0.896278
0.490292 0.862424 0.892223
0.491558 0.862598 0.892249
0.496890 0.863231 0.892340
0.521153 0.865472 0.892608
0.687910 0.870798 0.892137
0.892905 0.881164 0.890609
0.932092 0.894794 0.890675
0.940204 0.906391 0.889074
0.939201 0.916975 0.896279
0.492964 0.863221 0.892353
0.494234 0.863395 0.892379
0.498872 0.864015 0.892473
0.521753 0.866247 0.892750
0.685393 0.871493 0.892324
0.892900 0.881562 0.890720
0.932122 0.894987 0.890725
0.940211 0.906463 0.889105
0.939201 0.916979 0.896281
0.502340 0.866024 0.892809
0.503618 0.866200 0.892835
0.507983 0.866820 0.892929
0.528687 0.868773 0.893231
0.678389 0.874004 0.892856
0.892874 0.882961 0.891110
0.932250 0.895764 0.890923
0.940239 0.906772 0.889253
0.939200 0.916993 0.896287
0.559139 0.876293 0.893909
0.559758 0.876420 0.893930
0.561811 0.876899 0.894014
0.571185 0.878299 0.894298
0.652809 0.882337 0.894571
0.892368 0.888032 0.892300
0.932660 0.898538 0.891633
0.940342 0.907898 0.889671
0.939241 0.917360 0.896404
0.790179 0.907636 0.891244
0.790306 0.907670 0.891265
0.790732 0.907798 0.891347
0.792445 0.908283 0.891655
0.798686 0.909986 0.892732
0.885757 0.911821 0.893240
0.933354 0.908918 0.893447
0.940669 0.912086 0.891002
0.939562 0.920251 0.897275
0.900063 0.931884 0.887048
0.900088 0.931892 0.887062
0.900182 0.931925 0.887115
0.900534 0.932048 0.887311
0.901840 0.932503 0.888048
0.906064 0.933994 0.890179
0.931622 0.934953 0.892375
0.939893 0.931455 0.892341
0.939909 0.929462 0.898832
0.927457 0.941086 0.881336
0.927457 0.941086 0.881338
0.927457 0.941086 0.881347
0.927457 0.941086 0.881380
0.927481 0.941098 0.881537
0.928345 0.941522 0.882911
0.931001 0.942591 0.886851
0.939214 0.942746 0.890290
0.939093 0.942628 0.898022
0.927056 0.941083 0.895591
0.927056 0.941083 0.895591
0.927056 0.941083 0.895593
0.927055 0.941083 0.895598
0.927052 0.941083 0.895619
0.927040 0.941083 0.895699
0.929255 0.942035 0.897507
0.939080 0.942615 0.898822
0.939054 0.942589 0.900436
0.767436 0.918470 0.902518
0.767575 0.918484 0.902519
0.768091 0.918537 0.902524
0.770561 0.918727 0.902533
0.781557 0.919392 0.902504
0.852221 0.920847 0.901537
0.927014 0.924648 0.900613
0.938929 0.927801 0.900466
0.938782 0.927187 0.900288
0.767523 0.918488 0.902520
0.767661 0.918503 0.902521
0.768177 0.918555 0.902527
0.770627 0.918745 0.902536
0.781573 0.919411 0.902507
0.852142 0.920866 0.901542
0.927014 0.924657 0.900615
0.938930 0.927806 0.900468
0.938783 0.927193 0.900290
0.767849 0.918557 0.902530
0.767988 0.918572 0.902532
0.768504 0.918624 0.902537
0.770875 0.918814 0.902547
0.781637 0.919480 0.902517
0.851843 0.920937 0.901559
0.927015 0.924693 0.900623
0.938935 0.927827 0.900474
0.938788 0.927215 0.900296
0.769066 0.918814 0.902567
0.769205 0.918828 0.902569
0.769723 0.918881 0.902574
0.771798 0.919069 0.902588
0.781872 0.919740 0.902556
0.850812 0.921203 0.901623
0.927019 0.924827 0.900655
0.938953 0.927905 0.900496
0.938808 0.927297 0.900320
0.773335 0.919718 0.902665
0.773476 0.919733 0.902665
0.774000 0.919786 0.902667
0.775842 0.919975 0.902673
0.784992 0.920643 0.902654
0.848068 0.922158 0.901831
0.927029 0.925296 0.900765
0.939016 0.928176 0.900575
0.938875 0.927573 0.900400
0.800183 0.923436 0.902610
0.800241 0.923449 0.902612
0.800458 0.923499 0.902618
0.801218 0.923652 0.902642
0.804799 0.924169 0.902715
0.838634 0.925490 0.902510
0.926977 0.926976 0.901129
0.939233 0.929155 0.900851
0.939114 0.928604 0.900698
0.894666 0.933753 0.900723
0.894679 0.933757 0.900725
0.894727 0.933770 0.900730
0.894907 0.933824 0.900753
0.895627 0.934026 0.900838
0.898152 0.934723 0.901139
0.925539 0.935372 0.901293
0.939507 0.934668 0.900966
0.939518 0.933686 0.901033
0.926498 0.941106 0.899028
0.926501 0.941108 0.899030
0.926515 0.941113 0.899035
0.926566 0.941134 0.899055
0.926765 0.941215 0.899133
0.927396 0.941488 0.899401
0.929302 0.942229 0.900149
0.939054 0.942589 0.900436
0.939054 0.942589 0.900436
0.926460 0.941091 0.899014
0.926460 0.941091 0.899014
0.926460 0.941091 0.899014
0.926460 0.941091 0.899014
0.926460 0.941091 0.899014
0.926551 0.941128 0.899049
0.928705 0.942008 0.899925
0.939054 0.942589 0.900436
0.939054 0.942589 0.900436
0.901573 0.935383 0.901102
0.901581 0.935386 0.901103
0.901608 0.935394 0.901108
0.901709 0.935426 0.901126
0.902309 0.935546 0.901196
0.906135 0.935917 0.901394
0.931174 0.935961 0.901103
0.939504 0.935197 0.900930
0.939509 0.934337 0.900988
0.901610 0.935390 0.901101
0.901617 0.935392 0.901102
0.901644 0.935401 0.901107
0.901745 0.935433 0.901125
0.902344 0.935552 0.901195
0.906148 0.935924 0.901393
0.931173 0.935969 0.901102
0.939504 0.935204 0.900929
0.939509 0.934344 0.900988
0.901748 0.935414 0.901096
0.901755 0.935416 0.901098
0.901782 0.935425 0.901102
0.901883 0.935457 0.901121
0.902474 0.935576 0.901191
0.906199 0.935951 0.901390
0.931170 0.935998 0.901100
0.939503 0.935231 0.900928
0.939509 0.934373 0.900986
0.902269 0.935505 0.901080
0.902276 0.935507 0.901081
0.902304 0.935516 0.901086
0.902405 0.935548 0.901105
0.902969 0.935668 0.901174
0.906390 0.936050 0.901381
0.931159 0.936106 0.901093
0.939503 0.935332 0.900921
0.939508 0.934483 0.900978
0.904213 0.935844 0.901020
0.904220 0.935847 0.901021
0.904247 0.935855 0.901026
0.904349 0.935888 0.901044
0.904810 0.936007 0.901113
0.907103 0.936422 0.901348
0.931110 0.936511 0.901067
0.939484 0.935708 0.900895
0.939506 0.934890 0.900951
0.909538 0.936978 0.900767
0.909544 0.936981 0.900769
0.909568 0.936990 0.900774
0.909656 0.937023 0.900793
0.909979 0.937143 0.900860
0.911648 0.937574 0.901103
0.930829 0.937748 0.900990
0.939395 0.937150 0.900799
0.939444 0.936353 0.900852
0.921682 0.939771 0.900090
0.921687 0.939772 0.900091
0.921708 0.939778 0.900096
0.921783 0.939798 0.900113
0.922045 0.939868 0.900173
0.922995 0.940137 0.900405
0.930045 0.940675 0.900811
0.939187 0.940498 0.900576
0.939209 0.940159 0.900599
0.927432 0.941502 0.899416
0.927435 0.941503 0.899417
0.927444 0.941507 0.899420
0.927489 0.941524 0.899438
0.927642 0.941585 0.899499
0.928170 0.941795 0.899709
0.930018 0.942454 0.900378
0.939054 0.942589 0.900436
0.939054 0.942589 0.900436
0.926608 0.941151 0.899071
0.926611 0.941152 0.899073
0.926624 0.941158 0.899078
0.926677 0.941179 0.899099
0.926874 0.941259 0.899176
0.927475 0.941519 0.899432
0.929383 0.942255 0.900175
0.939054 0.942589 0.900436
0.939054 0.942589 0.900436
