Assets/Data/Textures/70 CGC LUTs/LUTs_AgX_Filmic_ViewTransforms/ARRILogC4AWG4-to-JP2499DRT-ClassicReversal-sRGB.cube
#  Baked from the PixelManager OCIO config by Joe Genco
#  https://github.com/Joegenco/PixelManager
#  Input Gamma: Arri LogC4
#  Input Color Space: Arri Wide Gamut 4
#  floating point data (range 0.0 - 1.0)   
#       
#  Output Gamma: Gamma 2.2 (Display)
#  Output Color Space: Rec.709
#  floating point data (range 0.0 - 1.0)
LUT_3D_SIZE 5
0.047975 0.028704 0.019625
0.202406 0.023008 0.016084
0.725202 0.147423 0.060924
0.949676 0.734039 0.651097
0.973746 0.899599 0.904398
0.029639 0.184504 0.004157
0.264371 0.268093 0.003293
0.745772 0.181002 0.064490
0.949673 0.734197 0.652710
0.973745 0.899611 0.904403
0.216117 0.761772 0.034095
0.239233 0.770222 0.039430
0.769706 0.814792 0.057310
0.955163 0.764264 0.665725
0.973736 0.899776 0.904469
0.850468 0.934579 0.697185
0.850515 0.934589 0.697336
0.857781 0.935961 0.710082
0.953424 0.942626 0.773098
0.977420 0.929664 0.905895
0.936595 0.950893 0.902388
0.936595 0.950893 0.902393
0.936596 0.950893 0.902467
0.945100 0.952464 0.904450
0.975995 0.952846 0.908517
0.042564 0.038052 0.137535
0.256299 0.039083 0.243541
0.744252 0.180599 0.177067
0.949679 0.735536 0.665009
0.973740 0.899700 0.904439
0.009585 0.258510 0.272909
0.269967 0.312462 0.358939
0.765135 0.219338 0.196661
0.949675 0.735686 0.666538
0.973739 0.899712 0.904444
0.249111 0.775400 0.054309
0.270310 0.783660 0.063139
0.777415 0.821935 0.117764
0.955203 0.765381 0.678905
0.973730 0.899876 0.904510
0.851067 0.934704 0.698972
0.851112 0.934713 0.699117
0.858343 0.936062 0.711691
0.953510 0.942674 0.773585
0.977418 0.929682 0.905925
0.936595 0.950893 0.902446
0.936595 0.950893 0.902451
0.936597 0.950894 0.902525
0.945090 0.952463 0.904484
0.975995 0.952846 0.908525
0.052887 0.372833 0.773154
0.061183 0.409470 0.791819
0.764225 0.528722 0.817801
0.949285 0.756152 0.793720
0.973660 0.901129 0.905014
0.049662 0.422381 0.793840
0.051283 0.452617 0.809224
0.771637 0.547224 0.825733
0.949335 0.756482 0.794315
0.973659 0.901140 0.905018
0.335538 0.799547 0.810780
0.353591 0.804703 0.816003
0.759756 0.825354 0.840232
0.954721 0.783172 0.803261
0.973651 0.901296 0.905081
0.858260 0.935851 0.735304
0.858292 0.935855 0.735574
0.865272 0.937183 0.745372
0.954420 0.943079 0.797082
0.977389 0.930074 0.906310
0.936591 0.950903 0.903212
0.936591 0.950903 0.903215
0.936586 0.950904 0.903257
0.944961 0.952454 0.904954
0.975994 0.952844 0.908639
0.344054 0.847767 0.913217
0.351503 0.848703 0.913280
0.562740 0.858284 0.912840
0.946739 0.887500 0.907248
0.972657 0.916517 0.908794
0.347730 0.848910 0.913305
0.354207 0.849824 0.913371
0.558824 0.859276 0.912987
0.946864 0.887797 0.907272
0.972657 0.916524 0.908795
0.418665 0.864113 0.914037
0.421547 0.864823 0.914084
0.521068 0.873105 0.914077
0.948687 0.892158 0.907623
0.972846 0.917038 0.908832
0.870126 0.938115 0.904700
0.870401 0.938180 0.904734
0.874232 0.939089 0.905216
0.949326 0.942490 0.906134
0.977136 0.933567 0.909382
0.935864 0.951047 0.907809
0.935863 0.951048 0.907810
0.935853 0.951048 0.907824
0.943383 0.952388 0.908584
0.975980 0.952831 0.909516
0.874107 0.943890 0.912325
0.874186 0.943908 0.912326
0.875794 0.944148 0.912336
0.948378 0.943928 0.910892
0.976456 0.941266 0.910291
0.874505 0.943939 0.912313
0.874584 0.943957 0.912314
0.876172 0.944184 0.912325
0.948371 0.943975 0.910889
0.976459 0.941327 0.910287
0.880149 0.944497 0.912152
0.880229 0.944511 0.912153
0.881523 0.944698 0.912171
0.948241 0.944644 0.910847
0.976516 0.942100 0.910233
0.921343 0.949375 0.910684
0.921406 0.949384 0.910686
0.922248 0.949507 0.910707
0.945546 0.950412 0.910530
0.976194 0.949234 0.909761
0.934702 0.951208 0.909760
0.934752 0.951217 0.909762
0.935492 0.951356 0.909799
0.943847 0.952752 0.910111
0.975980 0.952831 0.909516
