Assets/Data/Textures/70 CGC LUTs/LUTs_AgX_Filmic_ViewTransforms/ARRILogC4AWG4-to-JP2499DRT-PrintV1-sRGB.cube
#  Baked from the PixelManager OCIO config by Joe Genco
#  https://github.com/Joegenco/PixelManager
#  Input Gamma: Arri LogC4
#  Input Color Space: Arri Wide Gamut 4
#  floating point data (range 0.0 - 1.0)   
#       
#  Output Gamma: Gamma 2.2 (Display)
#  Output Color Space: Rec.709
#  floating point data (range 0.0 - 1.0)
LUT_3D_SIZE 33
0.053154 0.077342 0.101401
0.053154 0.077342 0.101401
0.053154 0.077342 0.101401
0.053753 0.077354 0.101399
0.083673 0.077885 0.101116
0.125101 0.077797 0.100183
0.181164 0.075628 0.097692
0.252154 0.069242 0.090513
0.335134 0.061816 0.077326
0.423986 0.057886 0.065123
0.518498 0.059017 0.059756
0.610559 0.065923 0.061716
0.689049 0.076766 0.067911
0.754029 0.094478 0.074550
0.806732 0.122066 0.080984
0.849271 0.173352 0.094499
0.881724 0.252149 0.113542
0.906209 0.343524 0.146361
0.924495 0.438828 0.205110
0.935028 0.532840 0.285785
0.942175 0.619036 0.373288
0.945746 0.693213 0.461324
0.947762 0.752579 0.543845
0.948999 0.798128 0.613914
0.949824 0.831281 0.668391
0.950423 0.854341 0.708337
0.950499 0.871430 0.737102
0.950658 0.881751 0.755882
0.950598 0.885536 0.771440
0.950379 0.887962 0.783122
0.950209 0.890556 0.788150
0.950037 0.893540 0.790174
0.949884 0.896300 0.790958
0.053154 0.077342 0.101401
0.053154 0.077342 0.101401
0.053154 0.077342 0.101401
0.053520 0.077350 0.101400
0.083366 0.077885 0.101121
0.124856 0.077801 0.100190
0.180933 0.075643 0.097704
0.251947 0.069259 0.090538
0.334968 0.061818 0.077354
0.423862 0.057893 0.065138
0.519193 0.059083 0.059849
0.610983 0.065989 0.061890
0.689301 0.076819 0.068064
0.754171 0.094554 0.074694
0.806817 0.122160 0.081215
0.849342 0.173512 0.094718
0.881774 0.252288 0.113879
0.906240 0.343629 0.146859
0.924503 0.438899 0.205582
0.935029 0.532887 0.286154
0.942174 0.619065 0.373543
0.945745 0.693230 0.461495
0.947762 0.752588 0.543956
0.948998 0.798133 0.613974
0.949824 0.831284 0.668425
0.950423 0.854342 0.708354
0.950499 0.871431 0.737110
0.950658 0.881751 0.755887
0.950598 0.885536 0.771441
0.950379 0.887962 0.783123
0.950209 0.890556 0.788150
0.950037 0.893540 0.790174
0.949884 0.896300 0.790958
0.053154 0.077342 0.101401
0.053154 0.077342 0.101401
0.053154 0.077342 0.101401
0.053154 0.077342 0.101401
0.082933 0.077884 0.101127
0.124513 0.077807 0.100199
0.180610 0.075664 0.097719
0.251657 0.069283 0.090573
0.334735 0.061821 0.077396
0.423688 0.057904 0.065159
0.520046 0.059165 0.059964
0.611554 0.066093 0.062122
0.689655 0.076899 0.068320
0.754367 0.094660 0.074892
0.806934 0.122291 0.081535
0.849441 0.173734 0.095023
0.881846 0.252482 0.114373
0.906283 0.343774 0.147553
0.924513 0.439000 0.206241
0.935031 0.532951 0.286670
0.942174 0.619106 0.373900
0.945744 0.693252 0.461733
0.947761 0.752601 0.544112
0.948998 0.798139 0.614054
0.949824 0.831288 0.668472
0.950422 0.854344 0.708379
0.950498 0.871432 0.737122
0.950658 0.881751 0.755893
0.950598 0.885537 0.771443
0.950379 0.887962 0.783124
0.950209 0.890556 0.788150
0.950037 0.893540 0.790174
0.949884 0.896300 0.790958
0.053154 0.077342 0.101401
0.053154 0.077342 0.101401
0.053154 0.077342 0.101401
0.053154 0.077342 0.101401
0.082320 0.077883 0.101136
0.124030 0.077815 0.100213
0.180158 0.075693 0.097741
0.251251 0.069317 0.090623
0.334416 0.061825 0.077453
0.423445 0.057919 0.065188
0.521185 0.059275 0.060130
0.612309 0.066232 0.062432
0.690140 0.077011 0.068685
0.754636 0.094805 0.075165
0.807097 0.122472 0.081978
0.849581 0.174041 0.095461
0.881953 0.252753 0.115122
0.906344 0.343976 0.148518
0.924527 0.439140 0.207159
0.935033 0.533042 0.287389
0.942173 0.619162 0.374397
0.945743 0.693283 0.462064
0.947759 0.752618 0.544330
0.948997 0.798148 0.614164
0.949823 0.831293 0.668537
0.950422 0.854346 0.708413
0.950498 0.871433 0.737138
0.950657 0.881752 0.755902
0.950598 0.885537 0.771447
0.950379 0.887963 0.783125
0.950209 0.890556 0.788151
0.950037 0.893541 0.790174
0.949884 0.896300 0.790958
0.052477 0.095421 0.101445
0.052485 0.095353 0.101445
0.052496 0.095258 0.101444
0.052511 0.095124 0.101444
0.097565 0.103693 0.100742
0.169125 0.093791 0.097929
0.237128 0.080656 0.091953
0.305743 0.067888 0.082002
0.377680 0.059682 0.070079
0.453240 0.058140 0.061367
0.542039 0.060527 0.060062
0.623675 0.068180 0.062798
0.695247 0.078010 0.069210
0.756249 0.095540 0.075538
0.807321 0.122720 0.082588
0.849785 0.174468 0.096149
0.882100 0.253129 0.116162
0.906427 0.344258 0.149859
0.924547 0.439334 0.208437
0.935036 0.533167 0.288390
0.942172 0.619241 0.375091
0.945740 0.693326 0.462527
0.947757 0.752642 0.544634
0.948995 0.798161 0.614318
0.949822 0.831301 0.668628
0.950421 0.854350 0.708460
0.950498 0.871435 0.737162
0.950657 0.881752 0.755914
0.950598 0.885538 0.771451
0.950379 0.887963 0.783127
0.950209 0.890557 0.788151
0.950037 0.893541 0.790174
0.949884 0.896300 0.790958
0.050539 0.122641 0.100784
0.050544 0.122566 0.100787
0.050550 0.122461 0.100791
0.050559 0.122314 0.100797
0.051972 0.152009 0.098978
0.158273 0.146414 0.096203
0.259703 0.130373 0.087371
0.348627 0.106021 0.074104
0.428455 0.078124 0.063629
0.503119 0.065753 0.059068
0.579334 0.066464 0.059486
0.648777 0.073356 0.062900
0.711245 0.081566 0.069411
0.765749 0.099591 0.075641
0.812443 0.128279 0.082674
0.852136 0.179233 0.096699
0.882690 0.254963 0.117397
0.906543 0.344648 0.151720
0.924575 0.439604 0.210214
0.935040 0.533342 0.289785
0.942170 0.619351 0.376059
0.945737 0.693386 0.463173
0.947754 0.752675 0.545058
0.948993 0.798179 0.614534
0.949821 0.831311 0.668754
0.950420 0.854355 0.708526
0.950497 0.871438 0.737194
0.950657 0.881753 0.755931
0.950598 0.885538 0.771457
0.950379 0.887964 0.783130
0.950209 0.890558 0.788152
0.950037 0.893541 0.790175
0.949884 0.896301 0.790959
0.042427 0.161410 0.098234
0.042439 0.161338 0.098240
0.042457 0.161237 0.098249
0.042482 0.161096 0.098260
0.039357 0.191608 0.094549
0.098631 0.215617 0.089402
0.236534 0.206232 0.080319
0.355733 0.185148 0.065367
0.454015 0.153154 0.057235
0.542509 0.114065 0.057418
0.616342 0.087708 0.059652
0.677355 0.082998 0.063797
0.730744 0.091226 0.069510
0.778191 0.107360 0.075567
0.820088 0.137996 0.083239
0.856369 0.189372 0.096849
0.885313 0.263802 0.118088
0.907518 0.350000 0.153094
0.924711 0.440946 0.212420
0.935046 0.533586 0.291724
0.942168 0.619505 0.377406
0.945732 0.693471 0.464073
0.947750 0.752722 0.545649
0.948990 0.798203 0.614835
0.949819 0.831326 0.668930
0.950419 0.854362 0.708619
0.950497 0.871442 0.737239
0.950657 0.881754 0.755956
0.950598 0.885539 0.771466
0.950379 0.887965 0.783133
0.950208 0.890559 0.788153
0.950037 0.893542 0.790175
0.949884 0.896301 0.790959
0.031470 0.213506 0.090683
0.031498 0.213433 0.090696
0.031538 0.213331 0.090716
0.031593 0.213189 0.090742
0.023681 0.240140 0.084988
0.029373 0.281467 0.069849
0.168746 0.295698 0.058787
0.326995 0.282603 0.040587
0.458092 0.259160 0.044411
0.563126 0.225385 0.050544
0.643312 0.180172 0.056932
0.704864 0.135537 0.063309
0.752799 0.116458 0.069583
0.793257 0.125616 0.075267
0.829797 0.154636 0.083705
0.861821 0.206182 0.096672
0.888545 0.276890 0.118800
0.909076 0.359678 0.154360
0.925424 0.448037 0.214001
0.935272 0.536501 0.293611
0.942165 0.619718 0.379278
0.945726 0.693588 0.465325
0.947744 0.752787 0.546474
0.948986 0.798238 0.615254
0.949816 0.831346 0.669176
0.950418 0.854372 0.708748
0.950496 0.871448 0.737303
0.950656 0.881756 0.755989
0.950597 0.885541 0.771478
0.950379 0.887966 0.783138
0.950208 0.890560 0.788154
0.950037 0.893543 0.790176
0.949884 0.896302 0.790959
0.022168 0.280872 0.070153
0.022169 0.280812 0.070175
0.022169 0.280728 0.070207
0.022170 0.280612 0.070251
0.019134 0.302107 0.062650
0.021444 0.339261 0.048649
0.034863 0.381729 0.040338
0.254643 0.391182 0.030889
0.432676 0.380310 0.022434
0.562872 0.355983 0.035909
0.654804 0.318304 0.047605
0.721496 0.270348 0.056969
0.771618 0.214543 0.066003
0.810012 0.178757 0.074143
0.840578 0.187907 0.083219
0.868182 0.231262 0.096255
0.892282 0.296028 0.119303
0.911100 0.373570 0.155391
0.926373 0.457923 0.215751
0.935792 0.543116 0.295331
0.942405 0.623411 0.380962
0.945725 0.693930 0.467028
0.947736 0.752878 0.547622
0.948980 0.798286 0.615839
0.949812 0.831374 0.669518
0.950415 0.854386 0.708928
0.950494 0.871455 0.737391
0.950656 0.881759 0.756036
0.950597 0.885543 0.771495
0.950378 0.887968 0.783145
0.950208 0.890562 0.788156
0.950037 0.893544 0.790176
0.949884 0.896302 0.790959
0.019243 0.363319 0.042359
0.019175 0.363957 0.042306
0.019084 0.364771 0.042230
0.018954 0.365987 0.042128
0.018587 0.381727 0.040665
0.019049 0.414928 0.031805
0.020047 0.456752 0.030681
0.057976 0.497907 0.025423
0.356344 0.497940 0.017366
0.534067 0.484671 0.014865
0.650047 0.459879 0.029866
0.727130 0.422502 0.041977
0.781067 0.372239 0.054234
0.821000 0.312885 0.066289
0.851699 0.271622 0.079225
0.875216 0.280851 0.092893
0.896317 0.327194 0.117005
0.913758 0.394310 0.155665
0.927583 0.471741 0.217289
0.936477 0.552312 0.297384
0.942794 0.629426 0.382992
0.945853 0.697338 0.468703
0.947746 0.753497 0.549080
0.948972 0.798353 0.616653
0.949807 0.831414 0.669995
0.950412 0.854405 0.709179
0.950493 0.871466 0.737514
0.950655 0.881762 0.756101
0.950597 0.885546 0.771518
0.950378 0.887971 0.783155
0.950208 0.890565 0.788158
0.950037 0.893546 0.790177
0.949884 0.896304 0.790959
0.019917 0.463490 0.029561
0.019952 0.463891 0.029493
0.019998 0.464428 0.029403
0.020067 0.465336 0.029242
0.020814 0.474430 0.027627
0.022939 0.499522 0.026037
0.024768 0.531148 0.025545
0.026425 0.567237 0.024300
0.144673 0.599584 0.023278
0.459544 0.595665 0.015234
0.622718 0.582764 0.013474
0.720101 0.559833 0.024747
0.782307 0.525313 0.035912
0.824758 0.477512 0.047955
0.856885 0.418612 0.065467
0.881384 0.376816 0.083628
0.900561 0.382185 0.111299
0.916848 0.426785 0.154046
0.929160 0.492524 0.218076
0.937409 0.565700 0.299681
0.943209 0.637412 0.385648
0.946023 0.702100 0.470886
0.947831 0.756165 0.550533
0.948985 0.799003 0.617664
0.949800 0.831469 0.670660
0.950408 0.854431 0.709528
0.950490 0.871481 0.737685
0.950654 0.881766 0.756192
0.950596 0.885550 0.771551
0.950378 0.887974 0.783168
0.950208 0.890569 0.788162
0.950037 0.893549 0.790179
0.949884 0.896305 0.790959
0.026081 0.561100 0.024193
0.026095 0.561362 0.024184
0.026113 0.561723 0.024183
0.026138 0.562215 0.024201
0.026278 0.565321 0.024297
0.028277 0.582744 0.024508
0.032413 0.604983 0.024289
0.038473 0.631014 0.025353
0.054566 0.660989 0.026574
0.265816 0.683798 0.025765
0.556091 0.679006 0.016374
0.696060 0.666835 0.013617
0.775183 0.647498 0.022296
0.823704 0.618580 0.032016
0.856824 0.576096 0.044065
0.883138 0.522460 0.062844
0.903046 0.481913 0.095016
0.919872 0.483928 0.145435
0.930981 0.525284 0.216767
0.938527 0.585040 0.302150
0.943636 0.649026 0.388952
0.946245 0.708805 0.473725
0.947948 0.759926 0.552291
0.949048 0.800998 0.618762
0.949812 0.832116 0.671450
0.950402 0.854468 0.710016
0.950486 0.871503 0.737925
0.950652 0.881773 0.756320
0.950596 0.885556 0.771597
0.950378 0.887979 0.783187
0.950208 0.890574 0.788167
0.950037 0.893552 0.790181
0.949884 0.896307 0.790960
0.041606 0.648358 0.025953
0.041634 0.648553 0.025969
0.041672 0.648822 0.025992
0.041730 0.649196 0.026027
0.041819 0.649711 0.026079
0.043485 0.659503 0.026793
0.052160 0.674248 0.027776
0.063903 0.691583 0.029118
0.076270 0.711985 0.029859
0.141529 0.736169 0.030709
0.384256 0.748901 0.027754
0.640839 0.743526 0.017664
0.755389 0.734156 0.014747
0.817193 0.718898 0.021795
0.854769 0.696016 0.029762
0.880986 0.662269 0.042227
0.901917 0.617338 0.068305
0.919848 0.581109 0.123472
0.932130 0.580558 0.207406
0.939726 0.615246 0.302480
0.944127 0.666103 0.392250
0.946517 0.718479 0.477171
0.948102 0.765283 0.554553
0.949131 0.803786 0.620196
0.949855 0.833786 0.672358
0.950405 0.854968 0.710582
0.950482 0.871532 0.738258
0.950650 0.881782 0.756497
0.950595 0.885563 0.771661
0.950377 0.887986 0.783213
0.950207 0.890582 0.788175
0.950036 0.893557 0.790184
0.949884 0.896310 0.790961
0.083061 0.721416 0.030501
0.083231 0.721521 0.030511
0.083467 0.721667 0.030524
0.083794 0.721869 0.030542
0.084244 0.722148 0.030568
0.090131 0.725950 0.030758
0.103788 0.734821 0.031189
0.122376 0.745479 0.031976
0.146613 0.758402 0.034056
0.183474 0.774401 0.037951
0.280063 0.790577 0.041968
0.498600 0.797781 0.037402
0.712950 0.792360 0.024064
0.803169 0.785048 0.020837
0.849888 0.774244 0.025507
0.879218 0.757164 0.034310
0.899373 0.732772 0.047405
0.917308 0.697878 0.092742
0.931619 0.668497 0.185499
0.940165 0.664747 0.297170
0.944420 0.691892 0.394038
0.946736 0.732820 0.480578
0.948264 0.772943 0.557252
0.949226 0.807825 0.622075
0.949879 0.836084 0.673491
0.950418 0.856110 0.711240
0.950478 0.871949 0.738632
0.950647 0.881794 0.756744
0.950594 0.885574 0.771751
0.950376 0.887996 0.783250
0.950207 0.890593 0.788184
0.950036 0.893564 0.790188
0.949883 0.896314 0.790962
0.194440 0.778655 0.039301
0.194592 0.778711 0.039323
0.194803 0.778788 0.039354
0.195097 0.778896 0.039397
0.195503 0.779044 0.039457
0.196851 0.779557 0.039628
0.210225 0.784494 0.041165
0.228611 0.790535 0.043266
0.253325 0.798472 0.046062
0.284169 0.807691 0.048508
0.323633 0.819026 0.052801
0.413679 0.829482 0.064120
0.603368 0.833375 0.058088
0.772675 0.828336 0.039823
0.841480 0.822767 0.034637
0.876333 0.814937 0.036794
0.898872 0.804309 0.051023
0.915031 0.787506 0.073829
0.929522 0.762362 0.160113
0.939428 0.738342 0.284098
0.944106 0.733365 0.392502
0.946805 0.752649 0.483140
0.948327 0.783581 0.560099
0.949267 0.813551 0.624303
0.949914 0.838985 0.675056
0.950417 0.857691 0.712071
0.950486 0.872615 0.739084
0.950651 0.882001 0.757022
0.950592 0.885590 0.771875
0.950375 0.888010 0.783301
0.950206 0.890607 0.788199
0.950035 0.893574 0.790193
0.949883 0.896320 0.790963
0.328933 0.820347 0.054562
0.329040 0.820371 0.054600
0.329189 0.820405 0.054653
0.329397 0.820453 0.054726
0.329685 0.820518 0.054828
0.330084 0.820609 0.054969
0.335978 0.822129 0.056931
0.348896 0.825475 0.061133
0.366068 0.829903 0.066866
0.389641 0.835895 0.074451
0.419712 0.843554 0.083501
0.457326 0.851025 0.092246
0.539190 0.857718 0.112204
0.693666 0.859354 0.109306
0.820783 0.855380 0.084614
0.872435 0.851367 0.074565
0.897935 0.846020 0.071384
0.915356 0.840422 0.106695
0.928390 0.828486 0.162704
0.937651 0.809677 0.277283
0.942987 0.790018 0.387547
0.946424 0.785071 0.482821
0.948318 0.798889 0.562493
0.949344 0.820674 0.626729
0.949981 0.842402 0.676849
0.950424 0.859587 0.713210
0.950503 0.873391 0.739663
0.950662 0.882416 0.757358
0.950600 0.885842 0.772015
0.950374 0.888029 0.783372
0.950204 0.890628 0.788218
0.950035 0.893587 0.790198
0.949883 0.896328 0.790965
0.458164 0.851298 0.092710
0.458256 0.851317 0.092759
0.458385 0.851344 0.092829
0.458564 0.851382 0.092926
0.458812 0.851434 0.093061
0.459158 0.851507 0.093249
0.459637 0.851608 0.093509
0.468673 0.853250 0.097471
0.481532 0.855493 0.106779
0.498433 0.858464 0.118491
0.521063 0.862463 0.134237
0.548958 0.867540 0.154368
0.584015 0.872596 0.179729
0.650983 0.876980 0.207037
0.766561 0.877807 0.210214
0.858053 0.875304 0.189008
0.895785 0.872725 0.174226
0.915374 0.869035 0.169715
0.928066 0.864352 0.226024
0.936298 0.855521 0.298028
0.941510 0.842497 0.390117
0.945493 0.826866 0.480964
0.948009 0.822485 0.562998
0.949321 0.832335 0.628565
0.950052 0.847291 0.678680
0.950433 0.862141 0.714546
0.950526 0.874514 0.740440
0.950676 0.882994 0.757774
0.950617 0.886323 0.772181
0.950392 0.888275 0.783486
0.950203 0.890657 0.788245
0.950034 0.893606 0.790205
0.949882 0.896339 0.790968
0.582732 0.872504 0.179751
0.582793 0.872514 0.179840
0.582879 0.872528 0.179965
0.582998 0.872548 0.180138
0.583164 0.872574 0.180379
0.583395 0.872612 0.180715
0.583717 0.872664 0.181182
0.585915 0.872992 0.183159
0.594551 0.874178 0.190317
0.605596 0.875621 0.200599
0.620421 0.877570 0.214212
0.639198 0.880153 0.232988
0.663502 0.882740 0.257507
0.691714 0.885300 0.288579
0.741798 0.887481 0.315793
0.821554 0.887687 0.325322
0.884920 0.886240 0.316464
0.912244 0.884875 0.307986
0.926615 0.882750 0.307421
0.935243 0.879371 0.353440
0.940404 0.873706 0.410697
0.944385 0.863333 0.486680
0.947310 0.852542 0.562407
0.949113 0.848983 0.629189
0.950056 0.855325 0.680075
0.950422 0.865982 0.715935
0.950549 0.876117 0.741351
0.950694 0.883829 0.758336
0.950640 0.887026 0.772383
0.950424 0.888734 0.783649
0.950227 0.890982 0.788302
0.950032 0.893632 0.790215
0.949881 0.896354 0.790971
0.689902 0.885126 0.287491
0.689933 0.885130 0.287567
0.689977 0.885135 0.287673
0.690038 0.885141 0.287821
0.690123 0.885150 0.288027
0.690241 0.885163 0.288314
0.690406 0.885180 0.288713
0.690635 0.885205 0.289268
0.693405 0.885462 0.292559
0.699956 0.886047 0.299584
0.708660 0.886822 0.308982
0.720784 0.887902 0.321325
0.735543 0.889325 0.337547
0.753081 0.890648 0.358818
0.774125 0.892258 0.384997
0.808485 0.893751 0.410365
0.861662 0.893765 0.422559
0.904430 0.892831 0.419801
0.923111 0.892106 0.416031
0.933952 0.890730 0.419406
0.939662 0.888217 0.457272
0.943587 0.884381 0.505716
0.946464 0.877765 0.568229
0.948569 0.870584 0.628716
0.949925 0.867501 0.680393
0.950340 0.872288 0.716951
0.950565 0.878528 0.742305
0.950717 0.885026 0.758826
0.950648 0.887991 0.772704
0.950450 0.889396 0.783855
0.950255 0.891582 0.788393
0.950062 0.893935 0.790245
0.949880 0.896375 0.790977
0.772058 0.892095 0.383592
0.772076 0.892096 0.383631
0.772101 0.892098 0.383686
0.772137 0.892100 0.383763
0.772187 0.892104 0.383870
0.772256 0.892109 0.384019
0.772352 0.892115 0.384227
0.772475 0.892125 0.384518
0.772645 0.892138 0.384922
0.775286 0.892360 0.388412
0.780129 0.892768 0.394644
0.786552 0.893311 0.402939
0.795131 0.894064 0.414267
0.805141 0.894924 0.429234
0.817453 0.895783 0.448265
0.832039 0.896869 0.471046
0.854323 0.897906 0.494127
0.889551 0.897793 0.506960
0.917457 0.897231 0.507505
0.931514 0.896758 0.506021
0.938604 0.895996 0.511510
0.943013 0.894164 0.542957
0.945953 0.891285 0.584340
0.948047 0.886570 0.633970
0.949507 0.881768 0.680122
0.950208 0.879621 0.717329
0.950553 0.882257 0.743023
0.950736 0.886826 0.759284
0.950669 0.889061 0.773177
0.950481 0.890310 0.784113
0.950290 0.892426 0.788503
0.950110 0.894478 0.790294
0.949919 0.896648 0.791002
0.830104 0.896736 0.469409
0.830113 0.896736 0.469434
0.830125 0.896737 0.469469
0.830143 0.896738 0.469517
0.830168 0.896740 0.469584
0.830202 0.896742 0.469679
0.830250 0.896745 0.469810
0.830317 0.896749 0.469993
0.830409 0.896756 0.470247
0.830538 0.896764 0.470601
0.832859 0.896937 0.474154
0.836496 0.897208 0.479696
0.840733 0.897586 0.487147
0.846119 0.898110 0.497289
0.852648 0.898574 0.510669
0.861022 0.899139 0.527700
0.871224 0.899855 0.547218
0.885401 0.900501 0.567231
0.908319 0.900405 0.579494
0.927359 0.900050 0.581645
0.936759 0.899759 0.581588
0.942171 0.899217 0.587660
0.945513 0.898025 0.612832
0.947693 0.895887 0.646414
0.949102 0.892624 0.683951
0.949908 0.889163 0.717137
0.950439 0.887668 0.743081
0.950733 0.889350 0.759602
0.950683 0.890699 0.773703
0.950513 0.891673 0.784375
0.950345 0.893362 0.788663
0.950171 0.895226 0.790352
0.949988 0.897123 0.791045
0.869827 0.899751 0.545562
0.869831 0.899752 0.545577
0.869837 0.899752 0.545598
0.869845 0.899753 0.545628
0.869856 0.899753 0.545669
0.869871 0.899754 0.545726
0.869893 0.899756 0.545806
0.869923 0.899758 0.545918
0.869964 0.899760 0.546074
0.870022 0.899764 0.546290
0.870103 0.899769 0.546591
0.871729 0.899899 0.549955
0.874008 0.900083 0.554689
0.876578 0.900345 0.561098
0.880018 0.900627 0.569801
0.884503 0.900904 0.581217
0.889986 0.901273 0.595927
0.896229 0.901765 0.611895
0.906240 0.902109 0.628282
0.920677 0.902056 0.639067
0.933893 0.901817 0.641700
0.940798 0.901621 0.642335
0.944848 0.901230 0.648042
0.947378 0.900453 0.667353
0.948826 0.898917 0.692278
0.949644 0.896714 0.720126
0.950256 0.894199 0.742767
0.950655 0.893255 0.759565
0.950668 0.893327 0.774112
0.950543 0.893607 0.784580
0.950407 0.894677 0.788833
0.950244 0.896288 0.790422
0.950076 0.897762 0.791068
0.895232 0.901687 0.610383
0.895234 0.901687 0.610392
0.895237 0.901688 0.610404
0.895241 0.901688 0.610421
0.895246 0.901688 0.610445
0.895253 0.901688 0.610478
0.895263 0.901689 0.610524
0.895278 0.901690 0.610589
0.895298 0.901691 0.610679
0.895325 0.901693 0.610805
0.895364 0.901695 0.610980
0.895452 0.901701 0.611304
0.896587 0.901791 0.614130
0.898124 0.901913 0.617969
0.900216 0.902063 0.623168
0.903034 0.902182 0.630216
0.905907 0.902356 0.639492
0.909137 0.902599 0.651227
0.913211 0.902931 0.663761
0.919383 0.903112 0.676978
0.929994 0.903034 0.685532
0.938590 0.902863 0.688076
0.943784 0.902723 0.688915
0.946877 0.902477 0.692724
0.948580 0.901918 0.706780
0.949481 0.900907 0.725423
0.950093 0.899441 0.744087
0.950549 0.897651 0.759326
0.950612 0.896806 0.774341
0.950491 0.896668 0.784605
0.950421 0.896879 0.788945
0.950334 0.897544 0.790500
0.950178 0.898677 0.791081
0.912571 0.902873 0.662360
0.912572 0.902873 0.662365
0.912573 0.902873 0.662373
0.912574 0.902873 0.662383
0.912577 0.902873 0.662397
0.912580 0.902873 0.662417
0.912585 0.902873 0.662445
0.912592 0.902874 0.662483
0.912601 0.902874 0.662537
0.912613 0.902875 0.662612
0.912631 0.902876 0.662717
0.912656 0.902878 0.662862
0.912747 0.902884 0.663235
0.913484 0.902945 0.665596
0.914485 0.903017 0.668806
0.915695 0.903076 0.672976
0.917230 0.903156 0.678370
0.919237 0.903260 0.685434
0.921836 0.903351 0.693605
0.924908 0.903478 0.702763
0.929286 0.903497 0.712892
0.935825 0.903418 0.720007
0.942218 0.903296 0.721736
0.946088 0.903196 0.722400
0.948249 0.903024 0.725509
0.949327 0.902673 0.735664
0.950001 0.902111 0.747505
0.950452 0.901174 0.760261
0.950402 0.900491 0.774359
0.950293 0.900221 0.784329
0.950246 0.899983 0.788829
0.950235 0.899794 0.790462
0.950219 0.899926 0.791077
0.924456 0.903458 0.701695
0.924456 0.903458 0.701698
0.924457 0.903458 0.701701
0.924457 0.903458 0.701707
0.924459 0.903458 0.701714
0.924460 0.903458 0.701724
0.924462 0.903458 0.701739
0.924465 0.903458 0.701759
0.924470 0.903458 0.701787
0.924476 0.903458 0.701826
0.924484 0.903459 0.701881
0.924496 0.903459 0.701957
0.924512 0.903459 0.702063
0.924588 0.903463 0.702388
0.925078 0.903474 0.704113
0.925745 0.903485 0.706462
0.926667 0.903501 0.709656
0.927893 0.903523 0.713970
0.929211 0.903558 0.719634
0.930826 0.903625 0.725358
0.932494 0.903693 0.732250
0.935376 0.903702 0.739218
0.940163 0.903645 0.743548
0.944991 0.903551 0.744766
0.947739 0.903482 0.745281
0.949093 0.903364 0.747436
0.949905 0.903110 0.754600
0.950409 0.902747 0.762694
0.950295 0.902422 0.773962
0.950182 0.902251 0.783871
0.950126 0.902112 0.788611
0.950112 0.901956 0.790348
0.950114 0.901776 0.791006
0.932201 0.903684 0.731495
0.932201 0.903684 0.731497
0.932201 0.903684 0.731499
0.932202 0.903684 0.731501
0.932202 0.903684 0.731505
0.932203 0.903684 0.731510
0.932204 0.903684 0.731517
0.932205 0.903684 0.731527
0.932207 0.903684 0.731541
0.932210 0.903683 0.731560
0.932214 0.903683 0.731586
0.932219 0.903683 0.731624
0.932226 0.903683 0.731676
0.932236 0.903683 0.731749
0.932290 0.903684 0.732000
0.932592 0.903689 0.733184
0.933004 0.903697 0.734798
0.933576 0.903707 0.736992
0.934334 0.903721 0.739950
0.935336 0.903746 0.743344
0.936410 0.903793 0.747038
0.937733 0.903813 0.751716
0.939877 0.903808 0.756895
0.943454 0.903764 0.759620
0.947072 0.903691 0.760546
0.948721 0.903651 0.760979
0.949743 0.903566 0.762587
0.950316 0.903390 0.767771
0.950250 0.903255 0.773733
0.950139 0.903132 0.783211
0.950078 0.903046 0.788155
0.950054 0.902973 0.790246
0.950050 0.902894 0.790936
0.937497 0.903808 0.751146
0.937498 0.903809 0.751146
0.937498 0.903808 0.751147
0.937498 0.903808 0.751149
0.937498 0.903808 0.751151
0.937499 0.903808 0.751153
0.937499 0.903808 0.751157
0.937500 0.903808 0.751162
0.937501 0.903808 0.751170
0.937503 0.903808 0.751180
0.937505 0.903808 0.751194
0.937508 0.903808 0.751214
0.937512 0.903808 0.751241
0.937518 0.903808 0.751280
0.937526 0.903808 0.751333
0.937573 0.903808 0.751531
0.937811 0.903809 0.752406
0.938138 0.903811 0.753602
