Assets/Data/Textures/70 CGC LUTs/LUTs_AgX_Filmic_ViewTransforms/ARRILogC4AWG4-to-JzDT-sRGB.cube
#  Baked from the PixelManager OCIO config by Joe Genco
#  https://github.com/Joegenco/PixelManager
#  Input Gamma: Arri LogC4
#  Input Color Space: Arri Wide Gamut 4
#  floating point data (range 0.0 - 1.0)   
#       
#  Output Gamma: Gamma 2.2 (Display)
#  Output Color Space: Rec.709
#  floating point data (range 0.0 - 1.0)
LUT_3D_SIZE 9
0.000000 0.000000 0.000000
0.042389 0.000000 0.000000
0.439054 0.000000 0.000000
0.859640 0.000000 0.000000
1.000000 0.449752 0.399043
1.000000 0.744112 0.678470
1.000000 0.901518 0.852767
1.000000 0.928898 0.885982
1.000000 0.928898 0.885982
0.000000 0.031001 0.000000
0.065467 0.072087 0.000000
0.430703 0.000000 0.000000
0.857829 0.000000 0.000000
1.000000 0.449285 0.398627
1.000000 0.744039 0.678392
1.000000 0.901509 0.852756
1.000000 0.928898 0.885982
1.000000 0.928898 0.885982
0.000000 0.375343 0.000000
0.000000 0.371368 0.000000
0.353412 0.351116 0.000000
0.828409 0.258383 0.000000
1.000000 0.447494 0.397032
1.000000 0.743760 0.678097
1.000000 0.901474 0.852715
1.000000 0.928898 0.885982
1.000000 0.928898 0.885982
0.000000 0.726646 0.000000
0.000000 0.725426 0.000000
0.000000 0.720832 0.000000
0.657224 0.670050 0.000000
1.000000 0.603496 0.388794
1.000000 0.742652 0.676946
1.000000 0.901343 0.852558
1.000000 0.928898 0.885982
1.000000 0.928898 0.885982
0.000000 0.999469 0.374274
0.000000 0.999286 0.373893
0.000000 0.998576 0.372461
0.335618 0.991267 0.372276
0.883887 0.911188 0.500482
1.000000 0.839403 0.696834
1.000000 0.900839 0.851958
1.000000 0.928898 0.885982
1.000000 0.928898 0.885982
0.566505 1.000000 0.668490
0.566415 1.000000 0.668422
0.566075 1.000000 0.668163
0.564772 1.000000 0.667173
0.696143 1.000000 0.684640
0.981258 0.998016 0.779249
1.000000 0.949175 0.865028
1.000000 0.928898 0.885982
1.000000 0.928898 0.885982
0.824366 1.000000 0.855025
0.824356 1.000000 0.855016
0.824319 1.000000 0.854983
0.824178 1.000000 0.854855
0.823638 1.000000 0.854368
0.879277 1.000000 0.864303
1.000000 1.000000 0.912228
1.000000 0.997779 0.919222
1.000000 0.928898 0.885982
0.871999 1.000000 0.914093
0.871999 1.000000 0.914092
0.872001 1.000000 0.914088
0.872006 1.000000 0.914072
0.872027 1.000000 0.914010
0.872108 1.000000 0.913775
0.953701 1.000000 0.926819
1.000000 1.000000 0.948125
1.000000 1.000000 0.944048
0.857278 1.000000 0.984838
0.857278 1.000000 0.984838
0.857278 1.000000 0.984835
0.857279 1.000000 0.984825
0.857281 1.000000 0.984786
0.857291 1.000000 0.984638
0.857330 1.000000 0.984073
1.000000 1.000000 0.977731
1.000000 1.000000 0.973305
0.000000 0.000000 0.047289
0.086715 0.000000 0.058909
0.436999 0.000000 0.066984
0.861430 0.000000 0.082430
1.000000 0.447497 0.404542
1.000000 0.744115 0.678473
1.000000 0.901519 0.852767
1.000000 0.928898 0.885982
1.000000 0.928898 0.885982
0.000000 0.069548 0.053412
0.060800 0.060800 0.060800
0.427070 0.000000 0.048321
0.859685 0.000000 0.090334
1.000000 0.446556 0.405313
1.000000 0.744042 0.678396
1.000000 0.901510 0.852757
1.000000 0.928898 0.885982
1.000000 0.928898 0.885982
0.000000 0.371628 0.000000
0.000000 0.367500 0.000000
0.347494 0.347659 0.000000
0.828892 0.247823 0.036643
1.000000 0.443049 0.407961
1.000000 0.743763 0.678100
1.000000 0.901475 0.852716
1.000000 0.928898 0.885982
1.000000 0.928898 0.885982
0.000000 0.728232 0.000000
0.000000 0.727015 0.000000
0.000000 0.722000 0.000000
0.656600 0.667729 0.043060
1.000000 0.599777 0.404290
1.000000 0.742656 0.676950
1.000000 0.901343 0.852559
1.000000 0.928898 0.885982
1.000000 0.928898 0.885982
0.000000 0.999636 0.387599
0.000000 0.999453 0.387258
0.000000 0.998755 0.385948
0.327543 0.991629 0.384915
0.884126 0.910446 0.507752
1.000000 0.838643 0.698788
1.000000 0.900839 0.851959
1.000000 0.928898 0.885982
1.000000 0.928898 0.885982
0.565393 1.000000 0.670639
0.565303 1.000000 0.670572
0.564959 1.000000 0.670318
0.563645 1.000000 0.669348
0.695639 1.000000 0.686640
0.981239 0.997823 0.780028
1.000000 0.949032 0.865256
1.000000 0.928898 0.885982
1.000000 0.928898 0.885982
0.824258 1.000000 0.855315
0.824248 1.000000 0.855306
0.824211 1.000000 0.855273
0.824069 1.000000 0.855146
0.823528 1.000000 0.854661
0.879203 1.000000 0.864544
1.000000 1.000000 0.912330
1.000000 0.997735 0.919300
1.000000 0.928898 0.885982
0.871955 1.000000 0.914219
0.871956 1.000000 0.914218
0.871957 1.000000 0.914214
0.871962 1.000000 0.914198
0.871984 1.000000 0.914137
0.872064 1.000000 0.913903
0.953684 1.000000 0.926887
1.000000 1.000000 0.948165
1.000000 1.000000 0.944089
0.857272 1.000000 0.984918
0.857272 1.000000 0.984918
0.857272 1.000000 0.984915
0.857273 1.000000 0.984905
0.857276 1.000000 0.984866
0.857286 1.000000 0.984719
0.857324 1.000000 0.984154
1.000000 1.000000 0.977772
1.000000 1.000000 0.973352
0.000000 0.000000 0.355457
0.103161 0.000000 0.354665
0.444236 0.000000 0.353848
0.862271 0.000000 0.346950
1.000000 0.422308 0.465472
1.000000 0.741377 0.684695
1.000000 0.901520 0.852769
1.000000 0.928898 0.885982
1.000000 0.928898 0.885982
0.000000 0.021916 0.343797
0.000000 0.000000 0.348308
0.425491 0.000000 0.349583
0.860298 0.000000 0.349666
1.000000 0.421389 0.466157
1.000000 0.741223 0.684785
1.000000 0.901511 0.852759
1.000000 0.928898 0.885982
1.000000 0.928898 0.885982
0.000000 0.362853 0.331422
0.000000 0.357776 0.331357
0.329927 0.329971 0.329988
0.825860 0.213547 0.333110
1.000000 0.417914 0.468619
1.000000 0.740656 0.685086
1.000000 0.901477 0.852718
1.000000 0.928898 0.885982
1.000000 0.928898 0.885982
0.000000 0.730094 0.263060
0.000000 0.728857 0.262933
0.000000 0.720844 0.257316
0.652930 0.659664 0.293376
1.000000 0.587398 0.458399
1.000000 0.738497 0.686472
1.000000 0.901345 0.852561
1.000000 0.928898 0.885982
1.000000 0.928898 0.885982
0.000000 1.000000 0.433704
0.000000 1.000000 0.433419
0.000000 0.999408 0.432402
0.296839 0.992689 0.429153
0.884670 0.907792 0.534284
1.000000 0.835838 0.706120
1.000000 0.900841 0.851961
1.000000 0.928898 0.885982
1.000000 0.928898 0.885982
0.562608 1.000000 0.678042
0.562515 1.000000 0.677978
0.562157 1.000000 0.677736
0.560789 1.000000 0.676808
0.693896 1.000000 0.693159
0.981439 0.997793 0.783141
1.000000 0.948554 0.866241
1.000000 0.928898 0.885982
1.000000 0.928898 0.885982
0.823860 1.000000 0.856382
0.823851 1.000000 0.856373
0.823813 1.000000 0.856341
0.823671 1.000000 0.856216
0.823127 1.000000 0.855739
0.878934 1.000000 0.865430
1.000000 1.000000 0.912680
1.000000 0.997693 0.919578
1.000000 0.928898 0.885982
0.871791 1.000000 0.914696
0.871791 1.000000 0.914695
0.871792 1.000000 0.914691
0.871798 1.000000 0.914675
0.871819 1.000000 0.914615
0.871898 1.000000 0.914384
0.953620 1.000000 0.927144
1.000000 1.000000 0.948316
1.000000 1.000000 0.944243
0.857251 1.000000 0.985222
0.857252 1.000000 0.985221
0.857252 1.000000 0.985219
0.857252 1.000000 0.985209
0.857255 1.000000 0.985170
0.857265 1.000000 0.985023
0.857303 1.000000 0.984461
1.000000 1.000000 0.977927
1.000000 1.000000 0.973527
0.000000 0.038254 0.664063
0.000000 0.000000 0.679613
0.405557 0.000000 0.683718
0.812812 0.000000 0.667613
1.000000 0.350402 0.634859
1.000000 0.726110 0.722486
1.000000 0.899689 0.856499
1.000000 0.928898 0.885982
1.000000 0.928898 0.885982
0.000000 0.078159 0.669808
0.000000 0.030305 0.682481
0.385339 0.000000 0.686783
0.810469 0.000000 0.669889
1.000000 0.349461 0.635396
1.000000 0.725968 0.722583
1.000000 0.899666 0.856518
1.000000 0.928898 0.885982
1.000000 0.928898 0.885982
0.000000 0.333419 0.673639
0.000000 0.326040 0.675054
0.286348 0.286989 0.677699
0.785028 0.130426 0.667964
1.000000 0.345777 0.637531
1.000000 0.725432 0.722949
1.000000 0.899581 0.856587
1.000000 0.928898 0.885982
1.000000 0.928898 0.885982
0.000000 0.689964 0.636710
0.000000 0.688404 0.636898
0.000000 0.678448 0.636696
0.631884 0.631807 0.631803
1.000000 0.554948 0.617156
1.000000 0.723371 0.724253
1.000000 0.899271 0.856806
1.000000 0.928898 0.885982
1.000000 0.928898 0.885982
0.000000 1.000000 0.576886
0.000000 1.000000 0.576808
0.000000 1.000000 0.576510
0.179730 0.991434 0.571822
0.884809 0.898661 0.622747
1.000000 0.826162 0.733433
1.000000 0.898124 0.857560
1.000000 0.928898 0.885982
1.000000 0.928898 0.885982
0.551095 1.000000 0.706741
0.550991 1.000000 0.706690
0.550591 1.000000 0.706495
0.549063 1.000000 0.705748
0.687443 1.000000 0.718792
0.981881 0.997170 0.794807
1.000000 0.946770 0.869816
1.000000 0.928776 0.886114
1.000000 0.928898 0.885982
0.822522 1.000000 0.860028
0.822513 1.000000 0.860020
0.822474 1.000000 0.859989
0.822329 1.000000 0.859872
0.821773 1.000000 0.859425
0.877953 1.000000 0.868554
1.000000 1.000000 0.914097
1.000000 0.997561 0.920589
1.000000 0.928898 0.885982
0.871185 1.000000 0.916447
0.871185 1.000000 0.916446
0.871187 1.000000 0.916442
0.871192 1.000000 0.916427
0.871212 1.000000 0.916370
0.871287 1.000000 0.916152
0.953390 1.000000 0.928255
1.000000 1.000000 0.948867
1.000000 1.000000 0.944791
0.857173 1.000000 0.986367
0.857173 1.000000 0.986366
0.857174 1.000000 0.986364
0.857174 1.000000 0.986354
0.857177 1.000000 0.986316
0.857187 1.000000 0.986171
0.857224 1.000000 0.985618
1.000000 1.000000 0.978513
1.000000 1.000000 0.974187
0.000000 0.542120 0.935793
0.095554 0.520807 0.944555
0.389415 0.470206 0.956755
0.693879 0.383815 0.946725
1.000000 0.343367 0.915939
1.000000 0.687745 0.837889
1.000000 0.890580 0.876932
1.000000 0.924857 0.893966
1.000000 0.928898 0.885982
0.000000 0.542750 0.937495
0.100376 0.526222 0.944337
0.383933 0.481347 0.955816
0.688238 0.399448 0.947410
1.000000 0.347996 0.916206
1.000000 0.687613 0.837999
1.000000 0.890561 0.876945
1.000000 0.924851 0.893979
1.000000 0.928898 0.885982
0.000000 0.564770 0.936235
0.113009 0.556799 0.940124
0.357159 0.525321 0.950906
0.666647 0.455604 0.946745
1.000000 0.393728 0.917227
1.000000 0.687109 0.838418
1.000000 0.890489 0.876995
1.000000 0.924827 0.894027
1.000000 0.928898 0.885982
0.105662 0.665885 0.916515
0.105562 0.665257 0.916649
0.257010 0.655611 0.922091
0.586864 0.615134 0.931796
0.993679 0.547157 0.910092
1.000000 0.685163 0.839996
1.000000 0.890214 0.877181
1.000000 0.924740 0.894207
1.000000 0.928898 0.885982
0.000000 0.933680 0.875727
0.000000 0.933314 0.875773
0.000000 0.931915 0.875950
0.315548 0.920190 0.876334
0.870680 0.870238 0.870175
1.000000 0.801126 0.826792
1.000000 0.889180 0.877851
1.000000 0.924423 0.894856
1.000000 0.928898 0.885982
0.525978 1.000000 0.801211
0.525861 1.000000 0.801198
0.525415 1.000000 0.801148
0.523704 1.000000 0.800958
0.669010 1.000000 0.803417
0.982900 0.995261 0.836900
1.000000 0.940469 0.883709
1.000000 0.923161 0.897564
1.000000 0.928898 0.885982
0.817812 1.000000 0.874415
0.817801 1.000000 0.874408
0.817761 1.000000 0.874384
0.817608 1.000000 0.874290
0.817021 1.000000 0.873932
0.874407 1.000000 0.880794
1.000000 1.000000 0.919568
1.000000 0.996839 0.924550
1.000000 0.928418 0.886775
0.869135 1.000000 0.922334
0.869135 1.000000 0.922333
0.869136 1.000000 0.922330
0.869141 1.000000 0.922317
0.869157 1.000000 0.922270
0.869220 1.000000 0.922090
0.952418 1.000000 0.932387
1.000000 1.000000 0.951151
1.000000 1.000000 0.946958
0.856886 1.000000 0.990566
0.856886 1.000000 0.990565
0.856886 1.000000 0.990562
0.856887 1.000000 0.990553
0.856889 1.000000 0.990517
0.856898 1.000000 0.990381
0.856934 1.000000 0.989860
1.000000 1.000000 0.980664
1.000000 1.000000 0.976597
0.539001 0.821483 1.000000
0.550698 0.817811 1.000000
0.588515 0.806021 1.000000
0.690486 0.773835 1.000000
0.880204 0.721901 1.000000
1.000000 0.702603 1.000000
1.000000 0.869644 0.941906
1.000000 0.909422 0.933730
1.000000 0.915752 0.915374
0.543191 0.820862 1.000000
0.554006 0.817518 1.000000
0.590395 0.806292 1.000000
0.689849 0.775349 1.000000
0.879083 0.723580 1.000000
1.000000 0.702627 1.000000
1.000000 0.869627 0.941923
1.000000 0.909418 0.933740
1.000000 0.915747 0.915387
0.552675 0.822156 1.000000
0.562014 0.819324 1.000000
0.594300 0.809451 1.000000
0.688162 0.780559 1.000000
0.874548 0.730708 1.000000
1.000000 0.706362 1.000000
1.000000 0.869562 0.941988
1.000000 0.909406 0.933777
1.000000 0.915729 0.915436
0.578757 0.829554 1.000000
0.579882 0.829177 1.000000
0.603347 0.822802 1.000000
0.679410 0.801792 1.000000
0.858598 0.755657 1.000000
1.000000 0.727519 1.000000
1.000000 0.869315 0.942235
1.000000 0.909359 0.933916
1.000000 0.915662 0.915624
0.622319 0.875629 1.000000
0.622277 0.875545 1.000000
0.622115 0.875222 1.000000
0.659203 0.867841 1.000000
0.808600 0.837223 1.000000
1.000000 0.798037 0.999857
1.000000 0.868372 0.943169
1.000000 0.909182 0.934442
1.000000 0.915410 0.916330
0.633696 0.999983 0.982168
0.633719 0.999983 0.982176
0.633806 0.999982 0.982207
0.634138 0.999980 0.982328
0.711028 0.998786 0.982972
0.979476 0.978589 0.978450
1.000000 0.924542 0.933861
1.000000 0.908463 0.936854
1.000000 0.914498 0.918874
0.806082 1.000000 0.922771
0.806070 1.000000 0.922769
0.806026 1.000000 0.922765
0.805857 1.000000 0.922750
0.805209 1.000000 0.922692
0.864111 1.000000 0.923351
1.000000 1.000000 0.939964
1.000000 0.991844 0.940110
1.000000 0.911351 0.927973
0.862980 1.000000 0.944800
0.862980 1.000000 0.944799
0.862981 1.000000 0.944795
0.862984 1.000000 0.944783
0.862995 1.000000 0.944735
0.863038 1.000000 0.944552
0.948957 1.000000 0.947841
1.000000 1.000000 0.959747
1.000000 1.000000 0.955578
0.860466 1.000000 0.996646
0.860466 1.000000 0.996646
0.860466 1.000000 0.996645
0.860463 1.000000 0.996643
0.860454 1.000000 0.996634
0.860417 1.000000 0.996599
0.860278 1.000000 0.996466
1.000000 1.000000 0.989570
1.000000 1.000000 0.985041
0.782746 0.947617 1.000000
0.784118 0.946996 1.000000
0.788860 0.944915 1.000000
0.805562 0.937881 1.000000
0.857220 0.917676 1.000000
0.965082 0.885367 1.000000
1.000000 0.876497 1.000000
1.000000 0.883041 1.000000
1.000000 0.885833 1.000000
0.783286 0.947484 1.000000
0.784660 0.946856 1.000000
0.789285 0.944844 1.000000
0.805884 0.937864 1.000000
0.857140 0.917870 1.000000
0.964901 0.885591 1.000000
1.000000 0.876500 1.000000
1.000000 0.883040 1.000000
1.000000 0.885831 1.000000
0.785507 0.946844 1.000000
0.786627 0.946354 1.000000
0.791151 0.944404 1.000000
0.807101 0.937784 1.000000
0.856927 0.918544 1.000000
0.964232 0.886418 1.000000
1.000000 0.876511 1.000000
1.000000 0.883034 1.000000
1.000000 0.885825 1.000000
0.790374 0.946808 1.000000
0.791501 0.946339 1.000000
0.795421 0.944683 1.000000
0.809694 0.938889 1.000000
0.856486 0.921004 1.000000
0.961534 0.889856 1.000000
1.000000 0.878408 1.000000
1.000000 0.883010 1.000000
1.000000 0.885799 1.000000
0.805284 0.948007 1.000000
0.805260 0.948004 1.000000
0.806474 0.947522 1.000000
0.816989 0.943638 1.000000
0.853773 0.930692 1.000000
0.951990 0.902108 1.000000
1.000000 0.887924 1.000000
1.000000 0.882921 1.000000
1.000000 0.885700 1.000000
0.832714 0.966420 1.000000
0.832706 0.966410 1.000000
0.832677 0.966374 1.000000
0.832564 0.966237 1.000000
0.849285 0.961766 1.000000
0.923583 0.942989 1.000000
1.000000 0.920991 1.000000
1.000000 0.882583 1.000000
1.000000 0.885328 1.000000
0.848480 1.000000 1.000000
0.848482 1.000000 1.000000
0.848490 1.000000 1.000000
0.848521 1.000000 1.000000
0.848639 1.000000 1.000000
0.881551 1.000000 1.000000
1.000000 1.000000 1.000000
1.000000 0.976864 0.999952
1.000000 0.883953 1.000000
0.861991 1.000000 0.998100
0.861991 1.000000 0.998100
0.861990 1.000000 0.998099
0.861988 1.000000 0.998097
0.861979 1.000000 0.998088
0.861945 1.000000 0.998056
0.940854 1.000000 0.996092
1.000000 1.000000 0.992842
1.000000 1.000000 0.988618
0.896904 1.000000 1.000000
0.896904 1.000000 1.000000
0.896904 1.000000 1.000000
0.896904 1.000000 1.000000
0.896904 1.000000 1.000000
0.896904 1.000000 1.000000
0.896904 1.000000 1.000000
1.000000 1.000000 1.000000
1.000000 1.000000 0.999944
0.874348 0.972360 1.000000
0.874618 0.972255 1.000000
0.875554 0.971901 1.000000
0.879209 0.970555 1.000000
0.892671 0.965693 1.000000
0.938434 0.950689 1.000000
1.000000 0.933373 1.000000
1.000000 0.916963 1.000000
1.000000 0.916963 1.000000
0.874375 0.972407 1.000000
0.874646 0.972302 1.000000
0.875587 0.971945 1.000000
0.879225 0.970608 1.000000
0.892656 0.965762 1.000000
0.938365 0.950783 1.000000
1.000000 0.933449 1.000000
1.000000 0.916963 1.000000
1.000000 0.916963 1.000000
0.874475 0.972587 1.000000
0.874751 0.972479 1.000000
0.875710 0.972112 1.000000
0.879285 0.970808 1.000000
0.892611 0.966015 1.000000
0.938103 0.951140 1.000000
1.000000 0.933737 1.000000
1.000000 0.916963 1.000000
1.000000 0.916963 1.000000
0.874947 0.973178 1.000000
0.875191 0.973098 1.000000
0.876135 0.972752 1.000000
0.879599 0.971494 1.000000
0.892647 0.966856 1.000000
0.937179 0.952443 1.000000
1.000000 0.934794 1.000000
1.000000 0.916963 1.000000
1.000000 0.916963 1.000000
0.876538 0.975375 1.000000
0.876727 0.975313 1.000000
0.877619 0.974981 1.000000
0.880790 0.973872 1.000000
0.892562 0.969840 1.000000
0.934432 0.956796 1.000000
1.000000 0.938668 1.000000
1.000000 0.919885 1.000000
1.000000 0.916963 1.000000
0.882914 0.984511 1.000000
0.882911 0.984507 1.000000
0.882897 0.984492 1.000000
0.884071 0.984121 1.000000
0.892874 0.981594 1.000000
0.926005 0.972260 1.000000
1.000000 0.953273 1.000000
1.000000 0.934553 1.000000
1.000000 0.916963 1.000000
0.897802 1.000000 1.000000
0.897803 1.000000 1.000000
0.897803 1.000000 1.000000
0.897807 1.000000 1.000000
0.897821 1.000000 1.000000
0.915127 1.000000 1.000000
0.985644 0.998887 1.000000
1.000000 0.982147 1.000000
1.000000 0.916963 1.000000
0.896904 1.000000 1.000000
0.896904 1.000000 1.000000
0.896904 1.000000 1.000000
0.896904 1.000000 1.000000
0.896904 1.000000 1.000000
0.896904 1.000000 1.000000
0.948740 1.000000 1.000000
1.000000 1.000000 1.000000
1.000000 1.000000 1.000000
0.896904 1.000000 1.000000
0.896904 1.000000 1.000000
0.896904 1.000000 1.000000
0.896904 1.000000 1.000000
0.896904 1.000000 1.000000
0.896904 1.000000 1.000000
0.896904 1.000000 1.000000
1.000000 1.000000 1.000000
1.000000 1.000000 1.000000
0.907599 0.999974 1.000000
0.907707 0.999973 1.000000
0.908105 0.999971 1.000000
0.909491 0.999964 1.000000
0.915007 0.999897 1.000000
0.934990 0.999419 1.000000
0.998897 0.995187 1.000000
1.000000 0.978009 1.000000
1.000000 0.916963 1.000000
0.907594 0.999979 1.000000
0.907702 0.999979 1.000000
0.908101 0.999977 1.000000
0.909488 0.999969 1.000000
0.914998 0.999905 1.000000
0.934976 0.999440 1.000000
0.998893 0.995237 1.000000
1.000000 0.978059 1.000000
1.000000 0.916963 1.000000
0.907572 1.000000 1.000000
0.907681 1.000000 1.000000
0.908082 0.999998 1.000000
0.909476 0.999990 1.000000
0.914967 0.999939 1.000000
0.934922 0.999520 1.000000
0.998877 0.995427 1.000000
1.000000 0.978249 1.000000
1.000000 0.916963 1.000000
0.907298 1.000000 1.000000
0.907410 1.000000 1.000000
0.907824 1.000000 1.000000
0.909262 1.000000 1.000000
0.914751 1.000000 1.000000
0.934716 0.999821 1.000000
0.998817 0.996144 1.000000
1.000000 0.978963 1.000000
1.000000 0.916963 1.000000
0.906345 1.000000 1.000000
0.906443 1.000000 1.000000
0.906809 1.000000 1.000000
0.908335 1.000000 1.000000
0.913671 1.000000 1.000000
0.933770 1.000000 1.000000
0.998234 0.998696 1.000000
1.000000 0.981869 1.000000
1.000000 0.916963 1.000000
0.902909 1.000000 1.000000
0.903006 1.000000 1.000000
0.903369 1.000000 1.000000
0.904769 1.000000 1.000000
0.910179 1.000000 1.000000
0.929709 1.000000 1.000000
0.993624 1.000000 1.000000
1.000000 0.992919 1.000000
1.000000 0.928141 1.000000
0.896904 1.000000 1.000000
0.896904 1.000000 1.000000
0.896904 1.000000 1.000000
0.896904 1.000000 1.000000
0.899759 1.000000 1.000000
0.919330 1.000000 1.000000
0.983167 1.000000 1.000000
1.000000 1.000000 1.000000
1.000000 0.977229 1.000000
0.896904 1.000000 1.000000
0.896904 1.000000 1.000000
0.896904 1.000000 1.000000
0.896904 1.000000 1.000000
0.896904 1.000000 1.000000
0.896904 1.000000 1.000000
0.953947 1.000000 1.000000
1.000000 1.000000 1.000000
1.000000 1.000000 1.000000
0.896904 1.000000 1.000000
0.896904 1.000000 1.000000
0.896904 1.000000 1.000000
0.896904 1.000000 1.000000
0.896904 1.000000 1.000000
0.896904 1.000000 1.000000
0.896904 1.000000 1.000000
1.000000 1.000000 1.000000
1.000000 1.000000 1.000000
