Assets/Data/Textures/70 CGC LUTs/LUTs_AgX_Filmic_ViewTransforms/ARRILogC4AWG4-to-JzDT-sRGB.cube
#  Baked from the PixelManager OCIO config by Joe Genco
#  https://github.com/Joegenco/PixelManager
#  Input Gamma: Arri LogC4
#  Input Color Space: Arri Wide Gamut 4
#  floating point data (range 0.0 - 1.0)   
#       
#  Output Gamma: Gamma 2.2 (Display)
#  Output Color Space: Rec.709
#  floating point data (range 0.0 - 1.0)
LUT_3D_SIZE 5
0.000000 0.000000 0.000000
0.439054 0.000000 0.000000
1.000000 0.449752 0.399043
1.000000 0.901518 0.852767
1.000000 0.928898 0.885982
0.000000 0.375343 0.000000
0.353412 0.351116 0.000000
1.000000 0.447494 0.397032
1.000000 0.901474 0.852715
1.000000 0.928898 0.885982
0.000000 0.999469 0.374274
0.000000 0.998576 0.372461
0.883887 0.911188 0.500482
1.000000 0.900839 0.851958
1.000000 0.928898 0.885982
0.824366 1.000000 0.855025
0.824319 1.000000 0.854983
0.823638 1.000000 0.854368
1.000000 1.000000 0.912228
1.000000 0.928898 0.885982
0.857278 1.000000 0.984838
0.857278 1.000000 0.984835
0.857281 1.000000 0.984786
0.857330 1.000000 0.984073
1.000000 1.000000 0.973305
0.000000 0.000000 0.355457
0.444236 0.000000 0.353848
1.000000 0.422308 0.465472
1.000000 0.901520 0.852769
1.000000 0.928898 0.885982
0.000000 0.362853 0.331422
0.329927 0.329971 0.329988
1.000000 0.417914 0.468619
1.000000 0.901477 0.852718
1.000000 0.928898 0.885982
0.000000 1.000000 0.433704
0.000000 0.999408 0.432402
0.884670 0.907792 0.534284
1.000000 0.900841 0.851961
1.000000 0.928898 0.885982
0.823860 1.000000 0.856382
0.823813 1.000000 0.856341
0.823127 1.000000 0.855739
1.000000 1.000000 0.912680
1.000000 0.928898 0.885982
0.857251 1.000000 0.985222
0.857252 1.000000 0.985219
0.857255 1.000000 0.985170
0.857303 1.000000 0.984461
1.000000 1.000000 0.973527
0.000000 0.542120 0.935793
0.389415 0.470206 0.956755
1.000000 0.343367 0.915939
1.000000 0.890580 0.876932
1.000000 0.928898 0.885982
0.000000 0.564770 0.936235
0.357159 0.525321 0.950906
1.000000 0.393728 0.917227
1.000000 0.890489 0.876995
1.000000 0.928898 0.885982
0.000000 0.933680 0.875727
0.000000 0.931915 0.875950
0.870680 0.870238 0.870175
1.000000 0.889180 0.877851
1.000000 0.928898 0.885982
0.817812 1.000000 0.874415
0.817761 1.000000 0.874384
0.817021 1.000000 0.873932
1.000000 1.000000 0.919568
1.000000 0.928418 0.886775
0.856886 1.000000 0.990566
0.856886 1.000000 0.990562
0.856889 1.000000 0.990517
0.856934 1.000000 0.989860
1.000000 1.000000 0.976597
0.782746 0.947617 1.000000
0.788860 0.944915 1.000000
0.857220 0.917676 1.000000
1.000000 0.876497 1.000000
1.000000 0.885833 1.000000
0.785507 0.946844 1.000000
0.791151 0.944404 1.000000
0.856927 0.918544 1.000000
1.000000 0.876511 1.000000
1.000000 0.885825 1.000000
0.805284 0.948007 1.000000
0.806474 0.947522 1.000000
0.853773 0.930692 1.000000
1.000000 0.887924 1.000000
1.000000 0.885700 1.000000
0.848480 1.000000 1.000000
0.848490 1.000000 1.000000
0.848639 1.000000 1.000000
1.000000 1.000000 1.000000
1.000000 0.883953 1.000000
0.896904 1.000000 1.000000
0.896904 1.000000 1.000000
0.896904 1.000000 1.000000
0.896904 1.000000 1.000000
1.000000 1.000000 0.999944
0.907599 0.999974 1.000000
0.908105 0.999971 1.000000
0.915007 0.999897 1.000000
0.998897 0.995187 1.000000
1.000000 0.916963 1.000000
0.907572 1.000000 1.000000
0.908082 0.999998 1.000000
0.914967 0.999939 1.000000
0.998877 0.995427 1.000000
1.000000 0.916963 1.000000
0.906345 1.000000 1.000000
0.906809 1.000000 1.000000
0.913671 1.000000 1.000000
0.998234 0.998696 1.000000
1.000000 0.916963 1.000000
0.896904 1.000000 1.000000
0.896904 1.000000 1.000000
0.899759 1.000000 1.000000
0.983167 1.000000 1.000000
1.000000 0.977229 1.000000
0.896904 1.000000 1.000000
0.896904 1.000000 1.000000
0.896904 1.000000 1.000000
0.896904 1.000000 1.000000
1.000000 1.000000 1.000000
