Assets/Data/Textures/70 CGC LUTs/LUTs_AgX_Filmic_ViewTransforms/ARRILogC4AWG4-to-JP2499DRT-ClassicReversal-sRGB.cube
#  Baked from the PixelManager OCIO config by Joe Genco
#  https://github.com/Joegenco/PixelManager
#  Input Gamma: Arri LogC4
#  Input Color Space: Arri Wide Gamut 4
#  floating point data (range 0.0 - 1.0)   
#       
#  Output Gamma: Gamma 2.2 (Display)
#  Output Color Space: Rec.709
#  floating point data (range 0.0 - 1.0)
LUT_3D_SIZE 33
0.047975 0.028704 0.019625
0.047975 0.028704 0.019625
0.047975 0.028704 0.019625
0.048253 0.028705 0.019619
0.065065 0.027942 0.017287
0.087355 0.026489 0.015513
0.116962 0.023679 0.013046
0.155047 0.022998 0.013691
0.202406 0.023008 0.016084
0.258580 0.024943 0.019598
0.325359 0.028691 0.024047
0.399503 0.035627 0.029577
0.472812 0.042777 0.035098
0.542883 0.053235 0.040409
0.608531 0.068886 0.046065
0.669406 0.096748 0.052084
0.725202 0.147423 0.060924
0.774522 0.220569 0.077786
0.817953 0.303197 0.117910
0.854378 0.387971 0.194234
0.882374 0.470281 0.295293
0.904813 0.547599 0.396543
0.923345 0.618150 0.491868
0.938204 0.680517 0.577529
0.949676 0.734039 0.651097
0.959321 0.778854 0.711907
0.967445 0.815821 0.760481
0.973541 0.846034 0.798657
0.975815 0.858785 0.835299
0.975419 0.867017 0.868296
0.974960 0.876388 0.887571
0.974376 0.887513 0.899246
0.973746 0.899599 0.904398
0.047975 0.028704 0.019625
0.047975 0.028704 0.019625
0.047975 0.028704 0.019625
0.048145 0.028705 0.019621
0.064904 0.027956 0.017310
0.087224 0.026500 0.015534
0.116827 0.023694 0.013044
0.154933 0.023015 0.013686
0.202300 0.023011 0.016077
0.258497 0.024940 0.019593
0.325866 0.028724 0.024086
0.399860 0.035657 0.029621
0.473051 0.042804 0.035135
0.543022 0.053269 0.040438
0.608622 0.068931 0.046110
0.669490 0.096841 0.052178
0.725255 0.147529 0.061001
0.774577 0.220663 0.078048
0.817990 0.303269 0.118298
0.854397 0.388018 0.194625
0.882377 0.470310 0.295590
0.904814 0.547617 0.396738
0.923345 0.618162 0.491996
0.938204 0.680525 0.577606
0.949676 0.734044 0.651144
0.959321 0.778857 0.711935
0.967445 0.815823 0.760498
0.973541 0.846035 0.798666
0.975815 0.858786 0.835303
0.975419 0.867018 0.868298
0.974960 0.876389 0.887572
0.974376 0.887513 0.899247
0.973746 0.899600 0.904399
0.047975 0.028704 0.019625
0.047975 0.028704 0.019625
0.047975 0.028704 0.019625
0.047975 0.028704 0.019625
0.064676 0.027975 0.017343
0.087039 0.026516 0.015564
0.116637 0.023716 0.013041
0.154772 0.023038 0.013678
0.202152 0.023016 0.016068
0.258381 0.024937 0.019585
0.326490 0.028764 0.024132
0.400340 0.035706 0.029679
0.473381 0.042843 0.035191
0.543214 0.053317 0.040478
0.608747 0.068993 0.046172
0.669606 0.096970 0.052307
0.725339 0.147680 0.061176
0.774652 0.220794 0.078413
0.818042 0.303370 0.118839
0.854423 0.388085 0.195171
0.882381 0.470350 0.296003
0.904816 0.547643 0.397010
0.923346 0.618178 0.492175
0.938204 0.680535 0.577713
0.949676 0.734050 0.651211
0.959320 0.778861 0.711975
0.967445 0.815825 0.760520
0.973541 0.846036 0.798678
0.975815 0.858787 0.835309
0.975419 0.867019 0.868302
0.974960 0.876390 0.887573
0.974376 0.887514 0.899247
0.973746 0.899600 0.904399
0.047975 0.028704 0.019625
0.047975 0.028704 0.019625
0.047975 0.028704 0.019625
0.047975 0.028704 0.019625
0.064354 0.028002 0.017390
0.086781 0.026539 0.015606
0.116371 0.023745 0.013036
0.154548 0.023070 0.013667
0.201957 0.023022 0.016057
0.258219 0.024932 0.019574
0.327320 0.028818 0.024195
0.400974 0.035771 0.029757
0.473830 0.042899 0.035269
0.543477 0.053383 0.040533
0.608920 0.069079 0.046258
0.669768 0.097150 0.052494
0.725469 0.147891 0.061515
0.774758 0.220977 0.078922
0.818115 0.303510 0.119593
0.854459 0.388178 0.195932
0.882388 0.470406 0.296580
0.904819 0.547679 0.397390
0.923346 0.618201 0.492425
0.938205 0.680550 0.577862
0.949676 0.734059 0.651303
0.959320 0.778866 0.712031
0.967445 0.815828 0.760552
0.973541 0.846038 0.798696
0.975815 0.858788 0.835317
0.975419 0.867020 0.868306
0.974960 0.876391 0.887575
0.974376 0.887515 0.899248
0.973745 0.899601 0.904399
0.048562 0.041436 0.018265
0.048559 0.041387 0.018270
0.048556 0.041319 0.018278
0.048551 0.041222 0.018288
0.072773 0.046915 0.014064
0.110310 0.037890 0.011990
0.146955 0.029704 0.013003
0.185236 0.024782 0.014908
0.228342 0.024149 0.017542
0.278141 0.025968 0.020835
0.342869 0.030057 0.025237
0.410999 0.036688 0.030402
0.478979 0.043422 0.035650
0.545260 0.053713 0.040690
0.609158 0.069197 0.046376
0.670000 0.097398 0.052786
0.725650 0.148184 0.061985
0.774904 0.221232 0.079628
0.818216 0.303705 0.120641
0.854510 0.388308 0.196991
0.882396 0.470484 0.297385
0.904822 0.547730 0.397920
0.923347 0.618233 0.492773
0.938205 0.680570 0.578072
0.949675 0.734072 0.651433
0.959320 0.778874 0.712108
0.967444 0.815833 0.760597
0.973541 0.846040 0.798720
0.975815 0.858790 0.835328
0.975419 0.867022 0.868313
0.974960 0.876393 0.887578
0.974376 0.887517 0.899249
0.973745 0.899602 0.904399
0.048755 0.061867 0.012292
0.048757 0.061812 0.012318
0.048759 0.061734 0.012355
0.048761 0.061625 0.012406
0.051685 0.084392 0.005462
0.104779 0.079664 0.006011
0.160305 0.066403 0.011112
0.212129 0.048307 0.015614
0.261700 0.034206 0.019398
0.313917 0.031425 0.023103
0.373393 0.034283 0.027329
0.434117 0.039312 0.031982
0.495908 0.045808 0.036780
0.557095 0.055860 0.041434
0.616597 0.072061 0.046855
0.673573 0.100200 0.053222
0.726638 0.149604 0.062586
0.775108 0.221585 0.080607
0.818356 0.303976 0.122099
0.854580 0.388489 0.198466
0.882408 0.470592 0.298507
0.904827 0.547800 0.398659
0.923347 0.618278 0.493260
0.938205 0.680599 0.578363
0.949675 0.734090 0.651614
0.959319 0.778884 0.712216
0.967444 0.815839 0.760659
0.973540 0.846043 0.798755
0.975815 0.858792 0.835343
0.975419 0.867025 0.868323
0.974960 0.876396 0.887581
0.974376 0.887519 0.899251
0.973745 0.899603 0.904400
0.047190 0.091493 0.005065
0.047196 0.091439 0.005068
0.047206 0.091364 0.005073
0.047219 0.091258 0.005080
0.044557 0.114947 0.004036
0.072462 0.133122 0.003961
0.146416 0.126479 0.003986
0.216324 0.111340 0.011371
0.279888 0.087527 0.018392
0.343231 0.060921 0.024058
0.404058 0.045087 0.029160
0.461068 0.044915 0.033719
0.517041 0.051808 0.038097
0.572479 0.059765 0.042334
0.627607 0.076871 0.047583
0.680932 0.106131 0.053799
0.731460 0.156439 0.063151
0.777380 0.226219 0.081482
0.818861 0.305195 0.123899
0.854678 0.388740 0.200517
0.882424 0.470744 0.300067
0.904833 0.547898 0.399689
0.923348 0.618340 0.493937
0.938206 0.680639 0.578771
0.949674 0.734114 0.651866
0.959318 0.778899 0.712367
0.967443 0.815847 0.760746
0.973540 0.846048 0.798803
0.975815 0.858796 0.835365
0.975419 0.867029 0.868336
0.974960 0.876399 0.887586
0.974375 0.887522 0.899253
0.973745 0.899605 0.904401
0.039478 0.131832 0.004492
0.039498 0.131778 0.004491
0.039525 0.131701 0.004489
0.039563 0.131594 0.004487
0.033183 0.152851 0.004299
0.033526 0.184883 0.004287
0.107079 0.196339 0.004025
0.197621 0.187514 0.003619
0.282439 0.171666 0.011782
0.360634 0.146871 0.021057
0.429263 0.109278 0.028630
0.488471 0.075745 0.034497
0.541094 0.064582 0.039210
0.591462 0.070757 0.043260
0.641721 0.084673 0.048430
0.690904 0.115639 0.054461
0.737778 0.166463 0.063804
0.781250 0.234564 0.082417
0.821204 0.311509 0.124978
0.855663 0.391462 0.202566
0.882447 0.470954 0.302238
0.904842 0.548035 0.401123
0.923350 0.618427 0.494883
0.938206 0.680695 0.579338
0.949674 0.734149 0.652218
0.959317 0.778920 0.712577
0.967442 0.815859 0.760867
0.973540 0.846054 0.798870
0.975815 0.858801 0.835395
0.975418 0.867035 0.868354
0.974960 0.876404 0.887593
0.974375 0.887526 0.899257
0.973745 0.899607 0.904402
0.029639 0.184504 0.004157
0.029643 0.184459 0.004158
0.029648 0.184395 0.004159
0.029656 0.184306 0.004160
0.022961 0.201872 0.003768
0.019942 0.231768 0.004625
0.025509 0.266346 0.004598
0.151197 0.274772 0.004287
0.264371 0.268093 0.003293
0.360341 0.250319 0.011333
0.440418 0.220345 0.022149
0.507684 0.180161 0.031150
0.565033 0.131211 0.038407
0.613243 0.102058 0.043631
0.658103 0.106607 0.048781
0.702877 0.132589 0.054952
0.745772 0.181002 0.064490
0.786307 0.246512 0.083324
0.824358 0.320421 0.126043
0.857840 0.397615 0.204508
0.883517 0.474618 0.304211
0.904909 0.548433 0.403044
0.923352 0.618549 0.496199
0.938207 0.680773 0.580130
0.949673 0.734197 0.652710
0.959316 0.778949 0.712871
0.967441 0.815876 0.761036
0.973539 0.846063 0.798963
0.975815 0.858808 0.835437
0.975418 0.867043 0.868380
0.974959 0.876411 0.887603
0.974375 0.887532 0.899262
0.973745 0.899611 0.904403
0.016998 0.251409 0.004730
0.016918 0.251938 0.004749
0.016813 0.252611 0.004773
0.016659 0.253618 0.004809
0.014646 0.266618 0.005263
0.013824 0.293959 0.005755
0.014465 0.329043 0.006780
0.027097 0.363722 0.007435
0.209242 0.365557 0.005755
0.336294 0.356029 0.003879
0.436254 0.335808 0.010371
0.514999 0.304810 0.021111
0.578832 0.261781 0.031471
0.632160 0.208436 0.040460
0.676769 0.169288 0.047591
0.716943 0.172225 0.054338
0.755886 0.207918 0.064192
0.792918 0.264734 0.083530
0.828507 0.332870 0.127107
0.860438 0.406249 0.206786
0.885244 0.480586 0.306605
0.905886 0.552410 0.404895
0.923501 0.619386 0.497900
0.938208 0.680881 0.581232
0.949671 0.734264 0.653394
0.959314 0.778989 0.713281
0.967439 0.815900 0.761272
0.973538 0.846075 0.799094
0.975814 0.858818 0.835496
0.975418 0.867053 0.868416
0.974959 0.876421 0.887617
0.974374 0.887540 0.899268
0.973745 0.899616 0.904405
0.014822 0.334527 0.007052
0.014820 0.334863 0.007063
0.014769 0.335331 0.007071
0.014673 0.336121 0.007084
0.013910 0.344039 0.007214
0.014908 0.365826 0.007585
0.016232 0.393161 0.008096
0.016198 0.426008 0.008800
0.048690 0.454735 0.008809
0.276015 0.453973 0.007193
0.410165 0.443738 0.004519
0.508325 0.423416 0.009650
0.582860 0.391773 0.019189
0.641605 0.348699 0.029933
0.689861 0.295471 0.040669
0.730592 0.255501 0.050797
0.766990 0.256529 0.062358
0.801234 0.293519 0.083209
0.834045 0.351493 0.127500
0.863867 0.418846 0.209364
0.887518 0.488818 0.309504
0.907215 0.557967 0.407271
0.924231 0.622999 0.499640
0.938427 0.681929 0.582591
0.949669 0.734357 0.654348
0.959311 0.779045 0.713852
0.967437 0.815932 0.761601
0.973537 0.846092 0.799276
0.975814 0.858832 0.835579
0.975417 0.867069 0.868466
0.974958 0.876434 0.887636
0.974374 0.887551 0.899278
0.973744 0.899622 0.904408
0.016173 0.420423 0.008668
0.016174 0.420663 0.008675
0.016174 0.420992 0.008684
0.016175 0.421439 0.008697
0.016171 0.424262 0.008770
0.016548 0.440161 0.009127
0.017218 0.460883 0.009568
0.018935 0.485823 0.010232
0.024224 0.515423 0.010950
0.107513 0.539717 0.010956
0.348430 0.537449 0.008401
0.481439 0.526479 0.005529
0.575198 0.507126 0.008947
0.643427 0.477523 0.017601
0.696104 0.435536 0.027460
0.739656 0.384052 0.040416
0.776630 0.345074 0.055167
0.810394 0.344396 0.078678
0.840747 0.380892 0.126195
0.868153 0.437314 0.212324
0.890670 0.500888 0.312987
0.909012 0.565790 0.410352
0.925236 0.628091 0.501816
0.939141 0.685142 0.584045
0.949867 0.735444 0.655466
0.959307 0.779123 0.714648
0.967434 0.815978 0.762060
0.973536 0.846115 0.799530
0.975814 0.858851 0.835693
0.975416 0.867090 0.868536
0.974957 0.876453 0.887663
0.974373 0.887567 0.899291
0.973744 0.899632 0.904411
0.020996 0.503063 0.010703
0.021018 0.503258 0.010709
0.021048 0.503527 0.010717
0.021092 0.503899 0.010728
0.021157 0.504411 0.010743
0.022039 0.514234 0.010972
0.022649 0.528987 0.011231
0.023700 0.546753 0.011560
0.025757 0.569248 0.012257
0.039409 0.595767 0.013285
0.192264 0.614762 0.013196
0.422043 0.611205 0.009903
0.549278 0.601389 0.006781
0.635257 0.584054 0.008633
0.696953 0.557347 0.016533
0.743565 0.519345 0.026109
0.782672 0.471427 0.041374
0.817074 0.434078 0.067582
0.847924 0.432864 0.118433
0.873329 0.466823 0.212760
0.894309 0.518662 0.316759
0.911418 0.576930 0.414176
0.926604 0.635135 0.504655
0.940069 0.689621 0.585949
0.950409 0.738247 0.656727
0.959472 0.780154 0.715556
0.967429 0.816041 0.762699
0.973534 0.846148 0.799884
0.975813 0.858877 0.835853
0.975415 0.867119 0.868633
0.974956 0.876479 0.887701
0.974372 0.887589 0.899309
0.973743 0.899645 0.904417
0.027363 0.579609 0.012717
0.027393 0.579725 0.012723
0.027434 0.579887 0.012731
0.027492 0.580111 0.012743
0.027571 0.580419 0.012759
0.028606 0.584656 0.012931
0.031021 0.594537 0.013328
0.034287 0.606973 0.013918
0.039061 0.623001 0.014696
0.044212 0.643137 0.015567
0.083404 0.665904 0.017161
0.281206 0.679680 0.016749
0.494837 0.675632 0.012176
0.612278 0.666904 0.008552
0.689027 0.652229 0.009510
0.743763 0.629463 0.017061
0.784785 0.596481 0.027054
0.820409 0.554006 0.048544
0.853200 0.520821 0.100310
0.878797 0.517721 0.207077
0.898202 0.546347 0.319436
0.914468 0.593377 0.418105
0.928402 0.645047 0.508085
0.941085 0.695673 0.588518
0.951121 0.742107 0.658323
0.959867 0.782506 0.716589
0.967561 0.816947 0.763409
0.973531 0.846194 0.800377
0.975812 0.858914 0.836076
0.975414 0.867160 0.868769
0.974954 0.876516 0.887753
0.974370 0.887619 0.899335
0.973742 0.899664 0.904424
0.046357 0.648494 0.015957
0.046412 0.648565 0.015964
0.046488 0.648662 0.015975
0.046593 0.648798 0.015989
0.046739 0.648987 0.016010
0.047223 0.649638 0.016070
0.051990 0.656114 0.016618
0.058475 0.664459 0.017356
0.067903 0.675521 0.018365
0.080335 0.690278 0.019694
0.099486 0.707400 0.021067
0.181778 0.725882 0.024324
0.371478 0.735231 0.023417
0.565100 0.731122 0.017111
0.669797 0.723517 0.012493
0.736832 0.711065 0.011970
0.784742 0.692988 0.021084
0.821447 0.665592 0.035905
0.854684 0.630633 0.077749
0.882936 0.600612 0.189867
0.902246 0.594564 0.316614
0.918172 0.618420 0.420784
0.930684 0.659352 0.511529
0.942390 0.704257 0.591569
0.952132 0.747350 0.660478
0.960392 0.785761 0.717888
0.967854 0.818804 0.764228
0.973681 0.846886 0.800910
0.975810 0.858966 0.836387
0.975412 0.867217 0.868959
0.974952 0.876567 0.887826
0.974368 0.887662 0.899368
0.973741 0.899689 0.904435
0.103357 0.709528 0.021347
0.103436 0.709567 0.021357
0.103546 0.709623 0.021372
0.103700 0.709700 0.021392
0.103913 0.709807 0.021419
0.104209 0.709955 0.021458
0.108885 0.712455 0.022027
0.119421 0.717978 0.023251
0.133402 0.725280 0.024867
0.152928 0.735132 0.027008
0.178735 0.747609 0.029656
0.215351 0.761254 0.033758
0.299433 0.775825 0.041121
0.461930 0.782767 0.039791
0.630926 0.778724 0.029576
0.721864 0.772257 0.022258
0.779678 0.762064 0.020389
0.821639 0.748654 0.034373
0.855163 0.727164 0.070615
0.884652 0.698255 0.171730
0.905208 0.669028 0.307971
0.921157 0.661688 0.420059
0.933427 0.681819 0.514064
0.944080 0.716259 0.594784
0.953460 0.754169 0.663061
0.961143 0.790237 0.719630
0.968248 0.821271 0.765257
0.973990 0.848275 0.801537
0.975948 0.859809 0.836725
0.975408 0.867297 0.869223
0.974948 0.876639 0.887928
0.974364 0.887722 0.899406
0.973738 0.899725 0.904449
0.216117 0.761772 0.034095
0.216207 0.761807 0.034131
0.216334 0.761857 0.034180
0.216510 0.761926 0.034248
0.216754 0.762022 0.034342
0.217094 0.762156 0.034474
0.217565 0.762341 0.034657
0.226507 0.765597 0.036630
0.239233 0.770222 0.039430
0.256201 0.776318 0.043079
0.277145 0.784467 0.047676
0.304134 0.794903 0.054003
0.339635 0.806686 0.074017
0.410380 0.818544 0.093114
0.549718 0.823751 0.091481
0.692437 0.820084 0.071542
0.769706 0.814792 0.057310
0.819068 0.806788 0.052673
0.855824 0.797071 0.094642
0.885071 0.779783 0.177401
0.906334 0.753648 0.303672
0.922936 0.726816 0.415361
0.936140 0.719367 0.514077
0.946064 0.735891 0.597033
0.955163 0.764264 0.665725
0.962131 0.795966 0.721714
0.968800 0.824841 0.766630
0.974402 0.850212 0.802306
0.976213 0.861417 0.837121
0.975605 0.868338 0.869582
0.974943 0.876739 0.888070
0.974360 0.887806 0.899460
0.973736 0.899776 0.904469
0.338342 0.806470 0.074053
0.338402 0.806491 0.074122
0.338486 0.806521 0.074220
0.338604 0.806563 0.074356
0.338768 0.806622 0.074546
0.338996 0.806704 0.074809
0.339314 0.806817 0.075175
0.341477 0.807532 0.076640
0.350024 0.810314 0.081699
0.361381 0.814122 0.088506
0.376653 0.819254 0.097419
0.396937 0.826051 0.109190
0.422799 0.833966 0.134501
0.454244 0.843397 0.169464
0.515080 0.852593 0.203971
0.630059 0.856101 0.213826
0.747166 0.853885 0.193820
0.812082 0.850504 0.174153
0.854136 0.844780 0.168929
0.884072 0.835316 0.236530
0.906164 0.819799 0.319644
0.923276 0.797789 0.416742
0.937723 0.774815 0.511077
0.947964 0.767685 0.597035
0.956614 0.780875 0.667685
0.963395 0.804198 0.723885
0.969514 0.829935 0.768212
0.974978 0.853006 0.803339
0.976586 0.863769 0.837598
0.975985 0.870090 0.870075
0.975214 0.877869 0.888411
0.974354 0.887922 0.899526
0.973732 0.899845 0.904497
0.452121 0.842784 0.168379
0.452158 0.842797 0.168462
0.452210 0.842814 0.168578
0.452282 0.842839 0.168739
0.452383 0.842873 0.168964
0.452523 0.842920 0.169278
0.452719 0.842986 0.169714
0.452990 0.843077 0.170321
0.456277 0.844082 0.174295
0.464089 0.846454 0.183243
0.474612 0.849328 0.195108
0.489233 0.853210 0.210992
0.507032 0.857684 0.232206
0.529638 0.863016 0.259001
0.557838 0.869667 0.291620
0.607877 0.876582 0.322636
0.699111 0.879573 0.335019
0.791743 0.878200 0.327111
0.845319 0.875910 0.318404
0.880613 0.871315 0.321090
0.905065 0.863297 0.372133
0.922834 0.851101 0.434457
0.937609 0.832810 0.514776
0.949058 0.813912 0.594865
0.957908 0.807458 0.667575
0.964866 0.817759 0.725410
0.970428 0.837113 0.769858
0.975729 0.857003 0.804373
0.977049 0.867015 0.838360
0.976513 0.872391 0.870702
0.975722 0.879950 0.888968
0.974714 0.889263 0.899737
0.973726 0.899943 0.904537
0.555044 0.869006 0.289782
0.555067 0.869012 0.289836
0.555100 0.869020 0.289912
0.555147 0.869031 0.290018
0.555212 0.869046 0.290167
0.555302 0.869068 0.290373
0.555428 0.869098 0.290660
0.555595 0.869140 0.291061
0.555827 0.869198 0.291618
0.559417 0.870113 0.296338
0.566001 0.871793 0.304746
0.574701 0.873997 0.314692
0.586670 0.877032 0.327920
0.602183 0.880868 0.345319
0.621748 0.884908 0.368199
0.644467 0.889759 0.396323
0.685064 0.894806 0.423489
0.756577 0.896837 0.437453
0.828541 0.895976 0.435614
0.872747 0.894467 0.431668
0.901717 0.891336 0.437339
0.921795 0.885324 0.477355
0.937034 0.875980 0.531562
0.949308 0.860402 0.599213
0.958514 0.845487 0.665745
0.966268 0.839965 0.725215
0.971513 0.847628 0.771042
0.976456 0.863021 0.805369
0.977688 0.871213 0.839455
0.977188 0.875570 0.871490
0.976399 0.882879 0.889661
0.975371 0.891674 0.900091
0.974200 0.901181 0.904769
0.641457 0.889172 0.394406
0.641471 0.889175 0.394436
0.641491 0.889179 0.394479
0.641518 0.889184 0.394539
0.641556 0.889192 0.394621
0.641610 0.889203 0.394737
0.641684 0.889219 0.394898
0.641788 0.889240 0.395123
0.641932 0.889269 0.395436
0.642133 0.889310 0.395871
0.645739 0.890085 0.400153
0.651388 0.891303 0.406829
0.658923 0.892940 0.415714
0.669042 0.895177 0.427735
0.681797 0.897875 0.443420
0.696921 0.901340 0.463736
0.715589 0.905720 0.487361
0.747246 0.909891 0.511998
0.802331 0.911292 0.526569
0.858930 0.910726 0.527694
0.895009 0.909697 0.526279
0.919085 0.907459 0.533212
0.936084 0.902983 0.566461
0.949110 0.894470 0.613407
0.958542 0.882492 0.669826
0.966569 0.870826 0.723654
0.972477 0.865746 0.770750
0.977211 0.872121 0.805978
0.978496 0.876924 0.840689
0.978041 0.880314 0.872330
0.977275 0.886731 0.890581
0.976228 0.894992 0.900519
0.975037 0.903342 0.905156
0.712853 0.905118 0.485349
0.712861 0.905120 0.485368
0.712872 0.905123 0.485395
0.712887 0.905126 0.485432
0.712909 0.905132 0.485485
0.712939 0.905139 0.485557
0.712981 0.905148 0.485659
0.713040 0.905162 0.485800
0.713122 0.905181 0.485998
0.713236 0.905208 0.486272
0.713394 0.905245 0.486654
0.716582 0.906025 0.490844
0.721046 0.907124 0.496738
0.727075 0.908624 0.504661
0.735299 0.910170 0.515531
0.745290 0.912060 0.529859
0.757375 0.914515 0.547828
0.772080 0.917640 0.568638
0.796534 0.920748 0.590818
0.839499 0.922151 0.604823
0.884437 0.921861 0.607096
0.913905 0.921111 0.606977
0.933966 0.919217 0.613966
0.948336 0.915560 0.641871
0.958293 0.909295 0.680837
0.966463 0.900291 0.727072
0.973064 0.889715 0.769409
0.977907 0.885875 0.805697
0.979359 0.886465 0.841529
0.979047 0.887833 0.873064
0.978338 0.892569 0.891570
0.977308 0.899511 0.901077
0.976107 0.906245 0.905506
0.769738 0.917172 0.566605
0.769742 0.917173 0.566617
0.769749 0.917174 0.566634
0.769758 0.917176 0.566657
0.769770 0.917179 0.566690
0.769788 0.917182 0.566736
0.769812 0.917187 0.566800
0.769845 0.917194 0.566889
0.769893 0.917204 0.567014
0.769958 0.917217 0.567187
0.770049 0.917235 0.567429
0.770258 0.917279 0.567876
0.772932 0.917853 0.571731
0.776550 0.918632 0.576966
0.781473 0.919676 0.584053
0.788105 0.920954 0.593660
0.795625 0.922653 0.606306
0.804941 0.924864 0.621470
0.816631 0.927684 0.639120
0.835931 0.930166 0.658461
0.869830 0.931066 0.671212
0.905843 0.930812 0.673994
0.929918 0.930262 0.674571
0.946613 0.928901 0.680466
0.957724 0.926269 0.703631
0.966230 0.920894 0.735293
0.973254 0.913186 0.771538
0.978261 0.905365 0.804521
0.979963 0.901798 0.841694
0.979538 0.901313 0.873090
0.979194 0.902238 0.892383
0.978596 0.905238 0.901669
0.977407 0.910401 0.905880
0.814802 0.927230 0.637172
0.814804 0.927230 0.637180
0.814808 0.927231 0.637190
0.814813 0.927232 0.637205
0.814820 0.927234 0.637225
0.814830 0.927236 0.637253
0.814843 0.927239 0.637293
0.814862 0.927244 0.637348
0.814889 0.927250 0.637424
0.814926 0.927259 0.637532
0.814977 0.927271 0.637681
0.815048 0.927287 0.637889
0.815310 0.927350 0.638417
0.817426 0.927867 0.641743
0.820299 0.928548 0.646266
0.824159 0.929398 0.652417
0.829302 0.930313 0.660778
0.835561 0.931464 0.671697
0.842859 0.932976 0.684059
0.851957 0.934879 0.698898
0.867339 0.936601 0.715177
0.893814 0.937463 0.726305
0.923313 0.937324 0.728911
0.942928 0.936915 0.729601
0.956292 0.935784 0.734703
0.965785 0.933502 0.753327
0.973042 0.929743 0.778597
0.978323 0.924252 0.806033
0.978915 0.920517 0.841190
0.978548 0.919237 0.871870
0.978318 0.917901 0.892120
0.978231 0.916768 0.901753
0.978119 0.917516 0.906132
0.850468 0.934579 0.697185
0.850469 0.934579 0.697190
0.850471 0.934580 0.697196
0.850474 0.934580 0.697204
0.850478 0.934581 0.697216
0.850483 0.934582 0.697233
0.850490 0.934584 0.697257
0.850500 0.934586 0.697290
0.850515 0.934589 0.697336
0.850535 0.934593 0.697400
0.850563 0.934599 0.697489
0.850602 0.934607 0.697614
0.850656 0.934618 0.697787
0.850908 0.934672 0.698314
0.852529 0.934982 0.701108
0.854735 0.935392 0.704912
0.857781 0.935961 0.710082
0.861831 0.936723 0.717064
0.867139 0.937729 0.726198
0.873218 0.939066 0.736087
0.880181 0.940666 0.748038
0.892151 0.942194 0.761179
0.913535 0.942991 0.769789
0.937300 0.942935 0.772217
0.953424 0.942626 0.773098
0.964617 0.941670 0.777880
0.972658 0.939704 0.792451
0.978311 0.936585 0.811315
0.978123 0.934520 0.839574
0.977739 0.933670 0.869811
0.977481 0.932676 0.890779
0.977399 0.931308 0.901141
0.977420 0.929664 0.905895
0.878966 0.940417 0.746623
0.878967 0.940417 0.746625
0.878968 0.940417 0.746629
0.878970 0.940418 0.746634
0.878972 0.940418 0.746641
0.878975 0.940419 0.746650
0.878979 0.940419 0.746664
0.878985 0.940421 0.746683
0.878993 0.940422 0.746709
0.879005 0.940424 0.746745
0.879021 0.940427 0.746796
0.879043 0.940432 0.746867
0.879074 0.940438 0.746967
0.879116 0.940446 0.747106
0.879344 0.940493 0.747582
0.880601 0.940757 0.749822
0.882320 0.941118 0.752882
0.884706 0.941621 0.757047
0.887866 0.942291 0.762660
0.892022 0.943180 0.769611
0.897315 0.944346 0.777999
0.903147 0.945576 0.787695
0.912349 0.946539 0.797887
0.929971 0.946987 0.804132
0.949204 0.946873 0.806094
0.962454 0.946616 0.806861
0.971770 0.945930 0.810598
0.977755 0.944568 0.823191
0.977596 0.943681 0.838469
0.977212 0.943255 0.867133
0.976929 0.942719 0.888031
0.976780 0.942045 0.900248
0.976763 0.940994 0.905262
0.902194 0.945413 0.786572
0.902195 0.945413 0.786574
0.902195 0.945413 0.786576
0.902196 0.945413 0.786578
0.902197 0.945413 0.786582
0.902199 0.945413 0.786588
0.902201 0.945414 0.786595
0.902204 0.945414 0.786605
0.902209 0.945415 0.786620
0.902215 0.945416 0.786640
0.902224 0.945417 0.786668
0.902236 0.945419 0.786708
0.902253 0.945422 0.786763
0.902277 0.945426 0.786839
0.902310 0.945431 0.786946
0.902502 0.945463 0.787339
0.903475 0.945631 0.789071
0.904806 0.945862 0.791437
