Assets/Data/Textures/70 CGC LUTs/LUTs_AgX_Filmic_ViewTransforms/ARRILogC4AWG4-to-JP2499DRT-ClassicCinemaNegative-sRGB.cube
#  Baked from the PixelManager OCIO config by Joe Genco
#  https://github.com/Joegenco/PixelManager
#  Input Gamma: Arri LogC4
#  Input Color Space: Arri Wide Gamut 4
#  floating point data (range 0.0 - 1.0)   
#       
#  Output Gamma: Gamma 2.2 (Display)
#  Output Color Space: Rec.709
#  floating point data (range 0.0 - 1.0)
LUT_3D_SIZE 33
0.005105 0.019901 0.031404
0.005105 0.019901 0.031404
0.005105 0.019901 0.031404
0.005672 0.019920 0.031410
0.037416 0.020342 0.031115
0.079353 0.018154 0.027458
0.130242 0.014878 0.021630
0.187671 0.018588 0.020423
0.253782 0.022240 0.021531
0.325050 0.027312 0.025650
0.405376 0.033810 0.030934
0.491580 0.042373 0.036809
0.574455 0.053241 0.042704
0.652602 0.066662 0.048868
0.723768 0.088241 0.054638
0.786942 0.124261 0.061161
0.840753 0.181686 0.069692
0.884276 0.255356 0.083943
0.918826 0.335035 0.112885
0.945699 0.416294 0.170393
0.964305 0.496681 0.258246
0.975754 0.573978 0.353447
0.983127 0.646783 0.444008
0.987786 0.713082 0.529060
0.990667 0.771231 0.607447
0.991731 0.820430 0.677595
0.992435 0.860623 0.737966
0.992373 0.892516 0.789005
0.991864 0.905625 0.841145
0.990880 0.912968 0.892977
0.989881 0.923094 0.927558
0.988997 0.933466 0.948898
0.988177 0.944345 0.961884
0.005105 0.019901 0.031404
0.005105 0.019901 0.031404
0.005105 0.019901 0.031404
0.005452 0.019913 0.031408
0.037104 0.020346 0.031129
0.079088 0.018181 0.027480
0.130046 0.014868 0.021631
0.187520 0.018576 0.020418
0.253647 0.022235 0.021522
0.324950 0.027303 0.025643
0.405999 0.033879 0.030985
0.491976 0.042416 0.036853
0.574725 0.053295 0.042736
0.652759 0.066721 0.048918
0.723862 0.088311 0.054674
0.787022 0.124385 0.061229
0.840810 0.181801 0.069804
0.884323 0.255449 0.084119
0.918862 0.335104 0.113132
0.945721 0.416343 0.170695
0.964312 0.496712 0.258529
0.975755 0.573997 0.353628
0.983127 0.646795 0.444132
0.987785 0.713090 0.529142
0.990667 0.771236 0.607501
0.991731 0.820433 0.677627
0.992434 0.860625 0.737986
0.992373 0.892517 0.789017
0.991864 0.905625 0.841152
0.990879 0.912968 0.892981
0.989881 0.923095 0.927560
0.988997 0.933467 0.948899
0.988177 0.944345 0.961884
0.005105 0.019901 0.031404
0.005105 0.019901 0.031404
0.005105 0.019901 0.031404
0.005105 0.019901 0.031404
0.036664 0.020350 0.031148
0.078716 0.018219 0.027512
0.129771 0.014855 0.021633
0.187309 0.018559 0.020409
0.253458 0.022227 0.021510
0.324811 0.027291 0.025634
0.406764 0.033965 0.031048
0.492508 0.042478 0.036912
0.575098 0.053376 0.042785
0.652977 0.066804 0.048986
0.723993 0.088408 0.054724
0.787132 0.124558 0.061323
0.840890 0.181960 0.069964
0.884387 0.255578 0.084365
0.918912 0.335202 0.113477
0.945752 0.416412 0.171117
0.964321 0.496757 0.258922
0.975755 0.574023 0.353882
0.983126 0.646813 0.444304
0.987785 0.713102 0.529256
0.990666 0.771243 0.607577
0.991730 0.820437 0.677673
0.992434 0.860627 0.738014
0.992373 0.892519 0.789034
0.991864 0.905626 0.841161
0.990879 0.912969 0.892987
0.989881 0.923096 0.927562
0.988997 0.933467 0.948900
0.988177 0.944346 0.961885
0.005105 0.019901 0.031404
0.005105 0.019901 0.031404
0.005105 0.019901 0.031404
0.005105 0.019901 0.031404
0.036039 0.020357 0.031176
0.078241 0.018225 0.027561
0.129386 0.014836 0.021636
0.187014 0.018535 0.020398
0.253196 0.022217 0.021492
0.324616 0.027273 0.025620
0.407784 0.034080 0.031135
0.493211 0.042560 0.036990
0.575607 0.053490 0.042852
0.653274 0.066917 0.049080
0.724173 0.088543 0.054792
0.787287 0.124798 0.061457
0.841004 0.182182 0.070202
0.884477 0.255757 0.084707
0.918981 0.335337 0.113958
0.945794 0.416509 0.171706
0.964335 0.496818 0.259471
0.975756 0.574060 0.354235
0.983126 0.646837 0.444546
0.987784 0.713117 0.529415
0.990666 0.771253 0.607682
0.991730 0.820443 0.677736
0.992433 0.860631 0.738053
0.992373 0.892520 0.789057
0.991864 0.905627 0.841174
0.990879 0.912971 0.892995
0.989881 0.923097 0.927566
0.988997 0.933468 0.948901
0.988177 0.944346 0.961885
0.006135 0.042017 0.030430
0.006127 0.041936 0.030437
0.006117 0.041821 0.030448
0.006102 0.041659 0.030463
0.052324 0.053104 0.028120
0.120876 0.038108 0.020817
0.177243 0.024261 0.019672
0.230479 0.022866 0.020824
0.287007 0.025455 0.023469
0.349178 0.029416 0.027085
0.426513 0.036254 0.032242
0.504400 0.043755 0.037781
0.581440 0.054472 0.043271
0.655243 0.067487 0.049278
0.724421 0.088727 0.054887
0.787505 0.125129 0.061663
0.841163 0.182490 0.070533
0.884601 0.256005 0.085188
0.919078 0.335525 0.114627
0.945854 0.416643 0.172525
0.964351 0.496902 0.260215
0.975756 0.574111 0.354728
0.983125 0.646871 0.444882
0.987782 0.713139 0.529637
0.990665 0.771266 0.607830
0.991729 0.820451 0.677824
0.992433 0.860635 0.738107
0.992372 0.892523 0.789089
0.991863 0.905629 0.841192
0.990879 0.912973 0.893007
0.989881 0.923099 0.927571
0.988997 0.933470 0.948904
0.988177 0.944347 0.961886
0.005335 0.073980 0.022679
0.005328 0.073905 0.022710
0.005317 0.073802 0.022752
0.005303 0.073656 0.022811
0.003301 0.105963 0.018077
0.110321 0.101981 0.014597
0.196042 0.084390 0.015939
0.266983 0.056360 0.021076
0.329201 0.039119 0.025404
0.391902 0.037412 0.029672
0.461253 0.041199 0.034507
0.530645 0.047564 0.039491
0.600403 0.057652 0.044486
0.668262 0.071297 0.050045
0.732319 0.093109 0.055283
0.791096 0.128848 0.061978
0.842087 0.184019 0.070943
0.884775 0.256341 0.085880
0.919212 0.335787 0.115557
0.945937 0.416831 0.173666
0.964373 0.497017 0.261244
0.975757 0.574183 0.355416
0.983124 0.646918 0.445352
0.987781 0.713170 0.529948
0.990664 0.771285 0.608036
0.991728 0.820462 0.677947
0.992432 0.860642 0.738183
0.992372 0.892527 0.789134
0.991863 0.905631 0.841216
0.990879 0.912975 0.893023
0.989880 0.923101 0.927577
0.988996 0.933472 0.948906
0.988177 0.944349 0.961887
0.003090 0.115511 0.014296
0.003087 0.115433 0.014335
0.003082 0.115325 0.014389
0.003076 0.115173 0.014465
0.003605 0.144964 0.010781
0.044077 0.168732 0.006357
0.176771 0.160966 0.003947
0.272353 0.141780 0.015457
0.351850 0.112579 0.023712
0.427899 0.076345 0.030599
0.497325 0.057878 0.036317
0.561642 0.056879 0.041230
0.623931 0.063921 0.045882
0.685178 0.077281 0.051040
0.743997 0.100269 0.055872
0.798508 0.136730 0.062395
0.846673 0.191429 0.071259
0.886831 0.260855 0.086394
0.919660 0.336940 0.116717
0.946053 0.417091 0.175253
0.964404 0.497178 0.262674
0.975759 0.574283 0.356374
0.983123 0.646985 0.446007
0.987778 0.713212 0.530381
0.990662 0.771312 0.608324
0.991726 0.820478 0.678119
0.992430 0.860651 0.738289
0.992371 0.892531 0.789197
0.991862 0.905634 0.841251
0.990878 0.912979 0.893045
0.989880 0.923104 0.927586
0.988996 0.933475 0.948911
0.988177 0.944350 0.961889
0.003951 0.165400 0.006649
0.003950 0.165337 0.006648
0.003948 0.165249 0.006646
0.003946 0.165125 0.006644
0.004469 0.188679 0.006972
0.005684 0.223805 0.005939
0.116347 0.237004 0.005382
0.248892 0.227564 0.004648
0.355341 0.209981 0.015601
0.447194 0.181825 0.026518
0.525552 0.140550 0.035138
0.592725 0.098295 0.041894
0.651036 0.083770 0.046957
0.705884 0.090690 0.051990
0.758683 0.111144 0.056536
0.808160 0.148502 0.062807
0.852265 0.202052 0.071548
0.889888 0.269076 0.086838
0.921366 0.342933 0.117455
0.946729 0.419726 0.176835
0.964429 0.497394 0.264671
0.975761 0.574422 0.357708
0.983121 0.647077 0.446921
0.987775 0.713272 0.530984
0.990660 0.771348 0.608725
0.991724 0.820500 0.678359
0.992428 0.860664 0.738436
0.992370 0.892539 0.789285
0.991862 0.905638 0.841300
0.990878 0.912984 0.893077
0.989880 0.923109 0.927599
0.988996 0.933479 0.948917
0.988177 0.944353 0.961892
0.005114 0.223389 0.005950
0.005114 0.223340 0.005952
0.005115 0.223272 0.005953
0.005116 0.223175 0.005956
0.005109 0.240950 0.005683
0.005666 0.271555 0.005718
0.011809 0.305501 0.006982
0.190642 0.315083 0.005151
0.334095 0.307589 0.005056
0.447315 0.288662 0.016580
0.538383 0.258299 0.028126
0.613704 0.216132 0.037959
0.676841 0.164640 0.045891
0.728998 0.130736 0.052107
0.775352 0.135811 0.056940
0.819264 0.165473 0.063103
0.858906 0.217152 0.071786
0.893736 0.280709 0.087233
0.923586 0.351359 0.118316
0.947935 0.425710 0.178256
0.965065 0.501020 0.266490
0.975792 0.574825 0.359517
0.983119 0.647205 0.448192
0.987771 0.713355 0.531827
0.990656 0.771399 0.609285
0.991720 0.820531 0.678694
0.992426 0.860682 0.738643
0.992368 0.892548 0.789408
0.991861 0.905645 0.841367
0.990877 0.912992 0.893121
0.989879 0.923115 0.927617
0.988995 0.933484 0.948925
0.988176 0.944356 0.961895
0.006470 0.290416 0.006343
0.006480 0.290942 0.006349
0.006493 0.291613 0.006355
0.006513 0.292617 0.006366
0.006917 0.305594 0.006524
0.008413 0.331591 0.006963
0.009792 0.365478 0.007933
0.026033 0.398481 0.008694
0.272448 0.400251 0.006313
0.422209 0.390111 0.005983
0.534831 0.370300 0.017051
0.622471 0.339056 0.028653
0.691972 0.296625 0.039308
0.748571 0.243227 0.048662
0.793899 0.203953 0.055652
0.832579 0.207266 0.062221
0.867514 0.242867 0.071329
0.898871 0.298036 0.087398
0.926502 0.363166 0.119256
0.949531 0.434041 0.179868
0.965998 0.506908 0.268692
0.976280 0.578835 0.361217
0.983176 0.648070 0.449822
0.987764 0.713470 0.532999
0.990652 0.771471 0.610065
0.991716 0.820574 0.679161
0.992422 0.860707 0.738930
0.992366 0.892562 0.789580
0.991859 0.905653 0.841462
0.990875 0.913002 0.893183
0.989878 0.923124 0.927643
0.988995 0.933492 0.948936
0.988176 0.944361 0.961900
0.009992 0.370798 0.008108
0.010005 0.371116 0.008119
0.010023 0.371543 0.008133
0.010050 0.372265 0.008155
0.010367 0.379497 0.008394
0.011347 0.399811 0.008954
0.013382 0.426123 0.009383
0.015827 0.457103 0.010045
0.091670 0.486098 0.010149
0.357346 0.483955 0.006618
0.507760 0.473036 0.006709
0.616606 0.452142 0.017409
0.697373 0.420981 0.028304
0.758745 0.378824 0.039007
0.807129 0.327120 0.049391
0.845690 0.288638 0.058688
0.877237 0.289838 0.069300
0.905088 0.325503 0.085952
0.930284 0.380972 0.118939
0.951699 0.446211 0.181126
0.966990 0.515045 0.271252
0.976942 0.584439 0.363428
0.983473 0.651783 0.451462
0.987807 0.714568 0.534443
0.990645 0.771571 0.611152
0.991710 0.820634 0.679813
0.992417 0.860742 0.739332
0.992362 0.892581 0.789820
0.991857 0.905665 0.841594
0.990874 0.913016 0.893268
0.989877 0.923136 0.927678
0.988994 0.933503 0.948952
0.988175 0.944368 0.961907
0.015476 0.451685 0.009920
0.015490 0.451918 0.009927
0.015509 0.452237 0.009935
0.015536 0.452670 0.009947
0.015696 0.455409 0.010015
0.016608 0.470808 0.010398
0.018711 0.490611 0.010840
0.023028 0.514846 0.011361
0.029905 0.544229 0.012043
0.188583 0.567971 0.011788
0.442273 0.564418 0.007972
0.588984 0.552675 0.007662
0.690438 0.532733 0.017300
0.761433 0.502751 0.027372
0.813045 0.461731 0.037617
0.853450 0.411682 0.049227
0.885780 0.374298 0.063176
0.912077 0.374028 0.082330
0.934861 0.409085 0.116920
0.954454 0.464083 0.181773
0.968356 0.526971 0.274231
0.977833 0.592325 0.366249
0.983878 0.657015 0.453581
0.987963 0.717932 0.535985
0.990683 0.772723 0.612431
0.991701 0.820717 0.680720
0.992409 0.860792 0.739892
0.992358 0.892608 0.790154
0.991855 0.905682 0.841778
0.990871 0.913036 0.893388
0.989875 0.923153 0.927727
0.988993 0.933519 0.948974
0.988175 0.944377 0.961917
0.025014 0.531876 0.011701
0.025034 0.532069 0.011708
0.025061 0.532336 0.011719
0.025104 0.532706 0.011733
0.025168 0.533215 0.011755
0.026329 0.542927 0.012086
0.028179 0.557435 0.012578
0.036002 0.575613 0.013164
0.042846 0.598545 0.013874
0.080693 0.625901 0.014669
0.284692 0.643556 0.013808
0.526388 0.639006 0.008969
0.664234 0.628018 0.008341
0.754085 0.609445 0.017161
0.814223 0.581872 0.026081
0.856771 0.543450 0.036317
0.890003 0.495904 0.050455
0.916964 0.459860 0.072277
0.939461 0.458746 0.110296
0.957556 0.492367 0.181822
0.970081 0.544500 0.276848
0.978769 0.603729 0.369413
0.984430 0.664464 0.456298
0.988173 0.722630 0.537997
0.990743 0.775699 0.613891
0.991711 0.821821 0.681758
0.992399 0.860860 0.740671
0.992352 0.892645 0.790619
0.991851 0.905705 0.842035
0.990868 0.913063 0.893556
0.989873 0.923177 0.927795
0.988991 0.933540 0.949005
0.988174 0.944391 0.961930
0.046100 0.609151 0.014306
0.046141 0.609270 0.014312
0.046197 0.609435 0.014320
0.046274 0.609664 0.014331
0.046381 0.609979 0.014346
0.047746 0.614308 0.014511
0.052492 0.624414 0.014902
0.064743 0.637511 0.015310
0.078041 0.654222 0.016170
0.095470 0.675775 0.017534
0.176867 0.699103 0.018732
0.380755 0.711365 0.016868
0.607436 0.706265 0.010906
0.731629 0.696535 0.010543
0.807211 0.680606 0.017854
0.856642 0.655962 0.026005
0.891145 0.621881 0.037019
0.918492 0.578109 0.055710
0.941850 0.544563 0.094755
0.960318 0.542332 0.174977
0.971987 0.572311 0.277686
0.979764 0.620642 0.372407
0.985131 0.675105 0.459435
0.988448 0.729433 0.540624
0.990801 0.779795 0.615615
0.991745 0.824341 0.682943
0.992392 0.861841 0.741546
0.992343 0.892697 0.791268
0.991846 0.905737 0.842393
0.990863 0.913101 0.893789
0.989870 0.923211 0.927891
0.988989 0.933570 0.949049
0.988172 0.944409 0.961948
0.101865 0.681495 0.017961
0.101985 0.681568 0.017967
0.102151 0.681669 0.017976
0.102382 0.681810 0.017989
0.102701 0.682005 0.018007
0.103755 0.682682 0.018058
0.114069 0.689514 0.018531
0.128044 0.698220 0.019059
0.147182 0.709520 0.019726
0.172459 0.724594 0.020604
0.205226 0.743122 0.023181
0.292710 0.761416 0.025045
0.477931 0.770513 0.022195
0.683615 0.765405 0.014659
0.789938 0.757005 0.013936
0.850652 0.743799 0.020158
0.890251 0.723534 0.028445
0.918129 0.694443 0.042922
0.941373 0.656580 0.075869
0.961313 0.626041 0.156717
0.973585 0.621146 0.272158
0.980761 0.646720 0.374239
0.985897 0.690651 0.462340
0.988738 0.739081 0.543716
0.990869 0.785790 0.617892
0.991787 0.827826 0.684434
0.992386 0.863890 0.742559
0.992339 0.893496 0.791979
0.991838 0.905782 0.842892
0.990856 0.913155 0.894114
0.989865 0.923257 0.928024
0.988985 0.933611 0.949109
0.988170 0.944435 0.961974
0.209572 0.745529 0.023572
0.209661 0.745572 0.023580
0.209786 0.745634 0.023592
0.209960 0.745718 0.023608
0.210202 0.745836 0.023631
0.210537 0.746000 0.023662
0.215932 0.748609 0.024061
0.228295 0.754164 0.024853
0.244770 0.761505 0.025900
0.266471 0.771407 0.027223
0.292938 0.784045 0.028790
0.327666 0.799540 0.034266
0.406812 0.814370 0.037988
0.575072 0.821041 0.033495
0.751279 0.816194 0.022951
0.837952 0.809300 0.021230
0.885815 0.798627 0.026685
0.917099 0.783520 0.037281
0.940028 0.759862 0.063846
0.959755 0.728670 0.134853
0.973945 0.699365 0.257205
0.981375 0.692615 0.371204
0.986309 0.714100 0.464584
0.989088 0.752236 0.546800
0.990951 0.793910 0.620588
0.991847 0.832789 0.686419
0.992378 0.866686 0.743828
0.992337 0.895100 0.792826
0.991846 0.906562 0.843475
0.990847 0.913230 0.894567
0.989859 0.923322 0.928210
0.988981 0.933669 0.949189
0.988168 0.944470 0.962011
0.328431 0.800074 0.034494
0.328519 0.800111 0.034520
0.328643 0.800161 0.034556
0.328815 0.800231 0.034606
0.329055 0.800329 0.034676
0.329388 0.800465 0.034772
0.329850 0.800653 0.034907
0.338352 0.803989 0.036097
0.350115 0.808707 0.037678
0.365824 0.814924 0.039734
0.386931 0.823335 0.042411
0.414086 0.834117 0.046791
0.449059 0.846587 0.059322
0.522526 0.858731 0.068339
0.668364 0.863576 0.061762
0.810321 0.859343 0.045402
0.877918 0.853936 0.041140
0.914688 0.845722 0.046062
0.939445 0.835209 0.070597
0.958145 0.817027 0.127781
0.972273 0.790355 0.243171
0.980863 0.762339 0.362683
0.986212 0.755065 0.463158
0.989372 0.772970 0.548690
0.991066 0.804719 0.623379
0.991930 0.839061 0.688806
0.992362 0.870713 0.745524
0.992332 0.897335 0.793868
0.991866 0.908052 0.844187
0.990861 0.914239 0.895343
0.989851 0.923413 0.928469
0.988975 0.933750 0.949301
0.988164 0.944520 0.962061
0.447756 0.846358 0.059357
0.447819 0.846380 0.059400
0.447906 0.846411 0.059460
0.448027 0.846454 0.059544
0.448196 0.846514 0.059660
0.448432 0.846598 0.059822
0.448759 0.846714 0.060047
0.450979 0.847456 0.060922
0.459747 0.850348 0.063920
0.471702 0.854308 0.067988
0.487760 0.859621 0.072990
0.508916 0.866621 0.079124
0.536185 0.875353 0.094219
0.570067 0.885039 0.119768
0.634311 0.894554 0.142366
0.752378 0.898389 0.138531
0.860343 0.895472 0.114682
0.911075 0.891595 0.103865
0.938793 0.885605 0.107125
0.957267 0.877546 0.164873
0.970440 0.862614 0.252612
0.979163 0.839404 0.358977
0.985137 0.815137 0.457858
0.989214 0.807983 0.547793
0.990993 0.822454 0.625192
0.992010 0.847985 0.691278
0.992369 0.875470 0.747572
0.992327 0.900438 0.795279
0.991893 0.910232 0.845064
0.990887 0.916125 0.896482
0.989886 0.924466 0.929151
0.988966 0.933863 0.949458
0.988159 0.944590 0.962132
0.567802 0.884450 0.119176
0.567842 0.884462 0.119239
0.567898 0.884480 0.119326
0.567976 0.884504 0.119448
0.568085 0.884538 0.119619
0.568237 0.884586 0.119856
0.568448 0.884652 0.120186
0.568743 0.884744 0.120645
0.572262 0.885726 0.123443
0.580628 0.888045 0.129692
0.591746 0.891122 0.138039
0.607188 0.895399 0.149369
0.626640 0.900974 0.163875
0.650377 0.907178 0.188402
0.680385 0.914038 0.220330
0.732129 0.920691 0.253838
0.820481 0.923391 0.263187
0.898141 0.922004 0.250959
0.935338 0.919953 0.241154
0.955899 0.915862 0.245456
0.968522 0.908767 0.300468
0.977292 0.896329 0.372937
0.983206 0.877550 0.458928
0.987946 0.857851 0.544109
0.990545 0.851275 0.624712
0.991976 0.862653 0.692873
0.992329 0.882620 0.749697
0.992337 0.904153 0.796908
0.991888 0.913243 0.846431
0.990898 0.918844 0.897755
0.989928 0.926405 0.930282
0.989004 0.935181 0.950127
0.988152 0.944687 0.962230
0.677266 0.913422 0.218647
0.677293 0.913428 0.218703
0.677329 0.913436 0.218781
0.677381 0.913447 0.218891
0.677452 0.913463 0.219043
0.677552 0.913484 0.219256
0.677691 0.913514 0.219552
0.677881 0.913556 0.219965
0.678146 0.913615 0.220539
0.682144 0.914493 0.225257
0.689013 0.916120 0.233876
0.698117 0.918285 0.245322
0.710640 0.921269 0.260830
0.726738 0.924981 0.279352
0.746248 0.929534 0.301242
0.768911 0.934748 0.329678
0.807466 0.939398 0.359615
0.871359 0.941308 0.371786
0.924482 0.940665 0.368968
0.951191 0.939497 0.365436
0.966232 0.936723 0.372044
0.975567 0.931360 0.415238
0.981481 0.921745 0.473570
0.986115 0.907037 0.547164
0.989358 0.891413 0.622029
0.991493 0.885635 0.692657
0.992149 0.894311 0.751118
0.992318 0.909734 0.798586
0.991859 0.917645 0.848336
0.990903 0.922585 0.899193
0.989980 0.929135 0.931708
0.989066 0.937551 0.951266
0.988217 0.945937 0.962894
0.765895 0.934205 0.327559
0.765909 0.934208 0.327593
0.765929 0.934212 0.327641
0.765956 0.934217 0.327708
0.765995 0.934225 0.327801
0.766049 0.934235 0.327932
0.766124 0.934249 0.328113
0.766228 0.934269 0.328366
0.766374 0.934297 0.328718
0.766576 0.934335 0.329208
0.770197 0.935056 0.333997
0.775871 0.936188 0.341459
0.783440 0.937710 0.351382
0.793186 0.939791 0.364570
0.804486 0.942422 0.380042
0.818961 0.945825 0.399894
0.836458 0.950067 0.424703
0.863147 0.953458 0.451272
0.906212 0.954999 0.465504
0.943230 0.954764 0.466704
0.962689 0.954077 0.465768
0.973682 0.952139 0.473609
0.980094 0.948231 0.511141
0.984606 0.940741 0.561828
0.987903 0.929439 0.625868
0.990354 0.917093 0.690731
0.991651 0.912314 0.751019
0.992182 0.918776 0.799713
0.991778 0.924147 0.850478
0.990930 0.927010 0.900850
0.990036 0.932868 0.933589
0.989140 0.940796 0.952689
0.988333 0.948120 0.964014
0.834214 0.949553 0.422488
0.834221 0.949555 0.422509
0.834230 0.949557 0.422539
0.834243 0.949561 0.422580
0.834260 0.949566 0.422637
0.834285 0.949573 0.422717
0.834320 0.949583 0.422829
0.834368 0.949597 0.422985
0.834435 0.949616 0.423203
0.834529 0.949642 0.423505
0.834659 0.949679 0.423925
0.837281 0.950298 0.428588
0.840958 0.951127 0.435170
0.845926 0.952257 0.444015
0.852649 0.953747 0.455057
0.861400 0.955665 0.469352
0.872138 0.958169 0.487781
0.883189 0.961394 0.510812
0.902071 0.964203 0.534841
0.930793 0.965425 0.549713
0.956631 0.965384 0.552866
0.970675 0.964986 0.553376
0.978516 0.963625 0.561732
0.983426 0.960757 0.594875
0.986762 0.954818 0.639290
0.989092 0.946264 0.694589
0.990759 0.936502 0.749612
0.991785 0.932714 0.799666
0.991618 0.933131 0.852293
0.990882 0.934207 0.902450
0.990053 0.938608 0.935700
0.989261 0.944398 0.954608
0.988476 0.951053 0.965346
0.881428 0.960912 0.508541
0.881431 0.960913 0.508555
0.881436 0.960915 0.508574
0.881443 0.960917 0.508600
0.881452 0.960919 0.508637
0.881465 0.960923 0.508689
0.881483 0.960928 0.508761
0.881509 0.960935 0.508862
0.881544 0.960945 0.509002
0.881593 0.960959 0.509198
0.881662 0.960979 0.509470
0.881819 0.961024 0.509972
0.883829 0.961616 0.514297
0.886549 0.962421 0.520167
0.890260 0.963335 0.527759
0.895264 0.964384 0.537850
0.901420 0.965774 0.551082
0.907833 0.967613 0.568183
0.915878 0.969954 0.589205
0.928325 0.972358 0.610932
0.948185 0.973316 0.625360
0.966188 0.973355 0.629437
0.976247 0.973124 0.630763
0.982164 0.972154 0.638769
0.985823 0.969794 0.667688
0.988135 0.965247 0.706186
0.989781 0.958854 0.752951
0.991118 0.951115 0.798628
0.991127 0.947376 0.853266
0.990438 0.946634 0.903159
0.989845 0.947323 0.937825
0.989304 0.950176 0.956507
0.988621 0.955250 0.967010
0.914618 0.969576 0.586875
0.914619 0.969577 0.586884
0.914622 0.969577 0.586896
0.914625 0.969578 0.586913
0.914630 0.969580 0.586937
0.914637 0.969581 0.586971
0.914646 0.969584 0.587018
0.914659 0.969588 0.587083
0.914677 0.969593 0.587174
0.914703 0.969600 0.587301
0.914738 0.969610 0.587477
0.914787 0.969624 0.587723
0.914967 0.969676 0.588350
0.916423 0.970104 0.592309
0.918398 0.970679 0.597470
0.921005 0.971442 0.604221
0.924440 0.972466 0.613352
0.928037 0.973504 0.625428
0.932590 0.974810 0.640730
0.938197 0.976466 0.659739
0.946611 0.978162 0.678931
0.960448 0.979168 0.692179
0.973074 0.979350 0.696302
0.980423 0.979208 0.697923
0.984755 0.978364 0.705456
0.987348 0.976352 0.730304
0.989061 0.973007 0.762836
0.990388 0.967974 0.801544
0.990100 0.964547 0.853309
0.989467 0.963163 0.902002
0.988972 0.961749 0.938472
0.988718 0.960627 0.957613
0.988503 0.961123 0.968328
0.937297 0.976193 0.657536
0.937298 0.976194 0.657541
0.937299 0.976194 0.657549
0.937300 0.976195 0.657560
0.937303 0.976195 0.657576
0.937306 0.976196 0.657597
0.937310 0.976197 0.657627
0.937316 0.976199 0.657669
0.937325 0.976202 0.657728
0.937337 0.976205 0.657809
0.937353 0.976210 0.657923
0.937377 0.976217 0.658082
0.937409 0.976227 0.658302
0.937560 0.976274 0.658976
0.938535 0.976564 0.662463
0.939860 0.976956 0.666877
0.941691 0.977499 0.672874
0.943970 0.978228 0.680979
0.946415 0.979203 0.691613
0.949569 0.980310 0.704899
0.953310 0.981443 0.721692
0.959350 0.982622 0.738181
0.969016 0.983333 0.749668
0.978160 0.983480 0.753594
0.983257 0.983411 0.755296
0.986485 0.982783 0.761997
0.988433 0.981288 0.782912
0.989789 0.978845 0.809649
0.989354 0.977131 0.851375
0.988716 0.976080 0.899327
0.988193 0.974881 0.936855
0.987935 0.973424 0.957562
0.987842 0.971774 0.968829
0.952653 0.981253 0.719694
0.952653 0.981253 0.719698
0.952654 0.981254 0.719702
0.952655 0.981254 0.719709
0.952656 0.981254 0.719719
0.952658 0.981254 0.719732
0.952660 0.981255 0.719751
0.952663 0.981256 0.719777
0.952667 0.981257 0.719814
0.952673 0.981259 0.719865
0.952682 0.981261 0.719936
0.952694 0.981264 0.720035
0.952710 0.981268 0.720174
0.952732 0.981274 0.720367
0.952854 0.981309 0.721034
0.953529 0.981508 0.723947
0.954452 0.981780 0.727749
0.955733 0.982159 0.732924
0.957431 0.982664 0.739895
0.959198 0.983342 0.748879
0.961217 0.984235 0.760226
0.963749 0.985283 0.774576
0.968107 0.986087 0.788461
0.974707 0.986583 0.798033
0.981356 0.986687 0.801529
0.985330 0.986636 0.803115
0.987713 0.986179 0.808855
0.989201 0.985069 0.826297
0.988927 0.984205 0.850165
0.988307 0.983563 0.895475
0.987768 0.982827 0.932452
0.987414 0.982038 0.956597
0.987273 0.980991 0.968562
0.963293 0.985124 0.772825
0.963293 0.985124 0.772827
0.963294 0.985124 0.772830
0.963294 0.985124 0.772834
0.963295 0.985125 0.772840
0.963295 0.985125 0.772848
0.963296 0.985125 0.772860
0.963298 0.985126 0.772876
0.963300 0.985126 0.772898
0.963303 0.985128 0.772930
0.963307 0.985129 0.772973
0.963312 0.985131 0.773034
0.963320 0.985134 0.773118
0.963331 0.985139 0.773236
0.963346 0.985144 0.773400
0.963436 0.985182 0.774008
0.963896 0.985323 0.776555
0.964529 0.985510 0.779725
