Assets/Data/Textures/70 CGC LUTs/LUTs_AgX_Filmic_ViewTransforms/ARRILogC4AWG4-to-Filmic-sRGB.cube
#  Baked from the PixelManager OCIO config by Joe Genco
#  https://github.com/Joegenco/PixelManager
#  Input Gamma: Arri LogC4
#  Input Color Space: Arri Wide Gamut 4
#  floating point data (range 0.0 - 1.0)   
#       
#  Output Gamma: Gamma 2.2 (Display)
#  Output Color Space: Rec.709
#  floating point data (range 0.0 - 1.0)
LUT_3D_SIZE 33
1.4778452168684e-05 1.4778452168684e-05 1.4778452168684e-05
1.4778452168684e-05 1.4778452168684e-05 1.4778452168684e-05
0.01735932379961 1.4778452168684e-05 1.4778452168684e-05
0.14166596531868 1.4778452168684e-05 1.4778452168684e-05
0.23562401533127 1.4778452168684e-05 1.4778452168684e-05
0.32325726747513 1.4778452168684e-05 1.4778452168684e-05
0.40784910321236 1.4778452168684e-05 1.4778452168684e-05
0.48963156342506 1.4778452168684e-05 1.4778452168684e-05
0.56685620546341 1.4778452168684e-05 1.4778452168684e-05
0.63917338848114 1.4778452168684e-05 1.4778452168684e-05
0.70555031299591 1.4778452168684e-05 1.4778452168684e-05
0.7650460600853 1.4778452168684e-05 1.4778452168684e-05
0.81708866357803 1.4778452168684e-05 1.4778452168684e-05
0.86150908470154 1.4778452168684e-05 1.4778452168684e-05
0.89850217103958 1.4778452168684e-05 1.4778452168684e-05
0.92854809761047 1.4778452168684e-05 1.4778452168684e-05
0.95231300592422 1.4778452168684e-05 1.4778452168684e-05
0.97055840492249 1.4778452168684e-05 1.4778452168684e-05
0.98406660556793 1.4778452168684e-05 1.4778452168684e-05
0.99358654022217 0.013784732669592 0.013784732669592
0.99980318546295 0.06933656334877 0.06933656334877
1 0.160714417696 0.160714417696
1 0.29687711596489 0.29687711596489
1 0.45490682125092 0.45490682125092
1 0.6107457280159 0.6107457280159
1 0.75102299451828 0.75102299451828
1 0.85794377326965 0.85794377326965
1 0.93049144744873 0.93049144744873
1 0.97407466173172 0.97407466173172
1 0.9962170124054 0.9962170124054
1 1 1
1 1 1
1 1 1
1.4778452168684e-05 1.4778452168684e-05 1.4778452168684e-05
1.4778452168684e-05 1.4778452168684e-05 1.4778452168684e-05
1.4778452168684e-05 1.4778452168684e-05 1.4778452168684e-05
0.12272622436285 1.4778452168684e-05 1.4778452168684e-05
0.22376948595047 1.4778452168684e-05 1.4778452168684e-05
0.31520891189575 1.4778452168684e-05 1.4778452168684e-05
0.40229424834251 1.4778452168684e-05 1.4778452168684e-05
0.48581665754318 1.4778452168684e-05 1.4778452168684e-05
0.56431090831757 1.4778452168684e-05 1.4778452168684e-05
0.63748413324356 1.4778452168684e-05 1.4778452168684e-05
0.70445472002029 1.4778452168684e-05 1.4778452168684e-05
0.76435244083405 1.4778452168684e-05 1.4778452168684e-05
0.81666016578674 1.4778452168684e-05 1.4778452168684e-05
0.86125063896179 1.4778452168684e-05 1.4778452168684e-05
0.89835011959076 1.4778452168684e-05 1.4778452168684e-05
0.92846101522446 1.4778452168684e-05 1.4778452168684e-05
0.95226442813873 1.4778452168684e-05 1.4778452168684e-05
0.97053217887878 1.4778452168684e-05 1.4778452168684e-05
0.98405301570892 1.4778452168684e-05 1.4778452168684e-05
0.9935799241066 0.013759679161012 0.013759679161012
0.99980026483536 0.069298289716244 0.069298289716244
1 0.16065980494022 0.16065980494022
1 0.29683297872543 0.29683297872543
1 0.45486807823181 0.45486807823181
1 0.61072140932083 0.61072140932083
1 0.75100892782211 0.75100892782211
1 0.85793626308441 0.85793626308441
1 0.93048810958862 0.93048810958862
1 0.97407329082489 0.97407329082489
1 0.99621665477753 0.99621665477753
1 1 1
1 1 1
1 1 1
1.4778452168684e-05 1.4778452168684e-05 1.4778452168684e-05
1.4778452168684e-05 1.4778452168684e-05 1.4778452168684e-05
1.4778452168684e-05 1.4778452168684e-05 1.4778452168684e-05
0.092281095683575 1.4778452168684e-05 1.4778452168684e-05
0.20608107745647 1.4778452168684e-05 1.4778452168684e-05
0.30348160862923 1.4778452168684e-05 1.4778452168684e-05
0.39429914951324 1.4778452168684e-05 1.4778452168684e-05
0.48036962747574 1.4778452168684e-05 1.4778452168684e-05
0.56069195270538 1.4778452168684e-05 1.4778452168684e-05
0.6350947022438 1.4778452168684e-05 1.4778452168684e-05
0.70291012525558 1.4778452168684e-05 1.4778452168684e-05
0.76337659358978 1.4778452168684e-05 1.4778452168684e-05
0.81605815887451 1.4778452168684e-05 1.4778452168684e-05
0.86088806390762 1.4778452168684e-05 1.4778452168684e-05
0.89813709259033 1.4778452168684e-05 1.4778452168684e-05
0.92833882570267 1.4778452168684e-05 1.4778452168684e-05
0.9521963596344 1.4778452168684e-05 1.4778452168684e-05
0.9704954624176 1.4778452168684e-05 1.4778452168684e-05
0.98403400182724 1.4778452168684e-05 1.4778452168684e-05
0.99357062578201 0.013724759221077 0.013724759221077
0.99979621171951 0.069245077669621 0.069245077669621
1 0.16058267652988 0.16058267652988
1 0.29677149653435 0.29677149653435
1 0.45481383800507 0.45481383800507
1 0.61068660020828 0.61068660020828
1 0.75098896026611 0.75098896026611
1 0.85792589187622 0.85792589187622
1 0.93048357963562 0.93048357963562
1 0.97407156229019 0.97407156229019
1 0.99621605873108 0.99621605873108
1 1 1
1 1 1
1 1 1
1.4778452168684e-05 0.074955232441425 1.4778452168684e-05
1.4778452168684e-05 0.067633114755154 1.4778452168684e-05
1.4778452168684e-05 0.056630305945873 1.4778452168684e-05
0.034365624189377 0.039133425801992 1.4778452168684e-05
0.17869228124619 0.0048395618796349 1.4778452168684e-05
0.28604874014854 1.4778452168684e-05 1.4778452168684e-05
0.38264018297195 1.4778452168684e-05 1.4778452168684e-05
0.47251942753792 1.4778452168684e-05 1.4778452168684e-05
0.55552166700363 1.4778452168684e-05 1.4778452168684e-05
0.6316990852356 1.4778452168684e-05 1.4778452168684e-05
0.70072430372238 1.4778452168684e-05 1.4778452168684e-05
0.76199990510941 1.4778452168684e-05 1.4778452168684e-05
0.81521111726761 1.4778452168684e-05 1.4778452168684e-05
0.86037892103195 1.4778452168684e-05 1.4778452168684e-05
0.89783823490143 1.4778452168684e-05 1.4778452168684e-05
0.92816770076752 1.4778452168684e-05 1.4778452168684e-05
0.95210111141205 1.4778452168684e-05 1.4778452168684e-05
0.97044402360916 1.4778452168684e-05 1.4778452168684e-05
0.98400741815567 1.4778452168684e-05 1.4778452168684e-05
0.9935576915741 0.013676164671779 0.013676164671779
0.99979048967361 0.069170944392681 0.069170944392681
1 0.16047558188438 0.16047558188438
1 0.29668569564819 0.29668569564819
1 0.45473900437355 0.45473900437355
1 0.6106390953064 0.6106390953064
1 0.75096166133881 0.75096166133881
1 0.85791146755219 0.85791146755219
1 0.93047696352005 0.93047696352005
1 0.97406905889511 0.97406905889511
1 0.99621522426605 0.99621522426605
1 1 1
1 1 1
1 1 1
1.4778452168684e-05 0.16855882108212 1.4778452168684e-05
1.4778452168684e-05 0.16437391936779 1.4778452168684e-05
1.4778452168684e-05 0.15837912261486 1.4778452168684e-05
1.4778452168684e-05 0.14968994259834 1.4778452168684e-05
0.13308961689472 0.1368635892868 1.4778452168684e-05
0.25927105545998 0.11732506752014 1.4778452168684e-05
0.36529955267906 0.085641115903854 1.4778452168684e-05
0.46104964613914 0.022515945136547 1.4778452168684e-05
0.54805958271027 1.4778452168684e-05 1.4778452168684e-05
0.62683767080307 1.4778452168684e-05 1.4778452168684e-05
0.69761461019516 1.4778452168684e-05 1.4778452168684e-05
0.76005017757416 1.4778452168684e-05 1.4778452168684e-05
0.81401568651199 1.4778452168684e-05 1.4778452168684e-05
0.85966199636459 1.4778452168684e-05 1.4778452168684e-05
0.89741832017899 1.4778452168684e-05 1.4778452168684e-05
0.92792767286301 1.4778452168684e-05 1.4778452168684e-05
0.95196753740311 1.4778452168684e-05 1.4778452168684e-05
0.97037202119827 1.4778452168684e-05 1.4778452168684e-05
0.98397016525269 1.4778452168684e-05 1.4778452168684e-05
0.99353951215744 0.013608266599476 0.013608266599476
0.99978250265121 0.069067001342773 0.069067001342773
1 0.16032588481903 0.16032588481903
1 0.29656571149826 0.29656571149826
1 0.45463341474533 0.45463341474533
1 0.61057281494141 0.61057281494141
1 0.7509229183197 0.7509229183197
1 0.85789108276367 0.85789108276367
1 0.9304678440094 0.9304678440094
1 0.97406536340714 0.97406536340714
1 0.99621403217316 0.99621403217316
1 1 1
1 1 1
1 1 1
1.4778452168684e-05 0.25261092185974 1.4778452168684e-05
1.4778452168684e-05 0.24977023899555 1.4778452168684e-05
1.4778452168684e-05 0.24574209749699 1.4778452168684e-05
1.4778452168684e-05 0.2399932295084 1.4778452168684e-05
0.037262089550495 0.23170945048332 1.4778452168684e-05
0.21571032702923 0.21960088610649 1.4778452168684e-05
0.33867821097374 0.20150282979012 1.4778452168684e-05
0.44394135475159 0.17338413000107 1.4778452168684e-05
0.53712916374207 0.12620277702808 1.477845125919e-05
0.61980491876602 0.021624641492963 1.4778452168684e-05
0.69315421581268 1.4778452168684e-05 1.4778452168684e-05
0.75727319717407 1.4778452168684e-05 1.4778452168684e-05
0.81232118606567 1.4778452168684e-05 1.4778452168684e-05
0.85864967107773 1.4778452168684e-05 1.4778452168684e-05
0.89682704210281 1.4778452168684e-05 1.4778452168684e-05
0.92759031057358 1.4778452168684e-05 1.4778452168684e-05
0.95178008079529 1.4778452168684e-05 1.4778452168684e-05
0.97027117013931 1.4778452168684e-05 1.4778452168684e-05
0.98391807079315 1.4778452168684e-05 1.4778452168684e-05
0.99351412057877 0.013513782992959 0.013513782992959
0.99977135658264 0.068922206759453 0.068922206759453
1 0.1601168513298 0.1601168513298
1 0.29639840126038 0.29639840126038
1 0.45448705554008 0.45448705554008
1 0.6104793548584 0.6104793548584
1 0.75086951255798 0.75086951255798
1 0.85786288976669 0.85786288976669
1 0.93045526742935 0.93045526742935
1 0.97406029701233 0.97406029701233
1 0.99621242284775 0.99621242284775
1 1 1
1 1 1
1 1 1
1.4778452168684e-05 0.33427566289902 1.4778452168684e-05
1.4778452168684e-05 0.33227893710136 1.4778452168684e-05
1.4778452168684e-05 0.32946053147316 1.4778452168684e-05
1.4778452168684e-05 0.32546555995941 1.4778452168684e-05
1.4778452168684e-05 0.31976822018623 1.4778452168684e-05
0.13504619896412 0.31157130002975 1.4778452168684e-05
0.29552826285362 0.29961559176445 1.4778452168684e-05
0.41759124398232 0.28182125091553 1.4778452168684e-05
0.52076303958893 0.25442838668823 1.4778452168684e-05
0.6094731092453 0.20966909825802 1.4778452168684e-05
0.68668603897095 0.12568441033363 1.4778452168684e-05
0.75328505039215 1.4778452168684e-05 1.4778452168684e-05
0.8099051117897 1.4778452168684e-05 1.4778452168684e-05
0.8572136759758 1.4778452168684e-05 1.4778452168684e-05
0.89599144458771 1.4778452168684e-05 1.4778452168684e-05
0.92711490392685 1.4778452168684e-05 1.4778452168684e-05
0.95151656866074 1.4778452168684e-05 1.4778452168684e-05
0.97012948989868 1.4778452168684e-05 1.4778452168684e-05
0.98384493589401 1.4778452168684e-05 1.4778452168684e-05
0.99347853660583 0.013382350094616 0.013382350094616
0.99975574016571 0.068719975650311 0.068719975650311
1 0.15982511639595 0.15982511639595
1 0.29616433382034 0.29616433382034
1 0.45428174734116 0.45428174734116
1 0.61034917831421 0.61034917831421
1 0.75079411268234 0.75079411268234
1 0.85782355070114 0.85782355070114
1 0.93043738603592 0.93043738603592
1 0.97405338287354 0.97405338287354
1 0.99621015787125 0.99621015787125
1 1 1
1 1 1
1 1 1
1.4778452168684e-05 0.41478595137596 1.4778452168684e-05
1.4778452168684e-05 0.41337981820107 1.4778452168684e-05
1.4778452168684e-05 0.41140106320381 1.4778452168684e-05
1.4778452168684e-05 0.40860712528229 1.4778452168684e-05
1.4778452168684e-05 0.40464541316032 1.4778452168684e-05
1.4778452168684e-05 0.3989922106266 1.4778452168684e-05
0.21754138171673 0.39085191488266 1.4778452168684e-05
0.37472954392433 0.37897351384163 1.4778452168684e-05
0.49535581469536 0.36128732562065 1.4778452168684e-05
0.59393846988678 0.33408272266388 1.4778452168684e-05
0.6771582365036 0.28983715176582 1.4778452168684e-05
0.74749064445496 0.20918990671635 1.4778452168684e-05
0.80643004179001 1.4778452168684e-05 1.4778452168684e-05
0.85516393184662 1.4778452168684e-05 1.4778452168684e-05
0.89480537176132 1.4778452168684e-05 1.4778452168684e-05
0.92644286155701 1.4778452168684e-05 1.4778452168684e-05
0.95114523172379 1.4778452168684e-05 1.4778452168684e-05
0.96993017196655 1.4778452168684e-05 1.4778452168684e-05
0.98374229669571 1.4778452168684e-05 1.4778452168684e-05
0.99342864751816 0.013199789449573 0.013199789449573
0.99973380565643 0.068437978625298 0.068437978625298
1 0.15941759943962 0.15941759943962
1 0.2958370745182 0.2958370745182
1 0.45399469137192 0.45399469137192
1 0.61016780138016 0.61016780138016
1 0.75068950653076 0.75068950653076
1 0.85776799917221 0.85776799917221
1 0.93041270971298 0.93041270971298
1 0.9740434885025 0.9740434885025
1 0.99620693922043 0.99620693922043
1 1 1
1 1 1
1 1 1
1.4778452168684e-05 0.49369657039642 1.4778452168684e-05
1.4778452168684e-05 0.49271738529205 1.4778452168684e-05
1.4778452168684e-05 0.49134173989296 1.4778452168684e-05
1.4778452168684e-05 0.48940485715866 1.4778452168684e-05
1.4778452168684e-05 0.48666909337044 1.4778452168684e-05
1.4778452168684e-05 0.48278751969337 1.4778452168684e-05
1.4778452168684e-05 0.47724351286888 1.4778452168684e-05
0.29733356833458 0.46924996376038 1.4778452168684e-05
0.45325180888176 0.45756241679192 1.4778452168684e-05
0.56972706317902 0.44011214375496 1.4778452168684e-05
0.6627653837204 0.41318863630295 1.4778452168684e-05
0.73892402648926 0.36925345659256 1.4778452168684e-05
0.80136668682098 0.28936588764191 1.4778452168684e-05
0.85221129655838 0.084936626255512 1.4778452168684e-05
0.89311099052429 1.4778452168684e-05 1.4778452168684e-05
0.92548811435699 1.4778452168684e-05 1.4778452168684e-05
0.95061987638474 1.4778452168684e-05 1.4778452168684e-05
0.96964919567108 1.4778452168684e-05 1.4778452168684e-05
0.98359781503677 1.4778452168684e-05 1.4778452168684e-05
0.9933585524559 0.012946741655469 0.012946741655469
0.99970299005508 0.068044409155846 0.068044409155846
1 0.15884925425053 0.15884925425053
1 0.29538053274155 0.29538053274155
1 0.45359370112419 0.45359370112419
1 0.60991358757019 0.60991358757019
1 0.75054275989532 0.75054275989532
1 0.85769069194794 0.85769069194794
1 0.93037801980972 0.93037801980972
1 0.9740297794342 0.9740297794342
1 0.99620252847672 0.99620252847672
1 1 1
1 1 1
1 1 1
1.4778452168684e-05 0.56888955831528 1.4778452168684e-05
1.4778452168684e-05 0.56822955608368 1.4778452168684e-05
1.4778452168684e-05 0.56730329990387 1.4778452168684e-05
1.4778452168684e-05 0.56600230932236 1.4778452168684e-05
1.4778452168684e-05 0.56416940689087 1.4778452168684e-05
1.4778452168684e-05 0.56157541275024 1.4778452168684e-05
1.4778452168684e-05 0.55789333581924 1.4778452168684e-05
0.10678502172232 0.55262976884842 1.4778452168684e-05
0.37652531266212 0.54502838850021 1.4778452168684e-05
0.52967870235443 0.53388518095016 1.4778452168684e-05
0.64017552137375 0.51718270778656 1.4778452168684e-05
0.7259224653244 0.49115458130836 1.4778452168684e-05
0.79386109113693 0.4479783475399 1.4778452168684e-05
0.84790229797363 0.36878502368927 1.4778452168684e-05
0.89066445827484 0.17278231680393 1.4778452168684e-05
0.92412221431732 1.4778452168684e-05 1.4778452168684e-05
0.94987291097641 1.4778452168684e-05 1.4778452168684e-05
0.96925133466721 1.4778452168684e-05 1.4778452168684e-05
0.98339396715164 1.4778452168684e-05 1.4778452168684e-05
0.99325984716415 0.012597345747054 0.012597345747054
0.99965965747833 0.067496612668037 0.067496612668037
1 0.15805606544018 0.15805606544018
1 0.29474192857742 0.29474192857742
1 0.45303326845169 0.45303326845169
1 0.60955816507339 0.60955816507339
1 0.75033801794052 0.75033801794052
1 0.85758286714554 0.85758286714554
1 0.93032950162888 0.93032950162888
1 0.97401058673859 0.97401058673859
1 0.99619632959366 0.99619632959366
1 1 1
1 1 1
1 1 1
1.4778452168684e-05 0.63988018035889 1.4778452168684e-05
1.4778452168684e-05 0.63943868875504 1.4778452168684e-05
1.4778452168684e-05 0.63881993293762 1.4778452168684e-05
1.4778452168684e-05 0.63795179128647 1.4778452168684e-05
1.4778452168684e-05 0.63673120737076 1.4778452168684e-05
1.4778452168684e-05 0.63501119613647 1.4778452168684e-05
1.4778452168684e-05 0.63257849216461 1.4778452168684e-05
1.4778452168684e-05 0.62911975383759 1.4778452168684e-05
0.19155244529247 0.62416684627533 1.4778452168684e-05
0.45502328872681 0.61699783802032 1.4778452168684e-05
0.60241091251373 0.60645824670792 1.4778452168684e-05
0.70537048578262 0.59059280157089 1.4778452168684e-05
0.78241568803787 0.56582516431808 1.4778452168684e-05
0.84149104356766 0.52472108602524 1.4778452168684e-05
0.88708674907684 0.44751617312431 1.477845125919e-05
0.92214852571487 0.25384643673897 1.4778452168684e-05
0.94880217313766 1.4778452168684e-05 1.4778452168684e-05
0.96868509054184 1.4778452168684e-05 1.4778452168684e-05
0.98310494422913 1.4778452168684e-05 1.4778452168684e-05
0.99312031269073 0.012116895988584 0.012116895988584
0.99959856271744 0.066734962165356 0.066734962165356
1 0.15695081651211 0.15695081651211
1 0.29385036230087 0.29385036230087
1 0.45224994421005 0.45224994421005
1 0.60906159877777 0.60906159877777
1 0.75005173683167 0.75005173683167
1 0.85743194818497 0.85743194818497
1 0.93026179075241 0.93026179075241
1 0.97398388385773 0.97398388385773
1 0.99618768692017 0.99618768692017
1 1 1
1 1 1
1 1 1
1.4778452168684e-05 0.70541995763779 1.4778452168684e-05
1.4778452168684e-05 0.70513182878494 1.4778452168684e-05
1.4778452168684e-05 0.70472854375839 1.4778452168684e-05
1.4778452168684e-05 0.70416307449341 1.4778452168684e-05
1.4778452168684e-05 0.70336955785751 1.4778452168684e-05
1.4778452168684e-05 0.70225352048874 1.4778452168684e-05
1.4778452168684e-05 0.7006801366806 1.4778452168684e-05
1.4778452168684e-05 0.69845294952393 1.4778452168684e-05
1.4778452168684e-05 0.69528394937515 1.4778452168684e-05
0.27180218696594 0.69073361158371 1.4778452168684e-05
0.53137272596359 0.68413686752319 1.4778452168684e-05
0.6706251502037 0.67440974712372 1.4778452168684e-05
0.76419228315353 0.6596976518631 1.4778452168684e-05
0.83166897296906 0.63656485080719 1.4778452168684e-05
0.88174849748611 0.59776377677917 1.4778452168684e-05
0.91925525665283 0.52427840232849 1.4778452168684e-05
0.94725203514099 0.33350467681885 1.4778452168684e-05
0.96787267923355 1.4778452168684e-05 1.4778452168684e-05
0.98269253969193 1.4778452168684e-05 1.4778452168684e-05
0.99292224645615 0.011460519395769 0.011460519395769
0.99951207637787 0.065677963197231 0.065677963197231
1 0.15541237592697 0.15541237592697
1 0.29260438680649 0.29260438680649
1 0.45115414261818 0.45115414261818
1 0.60836613178253 0.60836613178253
1 0.74965035915375 0.74965035915375
1 0.85722059011459 0.85722059011459
1 0.93016684055328 0.93016684055328
1 0.97394633293152 0.97394633293152
1 0.99617558717728 0.99617558717728
1 1 1
1 1 1
1 1 1
1.4778452168684e-05 0.76443958282471 1.4778452168684e-05
1.4778452168684e-05 0.76425623893738 1.4778452168684e-05
1.4778452168684e-05 0.76399976015091 1.4778452168684e-05
1.4778452168684e-05 0.7636404633522 1.4778452168684e-05
1.4778452168684e-05 0.76313692331314 1.4778452168684e-05
1.4778452168684e-05 0.76242983341217 1.4778452168684e-05
1.4778452168684e-05 0.76143491268158 1.4778452168684e-05
1.4778452168684e-05 0.76003140211105 1.4778452168684e-05
1.4778452168684e-05 0.75804316997528 1.4778452168684e-05
1.4778452168684e-05 0.75521051883698 1.4778452168684e-05
0.35113346576691 0.75114113092422 1.4778452168684e-05
0.60401791334152 0.74522519111633 1.4778452168684e-05
0.73303139209747 0.73647153377533 1.4778452168684e-05
0.81591910123825 0.72316956520081 1.4778452168684e-05
0.87353122234344 0.70210164785385 1.4778452168684e-05
0.91492229700089 0.66635775566101 1.4778452168684e-05
0.94497489929199 0.59734344482422 1.4778452168684e-05
0.96669417619705 0.41261640191078 1.4778452168684e-05
0.98210000991821 1.4778452168684e-05 1.4778452168684e-05
0.9926393032074 0.010572113096714 0.010572113096714
0.99938893318176 0.064215295016766 0.064215295016766
1 0.15327195823193 0.15327195823193
1 0.29086282849312 0.29086282849312
1 0.44962051510811 0.44962051510811
1 0.60739314556122 0.60739314556122
1 0.74908846616745 0.74908846616745
1 0.85692501068115 0.85692501068115
1 0.93003422021866 0.93003422021866
1 0.97389405965805 0.97389405965805
1 0.99615871906281 0.99615871906281
1 1 1
1 1 1
1 1 1
1.4778452168684e-05 0.81625980138779 1.4778452168684e-05
1.4778452168684e-05 0.81614607572556 1.4778452168684e-05
1.4778452168684e-05 0.81598705053329 1.4778452168684e-05
1.4778452168684e-05 0.8157644867897 1.4778452168684e-05
1.4778452168684e-05 0.81545269489288 1.4778452168684e-05
1.4778452168684e-05 0.81501549482346 1.4778452168684e-05
1.4778452168684e-05 0.81440138816833 1.4778452168684e-05
1.4778452168684e-05 0.81353735923767 1.4778452168684e-05
1.4778452168684e-05 0.81231772899628 1.4778452168684e-05
1.4778452168684e-05 0.81058835983276 1.4778452168684e-05
1.4778452168684e-05 0.80812257528305 1.4778452168684e-05
0.42993307113647 0.80457150936127 1.4778452168684e-05
0.67211329936981 0.79939913749695 1.4778452168684e-05
0.7886820435524 0.79172301292419 1.4778452168684e-05
0.86026120185852 0.78000116348267 1.4778452168684e-05
0.90822100639343 0.76129955053329 1.4778452168684e-05
0.94155293703079 0.72920072078705 1.4778452168684e-05
0.96495705842972 0.66596782207489 1.4778452168684e-05
0.98123836517334 0.49059468507767 1.4778452168684e-05
0.9922314286232 0.0093852132558823 0.0093852132558823
0.99921238422394 0.062198605388403 0.062198605388403
1 0.15030089020729 0.15030089020729
1 0.28842949867249 0.28842949867249
1 0.44747343659401 0.44747343659401
1 0.60602939128876 0.60602939128876
1 0.74830168485641 0.74830168485641
1 0.85651057958603 0.85651057958603
1 0.9298483133316 0.9298483133316
1 0.97382080554962 0.97382080554962
1 0.99613499641418 0.99613499641418
1 1 1
1 1 1
1 1 1
1.4778452168684e-05 0.86062556505203 1.4778452168684e-05
1.4778452168684e-05 0.86055684089661 1.4778452168684e-05
1.4778452168684e-05 0.86046063899994 1.4778452168684e-05
1.4778452168684e-05 0.86032611131668 1.4778452168684e-05
1.4778452168684e-05 0.86013776063919 1.4778452168684e-05
1.4778452168684e-05 0.85987395048141 1.4778452168684e-05
1.4778452168684e-05 0.85950398445129 1.4778452168684e-05
1.4778452168684e-05 0.85898411273956 1.4778452168684e-05
1.4778452168684e-05 0.85825216770172 1.4778452168684e-05
1.4778452168684e-05 0.85721844434738 1.4778452168684e-05
1.4778452168684e-05 0.85575169324875 1.4778452168684e-05
1.4778452168684e-05 0.85365748405457 1.4778452168684e-05
0.50730627775192 0.85063970088959 1.4778452168684e-05
0.734375 0.84623277187347 1.4778452168684e-05
0.83705294132233 0.83966964483261 1.4778452168684e-05
0.89732146263123 0.8296006321907 1.4778452168684e-05
0.93623250722885 0.81341946125031 1.4778452168684e-05
0.96233534812927 0.78532415628433 1.4778452168684e-05
0.97996371984482 0.72884768247604 1.4778452168684e-05
0.99163562059402 0.56612998247147 0.0078293662518263
0.99895656108856 0.058835700154305 0.058835700154305
1 0.14618802070618 0.14618802070618
1 0.28502768278122 0.28502768278122
1 0.44446420669556 0.44446420669556
1 0.6041157245636 0.6041157245636
1 0.74719804525375 0.74719804525375
1 0.85592973232269 0.85592973232269
1 0.92958801984787 0.92958801984787
1 0.97371804714203 0.97371804714203
1 0.99610191583633 0.99610191583633
1 1 1
1 1 1
1 1 1
1.4778452168684e-05 0.8976668715477 1.4778452168684e-05
1.4778452168684e-05 0.89762634038925 1.4778452168684e-05
1.4778452168684e-05 0.89756953716278 1.4778452168684e-05
1.4778452168684e-05 0.89749032258987 1.4778452168684e-05
1.4778452168684e-05 0.8973793387413 1.4778452168684e-05
1.4778452168684e-05 0.89722400903702 1.4778452168684e-05
1.4778452168684e-05 0.8970063328743 1.4778452168684e-05
1.4778452168684e-05 0.89670097827911 1.4778452168684e-05
1.4778452168684e-05 0.89627206325531 1.4778452168684e-05
1.4778452168684e-05 0.89566785097122 1.4778452168684e-05
1.4778452168684e-05 0.89481401443481 1.4778452168684e-05
1.4778452168684e-05 0.89360177516937 1.4778452168684e-05
1.4778452168684e-05 0.89186877012253 1.4778452168684e-05
0.58110523223877 0.88936549425125 1.4778452168684e-05
0.78986382484436 0.88570386171341 1.4778452168684e-05
0.8780415058136 0.88023412227631 1.4778452168684e-05
0.92751240730286 0.87180155515671 1.4778452168684e-05
