Assets/Data/Textures/70 CGC LUTs/LUTs_AgX_Filmic_ViewTransforms/ARRILogC4AWG4-to-AgX-Kraken-800T-sRGB.cube
#  Baked from the PixelManager OCIO config by Joe Genco
#  https://github.com/Joegenco/PixelManager
#  Input Gamma: Arri LogC4
#  Input Color Space: Arri Wide Gamut 4
#  floating point data (range 0.0 - 1.0)   
#       
#  Output Gamma: Gamma 2.2 (Display)
#  Output Color Space: Rec.709
#  floating point data (range 0.0 - 1.0)
LUT_3D_SIZE 33
0.000000 0.000000 0.000000
0.000000 0.000000 0.000000
0.046490 -0.000492 -0.000488
0.109551 0.004199 0.004209
0.209429 0.012034 0.012053
0.327100 0.024454 0.024488
0.445131 0.044145 0.044200
0.556442 0.074412 0.074498
0.661003 0.118547 0.118672
0.757024 0.178381 0.178548
0.839968 0.252514 0.252715
0.905871 0.336332 0.336553
0.953965 0.424561 0.424789
0.986551 0.514031 0.514263
1.007238 0.603670 0.603900
1.019625 0.691130 0.691350
1.017566 0.772156 0.772353
1.012199 0.841759 0.841922
1.007934 0.897088 0.897213
1.004750 0.938389 0.938480
1.002467 0.967992 0.968057
1.000862 0.988812 0.988858
1.000000 1.000000 1.000000
1.000000 1.000000 1.000000
1.000000 1.000000 1.000000
1.000000 1.000000 1.000000
1.000000 1.000000 1.000000
1.000000 1.000000 1.000000
1.000000 1.000000 1.000000
1.000000 1.000000 1.000000
1.000000 1.000000 1.000000
1.000000 1.000000 1.000000
1.000000 1.000000 1.000000
0.000000 0.000000 0.000000
0.000000 0.000000 0.000000
0.029789 -0.000587 -0.000587
0.087573 0.002582 0.002591
0.190031 0.010391 0.010408
0.313030 0.022680 0.022712
0.435888 0.042222 0.042275
0.550444 0.072396 0.072480
0.657092 0.116550 0.116674
0.754570 0.176554 0.176720
0.838536 0.250990 0.251190
0.905104 0.335163 0.335384
0.953585 0.423712 0.423940
0.986375 0.513426 0.513657
1.007161 0.603243 0.603473
1.019594 0.690840 0.691061
1.017580 0.771972 0.772169
1.012208 0.841651 0.841814
1.007938 0.897029 0.897155
1.004752 0.938359 0.938450
1.002469 0.967977 0.968041
1.000863 0.988805 0.988850
1.000000 1.000000 1.000000
1.000000 1.000000 1.000000
1.000000 1.000000 1.000000
1.000000 1.000000 1.000000
1.000000 1.000000 1.000000
1.000000 1.000000 1.000000
1.000000 1.000000 1.000000
1.000000 1.000000 1.000000
1.000000 1.000000 1.000000
1.000000 1.000000 1.000000
1.000000 1.000000 1.000000
0.000000 0.000000 0.000000
0.000000 0.000000 0.000000
0.000000 0.000000 0.000000
0.055944 0.000217 0.000223
0.161300 0.008090 0.008104
0.292173 0.020220 0.020248
0.422382 0.039547 0.039597
0.541812 0.069581 0.069662
0.651510 0.113753 0.113874
0.751082 0.173990 0.174154
0.836508 0.248850 0.249049
0.904021 0.333523 0.333743
0.953050 0.422521 0.422749
0.986128 0.512577 0.512808
1.007054 0.602645 0.602875
1.019549 0.690435 0.690656
1.017600 0.771714 0.771911
1.012219 0.841500 0.841663
1.007945 0.896947 0.897072
1.004755 0.938316 0.938407
1.002470 0.967955 0.968020
1.000864 0.988794 0.988839
1.000000 1.000000 1.000000
1.000000 1.000000 1.000000
1.000000 1.000000 1.000000
1.000000 1.000000 1.000000
1.000000 1.000000 1.000000
1.000000 1.000000 1.000000
1.000000 1.000000 1.000000
1.000000 1.000000 1.000000
1.000000 1.000000 1.000000
1.000000 1.000000 1.000000
1.000000 1.000000 1.000000
0.000240 0.046985 0.000351
-0.000354 0.040162 -0.000271
-0.001226 0.030329 -0.001186
0.016108 0.017979 -0.001445
0.119174 0.010661 0.005103
0.260404 0.016811 0.016836
0.402223 0.035833 0.035879
0.529220 0.065649 0.065727
0.643472 0.109829 0.109947
0.746094 0.170383 0.170545
0.833620 0.245837 0.246036
0.902484 0.331214 0.331434
0.952293 0.420848 0.421077
0.985779 0.511387 0.511618
1.006903 0.601807 0.602038
1.019487 0.689868 0.690089
1.017627 0.771353 0.771551
1.012236 0.841289 0.841452
1.007954 0.896832 0.896957
1.004760 0.938256 0.938347
1.002473 0.967925 0.967989
1.000865 0.988779 0.988824
1.000000 1.000000 1.000000
1.000000 1.000000 1.000000
1.000000 1.000000 1.000000
1.000000 1.000000 1.000000
1.000000 1.000000 1.000000
1.000000 1.000000 1.000000
1.000000 1.000000 1.000000
1.000000 1.000000 1.000000
1.000000 1.000000 1.000000
1.000000 1.000000 1.000000
1.000000 1.000000 1.000000
0.005496 0.111671 0.005863
0.004975 0.105216 0.005317
0.004239 0.096023 0.004544
0.003186 0.082818 0.003438
0.065542 0.069147 0.005220
0.211628 0.055357 0.013999
0.372355 0.041635 0.031286
0.511186 0.060366 0.060438
0.631746 0.104321 0.104434
0.738890 0.165298 0.165457
0.829475 0.241583 0.241780
0.900290 0.327957 0.328177
0.951218 0.418494 0.418721
0.985286 0.509714 0.509946
1.006689 0.600632 0.600862
1.019399 0.689073 0.689294
1.017666 0.770848 0.771046
1.012258 0.840993 0.841156
1.007966 0.896670 0.896795
1.004766 0.938172 0.938264
1.002476 0.967883 0.967947
1.000867 0.988758 0.988803
1.000000 1.000000 1.000000
1.000000 1.000000 1.000000
1.000000 1.000000 1.000000
1.000000 1.000000 1.000000
1.000000 1.000000 1.000000
1.000000 1.000000 1.000000
1.000000 1.000000 1.000000
1.000000 1.000000 1.000000
1.000000 1.000000 1.000000
1.000000 1.000000 1.000000
1.000000 1.000000 1.000000
0.013833 0.202820 0.014609
0.013270 0.197509 0.014020
0.012489 0.189937 0.013203
0.011407 0.179047 0.012068
0.010024 0.164466 0.010618
0.141420 0.146820 0.015033
0.317558 0.127266 0.028271
0.478145 0.106150 0.054214
0.615807 0.097226 0.097333
0.728541 0.158242 0.158396
0.823459 0.235551 0.235745
0.897131 0.323344 0.323563
0.949681 0.415168 0.415396
0.984584 0.507360 0.507591
1.006387 0.598980 0.599211
1.019275 0.687957 0.688178
1.017721 0.770139 0.770337
1.012290 0.840578 0.840741
1.007983 0.896444 0.896569
1.004775 0.938055 0.938146
1.002480 0.967824 0.967888
1.000869 0.988728 0.988773
1.000000 1.000000 1.000000
1.000000 1.000000 1.000000
1.000000 1.000000 1.000000
1.000000 1.000000 1.000000
1.000000 1.000000 1.000000
1.000000 1.000000 1.000000
1.000000 1.000000 1.000000
1.000000 1.000000 1.000000
1.000000 1.000000 1.000000
1.000000 1.000000 1.000000
1.000000 1.000000 1.000000
0.028386 0.308510 0.029785
0.027725 0.304709 0.029097
0.026805 0.299303 0.028140
0.025528 0.291555 0.026812
0.023762 0.280327 0.024975
0.047397 0.265424 0.023555
0.238583 0.245012 0.031326
0.424079 0.222007 0.051718
0.578584 0.195678 0.089577
0.711922 0.167578 0.148945
0.814987 0.227326 0.227518
0.892523 0.316772 0.316990
0.947460 0.410450 0.410677
0.983579 0.504035 0.504267
1.005956 0.596654 0.596885
1.019100 0.686388 0.686610
1.017798 0.769144 0.769342
1.012335 0.839995 0.840159
1.008008 0.896126 0.896252
1.004788 0.937891 0.937982
1.002487 0.967741 0.967806
1.000872 0.988687 0.988732
1.000000 1.000000 1.000000
1.000000 1.000000 1.000000
1.000000 1.000000 1.000000
1.000000 1.000000 1.000000
1.000000 1.000000 1.000000
1.000000 1.000000 1.000000
1.000000 1.000000 1.000000
1.000000 1.000000 1.000000
1.000000 1.000000 1.000000
1.000000 1.000000 1.000000
1.000000 1.000000 1.000000
0.053329 0.415948 0.055607
0.052583 0.413436 0.054837
0.051542 0.409879 0.053763
0.050091 0.404816 0.052264
0.048070 0.397550 0.050177
0.045260 0.386999 0.047273
0.118539 0.372014 0.046398
0.344574 0.351040 0.059062
0.525868 0.327306 0.089160
0.673988 0.299036 0.140971
0.797195 0.266662 0.216070
0.886032 0.307815 0.308031
0.944208 0.403712 0.403939
0.982123 0.499317 0.499548
1.005338 0.593367 0.593598
1.018849 0.684176 0.684397
1.017906 0.767742 0.767941
1.012398 0.839176 0.839341
1.008042 0.895681 0.895807
1.004806 0.937661 0.937752
1.002496 0.967625 0.967690
1.000876 0.988629 0.988674
1.000000 1.000000 1.000000
1.000000 1.000000 1.000000
1.000000 1.000000 1.000000
1.000000 1.000000 1.000000
1.000000 1.000000 1.000000
1.000000 1.000000 1.000000
1.000000 1.000000 1.000000
1.000000 1.000000 1.000000
1.000000 1.000000 1.000000
1.000000 1.000000 1.000000
1.000000 1.000000 1.000000
0.092666 0.519063 0.096035
0.091894 0.517423 0.095245
0.090816 0.515112 0.094141
0.089307 0.511844 0.092595
0.087197 0.507196 0.090433
0.084243 0.500539 0.087404
0.080147 0.490990 0.083201
0.213309 0.475683 0.083481
0.449326 0.455282 0.102827
0.623407 0.432202 0.143926
0.762186 0.404260 0.209038
0.868839 0.371234 0.295715
0.939584 0.394468 0.394694
0.980003 0.492644 0.492875
1.004441 0.588700 0.588931
1.018490 0.681044 0.681267
1.018059 0.765763 0.765963
1.012487 0.838022 0.838187
1.008090 0.895054 0.895181
1.004831 0.937337 0.937429
1.002508 0.967463 0.967528
1.000883 0.988548 0.988594
1.000000 1.000000 1.000000
1.000000 1.000000 1.000000
1.000000 1.000000 1.000000
1.000000 1.000000 1.000000
1.000000 1.000000 1.000000
1.000000 1.000000 1.000000
1.000000 1.000000 1.000000
1.000000 1.000000 1.000000
1.000000 1.000000 1.000000
1.000000 1.000000 1.000000
1.000000 1.000000 1.000000
0.148696 0.617580 0.153167
0.147973 0.616500 0.152433
0.146963 0.614982 0.151407
0.145547 0.612843 0.149968
0.143562 0.609820 0.147951
0.140774 0.605524 0.145118
0.136853 0.599375 0.141130
0.131541 0.590842 0.135725
0.318918 0.574807 0.137815
0.549810 0.555153 0.164366
0.715539 0.532854 0.215321
0.838527 0.505878 0.289945
0.924139 0.473668 0.382381
0.976899 0.483258 0.483489
1.003136 0.582114 0.582345
1.017967 0.676588 0.676811
1.018275 0.762955 0.763156
1.012613 0.836390 0.836556
1.008159 0.894170 0.894297
1.004866 0.936882 0.936974
1.002526 0.967235 0.967300
1.000891 0.988434 0.988480
1.000000 1.000000 1.000000
1.000000 1.000000 1.000000
1.000000 1.000000 1.000000
1.000000 1.000000 1.000000
1.000000 1.000000 1.000000
1.000000 1.000000 1.000000
1.000000 1.000000 1.000000
1.000000 1.000000 1.000000
1.000000 1.000000 1.000000
1.000000 1.000000 1.000000
1.000000 1.000000 1.000000
0.220455 0.710329 0.225730
0.219844 0.709638 0.225115
0.218989 0.708667 0.224253
0.217791 0.707301 0.223046
0.216110 0.705377 0.221352
0.213748 0.702654 0.218971
0.210419 0.698781 0.215615
0.205713 0.693231 0.210869
0.199359 0.685594 0.204458
0.424196 0.669454 0.208789
0.646154 0.650776 0.241059
0.797812 0.629551 0.298438
0.899049 0.603815 0.377572
0.963415 0.572656 0.471473
1.001185 0.572694 0.572926
1.017204 0.670284 0.670508
1.018584 0.758947 0.759150
1.012792 0.834069 0.834236
1.008255 0.892918 0.893046
1.004915 0.936239 0.936333
1.002551 0.966913 0.966979
1.000904 0.988275 0.988321
1.000000 1.000000 1.000000
1.000000 1.000000 1.000000
1.000000 1.000000 1.000000
1.000000 1.000000 1.000000
1.000000 1.000000 1.000000
1.000000 1.000000 1.000000
1.000000 1.000000 1.000000
1.000000 1.000000 1.000000
1.000000 1.000000 1.000000
1.000000 1.000000 1.000000
1.000000 1.000000 1.000000
0.303553 0.793364 0.309142
0.303081 0.792947 0.308669
0.302419 0.792363 0.308008
0.301493 0.791542 0.307080
0.300194 0.790388 0.305780
0.298369 0.788758 0.303953
0.295800 0.786449 0.301381
0.292171 0.783158 0.297746
0.287021 0.778429 0.292588
0.280026 0.771891 0.285579
0.525593 0.756570 0.291836
0.735844 0.739549 0.327236
0.865630 0.720325 0.387289
0.943168 0.696768 0.467438
0.989449 0.667564 0.561309
1.016047 0.661141 0.661366
1.019024 0.753244 0.753448
1.013049 0.830745 0.830914
1.008393 0.891134 0.891264
1.004986 0.935329 0.935422
1.002586 0.966460 0.966526
1.000921 0.988051 0.988096
1.000000 1.000000 1.000000
1.000000 1.000000 1.000000
1.000000 1.000000 1.000000
1.000000 1.000000 1.000000
1.000000 1.000000 1.000000
1.000000 1.000000 1.000000
1.000000 1.000000 1.000000
1.000000 1.000000 1.000000
1.000000 1.000000 1.000000
1.000000 1.000000 1.000000
1.000000 1.000000 1.000000
0.392535 0.862382 0.398016
0.392190 0.862150 0.397673
0.391708 0.861824 0.397192
0.391034 0.861367 0.396519
0.390088 0.860724 0.395576
0.388762 0.859820 0.394253
0.386897 0.858542 0.392394
0.384270 0.856729 0.389773
0.380554 0.854139 0.386067
0.375273 0.850405 0.380797
0.368032 0.845186 0.373573
0.623599 0.831463 0.381041
0.814263 0.816926 0.417561
0.917223 0.800719 0.478187
0.973440 0.780521 0.558256
1.005944 0.754771 0.650534
1.019670 0.744865 0.745072
1.013416 0.825981 0.826153
1.008590 0.888573 0.888704
1.005086 0.934030 0.934125
1.002635 0.965817 0.965883
1.000945 0.987734 0.987780
1.000000 1.000000 1.000000
1.000000 1.000000 1.000000
1.000000 1.000000 1.000000
1.000000 1.000000 1.000000
1.000000 1.000000 1.000000
1.000000 1.000000 1.000000
1.000000 1.000000 1.000000
1.000000 1.000000 1.000000
1.000000 1.000000 1.000000
1.000000 1.000000 1.000000
1.000000 1.000000 1.000000
0.483826 0.915428 0.488992
0.483580 0.915307 0.488747
0.483237 0.915138 0.488404
0.482756 0.914901 0.487925
0.482082 0.914568 0.487254
0.481138 0.914100 0.486314
0.479813 0.913441 0.484994
0.477951 0.912509 0.483140
0.475328 0.911184 0.480527
0.471618 0.909289 0.476831
0.466346 0.906550 0.471579
0.459051 0.902673 0.464310
0.716023 0.890922 0.472522
0.877654 0.879346 0.509559
0.954158 0.866641 0.570200
0.993620 0.850541 0.648674
1.013807 0.829548 0.735538
1.013962 0.818902 0.819078
1.008875 0.884878 0.885012
1.005230 0.932161 0.932258
1.002706 0.964899 0.964966
1.000980 0.987284 0.987331
1.000000 1.000000 1.000000
1.000000 1.000000 1.000000
1.000000 1.000000 1.000000
1.000000 1.000000 1.000000
1.000000 1.000000 1.000000
1.000000 1.000000 1.000000
1.000000 1.000000 1.000000
1.000000 1.000000 1.000000
1.000000 1.000000 1.000000
1.000000 1.000000 1.000000
1.000000 1.000000 1.000000
0.576200 0.953623 0.580923
0.576026 0.953564 0.580750
0.575783 0.953480 0.580509
0.575443 0.953363 0.580171
0.574968 0.953200 0.579698
0.574302 0.952970 0.579036
0.573369 0.952646 0.578109
0.572059 0.952191 0.576806
0.570218 0.951546 0.574976
0.567623 0.950630 0.572395
0.563952 0.949317 0.568745
0.558732 0.947418 0.563553
0.551434 0.944696 0.556293
0.797974 0.934957 0.565139
0.925319 0.926260 0.602300
0.979727 0.916848 0.661367
1.007087 0.904785 0.734742
1.009105 0.889031 0.811341
1.009302 0.879337 0.879475
1.005439 0.929453 0.929552
1.002808 0.963578 0.963647
1.001029 0.986643 0.986690
1.000000 1.000000 1.000000
1.000000 1.000000 1.000000
1.000000 1.000000 1.000000
1.000000 1.000000 1.000000
1.000000 1.000000 1.000000
1.000000 1.000000 1.000000
1.000000 1.000000 1.000000
1.000000 1.000000 1.000000
1.000000 1.000000 1.000000
1.000000 1.000000 1.000000
1.000000 1.000000 1.000000
0.667346 0.979961 0.671419
0.667227 0.979932 0.671301
0.667062 0.979892 0.671137
0.666831 0.979836 0.670908
0.666507 0.979758 0.670587
0.666054 0.979648 0.670138
0.665420 0.979494 0.669510
0.664531 0.979277 0.668628
0.663283 0.978971 0.667391
0.661527 0.978539 0.665649
0.659049 0.977924 0.663192
0.655538 0.977043 0.659711
0.650537 0.975768 0.654750
0.643457 0.973921 0.647726
0.865050 0.966094 0.656909
0.959367 0.959809 0.692668
0.997254 0.953068 0.747097
1.005213 0.944609 0.811282
1.005571 0.933215 0.873612
1.005754 0.925364 0.925466
1.002956 0.961657 0.961727
1.001101 0.985720 0.985768
1.000000 1.000000 1.000000
1.000000 1.000000 1.000000
1.000000 1.000000 1.000000
1.000000 1.000000 1.000000
1.000000 1.000000 1.000000
1.000000 1.000000 1.000000
1.000000 1.000000 1.000000
1.000000 1.000000 1.000000
1.000000 1.000000 1.000000
1.000000 1.000000 1.000000
1.000000 1.000000 1.000000
0.752590 0.997763 0.755797
0.752514 0.997749 0.755723
0.752409 0.997730 0.755618
0.752262 0.997703 0.755473
0.752055 0.997666 0.755269
0.751767 0.997613 0.754984
0.751362 0.997540 0.754584
0.750796 0.997438 0.754024
0.750002 0.997293 0.753240
0.748886 0.997090 0.752136
0.747314 0.996802 0.750583
0.745093 0.996392 0.748387
0.741939 0.995806 0.745269
0.737431 0.994958 0.740812
0.730964 0.993720 0.734416
0.915978 0.987644 0.743297
0.983046 0.983191 0.775387
1.002759 0.978564 0.822031
1.002802 0.972713 0.873893
1.003030 0.964684 0.921236
1.003180 0.958746 0.958818
1.001204 0.984374 0.984423
1.000000 1.000000 1.000000
1.000000 1.000000 1.000000
1.000000 1.000000 1.000000
1.000000 1.000000 1.000000
1.000000 1.000000 1.000000
1.000000 1.000000 1.000000
1.000000 1.000000 1.000000
1.000000 1.000000 1.000000
1.000000 1.000000 1.000000
1.000000 1.000000 1.000000
1.000000 1.000000 1.000000
0.826936 1.004585 0.829191
0.826891 1.004586 0.829147
0.826828 1.004588 0.829084
0.826740 1.004590 0.828998
0.826617 1.004593 0.828876
0.826445 1.004598 0.828707
0.826204 1.004604 0.828469
0.825867 1.004613 0.828137
0.825394 1.004626 0.827670
0.824731 1.004643 0.827016
0.823798 1.004668 0.826096
0.822482 1.004703 0.824797
0.820619 1.004752 0.822960
0.817967 1.004822 0.820345
0.814165 1.004923 0.816593
0.808636 1.005069 0.811138
0.952640 1.002160 0.818854
0.999413 0.999395 0.845355
1.001085 0.996377 0.882469
1.001095 0.992278 0.921575
1.001246 0.986671 0.955845
1.001362 0.982331 0.982382
1.000000 1.000000 1.000000
1.000000 1.000000 1.000000
1.000000 1.000000 1.000000
1.000000 1.000000 1.000000
1.000000 1.000000 1.000000
1.000000 1.000000 1.000000
1.000000 1.000000 1.000000
1.000000 1.000000 1.000000
1.000000 1.000000 1.000000
1.000000 1.000000 1.000000
1.000000 1.000000 1.000000
0.886925 1.002996 0.888325
0.886900 1.002997 0.888301
0.886866 1.002998 0.888267
0.886818 1.002999 0.888220
0.886750 1.003001 0.888153
0.886657 1.003003 0.888061
0.886525 1.003007 0.887931
0.886341 1.003011 0.887750
0.886083 1.003018 0.887496
0.885722 1.003028 0.887140
0.885214 1.003041 0.886639
0.884500 1.003060 0.885935
0.883491 1.003087 0.884942
0.882061 1.003125 0.883532
0.880023 1.003179 0.881523
0.877091 1.003256 0.878634
0.872779 1.003371 0.874384
0.979038 1.001220 0.880605
1.000654 1.000654 0.901074
1.000472 1.000472 0.928526
1.000287 1.000287 0.956518
1.000129 1.000129 0.980438
1.000087 0.998865 0.998901
1.000000 1.000000 1.000000
1.000000 1.000000 1.000000
1.000000 1.000000 1.000000
1.000000 1.000000 1.000000
1.000000 1.000000 1.000000
1.000000 1.000000 1.000000
1.000000 1.000000 1.000000
1.000000 1.000000 1.000000
1.000000 1.000000 1.000000
1.000000 1.000000 1.000000
0.931881 1.001805 0.932640
0.931868 1.001806 0.932628
0.931850 1.001806 0.932610
0.931825 1.001807 0.932586
0.931790 1.001808 0.932551
0.931742 1.001809 0.932504
0.931674 1.001811 0.932436
0.931578 1.001813 0.932342
0.931445 1.001817 0.932211
0.931258 1.001822 0.932027
0.930997 1.001829 0.931769
0.930629 1.001839 0.931406
0.930111 1.001852 0.930895
0.929380 1.001872 0.930174
0.928342 1.001899 0.929151
0.926860 1.001938 0.927690
0.924726 1.001995 0.925585
0.921558 1.002079 0.922461
0.997358 1.000543 0.927130
1.000381 1.000381 0.942257
1.000252 1.000252 0.961866
1.000122 1.000122 0.981580
1.000011 1.000011 0.998335
1.000000 1.000000 1.000000
1.000000 1.000000 1.000000
1.000000 1.000000 1.000000
1.000000 1.000000 1.000000
1.000000 1.000000 1.000000
1.000000 1.000000 1.000000
1.000000 1.000000 1.000000
1.000000 1.000000 1.000000
1.000000 1.000000 1.000000
1.000000 1.000000 1.000000
0.964137 1.000951 0.964478
0.964130 1.000951 0.964472
0.964121 1.000951 0.964463
0.964109 1.000952 0.964451
0.964091 1.000952 0.964433
0.964067 1.000953 0.964409
0.964033 1.000954 0.964375
0.963985 1.000955 0.964328
0.963918 1.000957 0.964262
0.963825 1.000959 0.964170
0.963693 1.000963 0.964040
0.963510 1.000968 0.963858
0.963251 1.000974 0.963603
0.962887 1.000984 0.963243
0.962373 1.000998 0.962736
0.961643 1.001017 0.962015
0.960601 1.001045 0.960985
0.959099 1.001084 0.959501
0.956853 1.001144 0.957284
1.000259 1.000259 0.960832
1.000188 1.000188 0.971566
1.000097 1.000097 0.985331
1.000006 1.000006 0.999138
1.000000 1.000000 1.000000
1.000000 1.000000 1.000000
1.000000 1.000000 1.000000
1.000000 1.000000 1.000000
1.000000 1.000000 1.000000
1.000000 1.000000 1.000000
1.000000 1.000000 1.000000
1.000000 1.000000 1.000000
1.000000 1.000000 1.000000
1.000000 1.000000 1.000000
0.986798 1.000350 0.986892
0.986794 1.000350 0.986889
0.986790 1.000350 0.986884
0.986784 1.000351 0.986878
0.986775 1.000351 0.986870
0.986763 1.000351 0.986858
0.986746 1.000352 0.986841
0.986722 1.000352 0.986817
0.986689 1.000353 0.986784
0.986642 1.000354 0.986738
0.986577 1.000356 0.986674
0.986486 1.000359 0.986583
0.986358 1.000362 0.986457
0.986178 1.000367 0.986279
0.985925 1.000373 0.986028
0.985568 1.000383 0.985675
0.985061 1.000396 0.985172
0.984336 1.000416 0.984455
0.983292 1.000443 0.983421
0.981724 1.000485 0.981869
1.000102 1.000102 0.984605
1.000052 1.000052 0.992124
1.000000 1.000000 1.000000
1.000000 1.000000 1.000000
1.000000 1.000000 1.000000
1.000000 1.000000 1.000000
1.000000 1.000000 1.000000
1.000000 1.000000 1.000000
1.000000 1.000000 1.000000
1.000000 1.000000 1.000000
1.000000 1.000000 1.000000
1.000000 1.000000 1.000000
1.000000 1.000000 1.000000
1.000000 1.000000 1.000000
1.000000 1.000000 1.000000
1.000000 1.000000 1.000000
1.000000 1.000000 1.000000
1.000000 1.000000 1.000000
1.000000 1.000000 1.000000
1.000000 1.000000 1.000000
1.000000 1.000000 1.000000
1.000000 1.000000 1.000000
1.000000 1.000000 1.000000
1.000000 1.000000 1.000000
1.000000 1.000000 1.000000
1.000000 1.000000 1.000000
1.000000 1.000000 1.000000
1.000000 1.000000 1.000000
1.000000 1.000000 1.000000
1.000000 1.000000 1.000000
1.000000 1.000000 1.000000
1.000000 1.000000 1.000000
1.000000 1.000000 1.000000
0.999112 1.000024 0.999099
1.000000 1.000000 1.000000
1.000000 1.000000 1.000000
1.000000 1.000000 1.000000
1.000000 1.000000 1.000000
1.000000 1.000000 1.000000
1.000000 1.000000 1.000000
1.000000 1.000000 1.000000
1.000000 1.000000 1.000000
1.000000 1.000000 1.000000
1.000000 1.000000 1.000000
1.000000 1.000000 1.000000
1.000000 1.000000 1.000000
1.000000 1.000000 1.000000
1.000000 1.000000 1.000000
1.000000 1.000000 1.000000
1.000000 1.000000 1.000000
1.000000 1.000000 1.000000
1.000000 1.000000 1.000000
1.000000 1.000000 1.000000
1.000000 1.000000 1.000000
1.000000 1.000000 1.000000
1.000000 1.000000 1.000000
1.000000 1.000000 1.000000
1.000000 1.000000 1.000000
1.000000 1.000000 1.000000
1.000000 1.000000 1.000000
1.000000 1.000000 1.000000
1.000000 1.000000 1.000000
1.000000 1.000000 1.000000
1.000000 1.000000 1.000000
1.000000 1.000000 1.000000
1.000000 1.000000 1.000000
1.000000 1.000000 1.000000
1.000000 1.000000 1.000000
1.000000 1.000000 1.000000
1.000000 1.000000 1.000000
1.000000 1.000000 1.000000
1.000000 1.000000 1.000000
1.000000 1.000000 1.000000
1.000000 1.000000 1.000000
1.000000 1.000000 1.000000
1.000000 1.000000 1.000000
1.000000 1.000000 1.000000
1.000000 1.000000 1.000000
1.000000 1.000000 1.000000
1.000000 1.000000 1.000000
1.000000 1.000000 1.000000
1.000000 1.000000 1.000000
1.000000 1.000000 1.000000
1.000000 1.000000 1.000000
1.000000 1.000000 1.000000
1.000000 1.000000 1.000000
1.000000 1.000000 1.000000
1.000000 1.000000 1.000000
1.000000 1.000000 1.000000
1.000000 1.000000 1.000000
1.000000 1.000000 1.000000
1.000000 1.000000 1.000000
1.000000 1.000000 1.000000
1.000000 1.000000 1.000000
1.000000 1.000000 1.000000
1.000000 1.000000 1.000000
1.000000 1.000000 1.000000
1.000000 1.000000 1.000000
1.000000 1.000000 1.000000
1.000000 1.000000 1.000000
1.000000 1.000000 1.000000
1.000000 1.000000 1.000000
1.000000 1.000000 1.000000
1.000000 1.000000 1.000000
1.000000 1.000000 1.000000
1.000000 1.000000 1.000000
1.000000 1.000000 1.000000
1.000000 1.000000 1.000000
1.000000 1.000000 1.000000
1.000000 1.000000 1.000000
1.000000 1.000000 1.000000
1.000000 1.000000 1.000000
1.000000 1.000000 1.000000
1.000000 1.000000 1.000000
1.000000 1.000000 1.000000
1.000000 1.000000 1.000000
1.000000 1.000000 1.000000
1.000000 1.000000 1.000000
1.000000 1.000000 1.000000
1.000000 1.000000 1.000000
1.000000 1.000000 1.000000
1.000000 1.000000 1.000000
1.000000 1.000000 1.000000
1.000000 1.000000 1.000000
1.000000 1.000000 1.000000
1.000000 1.000000 1.000000
1.000000 1.000000 1.000000
1.000000 1.000000 1.000000
1.000000 1.000000 1.000000
1.000000 1.000000 1.000000
1.000000 1.000000 1.000000
1.000000 1.000000 1.000000
1.000000 1.000000 1.000000
1.000000 1.000000 1.000000
1.000000 1.000000 1.000000
1.000000 1.000000 1.000000
1.000000 1.000000 1.000000
1.000000 1.000000 1.000000
1.000000 1.000000 1.000000
1.000000 1.000000 1.000000
1.000000 1.000000 1.000000
1.000000 1.000000 1.000000
1.000000 1.000000 1.000000
1.000000 1.000000 1.000000
1.000000 1.000000 1.000000
1.000000 1.000000 1.000000
1.000000 1.000000 1.000000
1.000000 1.000000 1.000000
1.000000 1.000000 1.000000
1.000000 1.000000 1.000000
1.000000 1.000000 1.000000
1.000000 1.000000 1.000000
1.000000 1.000000 1.000000
1.000000 1.000000 1.000000
1.000000 1.000000 1.000000
1.000000 1.000000 1.000000
1.000000 1.000000 1.000000
1.000000 1.000000 1.000000
1.000000 1.000000 1.000000
1.000000 1.000000 1.000000
1.000000 1.000000 1.000000
1.000000 1.000000 1.000000
