Assets/Data/Textures/70 CGC LUTs/LUTs_AgX_Filmic_ViewTransforms/ARRILogC4AWG4-to-JP2499DRT-CrazyNegative-sRGB.cube
#  Baked from the PixelManager OCIO config by Joe Genco
#  https://github.com/Joegenco/PixelManager
#  Input Gamma: Arri LogC4
#  Input Color Space: Arri Wide Gamut 4
#  floating point data (range 0.0 - 1.0)   
#       
#  Output Gamma: Gamma 2.2 (Display)
#  Output Color Space: Rec.709
#  floating point data (range 0.0 - 1.0)
LUT_3D_SIZE 9
0.016499 0.017535 0.016136
0.037524 0.018030 0.015874
0.217218 0.018732 0.016609
0.581684 0.047173 0.042284
0.839242 0.153349 0.061430
0.969392 0.471189 0.243080
0.999307 0.671292 0.632494
0.999980 0.801175 0.855464
0.999904 0.856116 0.978901
0.016713 0.033902 0.015537
0.046158 0.041658 0.014235
0.261290 0.021961 0.019487
0.588424 0.047837 0.042832
0.839603 0.154189 0.061778
0.969451 0.471349 0.245757
0.999307 0.671318 0.632830
0.999980 0.801180 0.855511
0.999904 0.856120 0.978903
0.005732 0.196255 0.004110
0.005366 0.218837 0.004022
0.321576 0.307754 0.004123
0.681930 0.122009 0.046784
0.857506 0.200304 0.061846
0.970254 0.474368 0.254848
0.999309 0.671416 0.634106
0.999980 0.801200 0.855690
0.999904 0.856137 0.978912
0.015056 0.501221 0.009788
0.015144 0.502171 0.009827
0.022847 0.548309 0.010972
0.673643 0.568450 0.012133
0.890120 0.470418 0.045052
0.976822 0.506001 0.275044
0.999366 0.674912 0.638364
0.999979 0.801276 0.856368
0.999903 0.856201 0.978948
0.349524 0.696878 0.019732
0.350153 0.697091 0.019844
0.372341 0.704222 0.022087
0.473994 0.737581 0.037524
0.883910 0.743646 0.044332
0.983584 0.686244 0.278652
0.999674 0.699184 0.648701
0.999981 0.804222 0.858578
0.999903 0.856445 0.979083
0.776530 0.834595 0.375546
0.776624 0.834627 0.375757
0.776983 0.834747 0.376555
0.793138 0.840444 0.395879
0.843844 0.858833 0.465023
0.974302 0.868313 0.501563
0.999368 0.830351 0.652235
0.999984 0.824869 0.864996
0.999902 0.863304 0.981043
0.946192 0.914290 0.675429
0.946199 0.914294 0.675463
0.946226 0.914312 0.675592
0.946324 0.914380 0.676081
0.950429 0.917887 0.689355
0.963269 0.929427 0.734153
0.996208 0.936620 0.766169
0.999848 0.921966 0.862655
0.999798 0.910975 0.984484
0.986281 0.957644 0.851838
0.986281 0.957644 0.851844
0.986283 0.957647 0.851866
0.986289 0.957656 0.851947
0.986310 0.957690 0.852255
0.987520 0.959585 0.861228
0.991116 0.966147 0.886167
0.998834 0.969535 0.901815
0.997969 0.968246 0.978717
0.986746 0.959957 0.973981
0.986746 0.959957 0.973983
0.986746 0.959957 0.973993
0.986745 0.959958 0.974032
0.986743 0.959960 0.974176
0.986736 0.959966 0.974724
0.989526 0.965187 0.979497
0.997888 0.968161 0.983623
0.997752 0.968017 0.991781
0.016701 0.018995 0.022447
0.046618 0.020737 0.031552
0.264981 0.022463 0.021514
0.596414 0.048943 0.044300
0.842643 0.160836 0.064421
0.969934 0.472689 0.266209
0.999310 0.671544 0.635450
0.999979 0.801221 0.855881
0.999904 0.856155 0.978922
0.015970 0.045693 0.033946
0.048046 0.052968 0.046417
0.322755 0.026660 0.025913
0.605528 0.049914 0.045017
0.842949 0.161549 0.064732
0.969950 0.472823 0.268796
0.999310 0.671570 0.635782
0.999979 0.801227 0.855928
0.999904 0.856160 0.978925
0.005380 0.252918 0.004397
0.006572 0.280667 0.005722
0.362067 0.339809 0.005073
0.694670 0.130983 0.048316
0.860481 0.209723 0.064452
0.970650 0.475936 0.277588
0.999312 0.671667 0.637045
0.999979 0.801246 0.856106
0.999904 0.856176 0.978934
0.016064 0.512739 0.010278
0.016126 0.513537 0.010314
0.025259 0.557402 0.011245
0.681010 0.573485 0.012366
0.892142 0.473005 0.047576
0.977014 0.507212 0.296979
0.999369 0.675196 0.641263
0.999979 0.801322 0.856782
0.999903 0.856241 0.978970
0.357199 0.699493 0.021204
0.357757 0.699685 0.021320
0.379534 0.706663 0.023355
0.479424 0.739535 0.039939
0.885052 0.744805 0.046876
0.983815 0.686765 0.299035
0.999676 0.699386 0.651491
0.999980 0.804274 0.858987
0.999902 0.856484 0.979104
0.777730 0.835001 0.378046
0.777821 0.835032 0.378250
0.778168 0.835149 0.379022
0.794258 0.840826 0.398021
0.844407 0.859085 0.466363
0.974378 0.868485 0.502421
0.999371 0.830404 0.654895
0.999984 0.824933 0.865505
0.999902 0.863346 0.981065
0.946281 0.914350 0.675838
0.946288 0.914355 0.675871
0.946314 0.914373 0.675999
0.946412 0.914440 0.676484
0.950492 0.917945 0.689720
0.963305 0.929462 0.734374
0.996211 0.936644 0.766301
0.999848 0.921973 0.863027
0.999798 0.910981 0.984503
0.986285 0.957651 0.851902
0.986286 0.957651 0.851908
0.986287 0.957654 0.851929
0.986293 0.957663 0.852011
0.986314 0.957697 0.852318
0.987525 0.959592 0.861283
0.991118 0.966153 0.886256
0.998834 0.969535 0.901830
0.997968 0.968245 0.978737
0.986745 0.959958 0.974011
0.986745 0.959958 0.974013
0.986745 0.959958 0.974023
0.986745 0.959958 0.974061
0.986743 0.959960 0.974206
0.986735 0.959966 0.974753
0.989525 0.965186 0.979514
0.997888 0.968160 0.983636
0.997752 0.968017 0.991785
0.013223 0.033845 0.104416
0.026495 0.039734 0.141218
0.306471 0.037809 0.195270
0.629928 0.060502 0.122197
0.855963 0.198888 0.104260
0.970498 0.477303 0.339066
0.999322 0.672482 0.646419
0.999979 0.801397 0.857458
0.999903 0.856305 0.979005
0.017337 0.050247 0.188384
0.021603 0.055187 0.235965
0.355432 0.044115 0.257012
0.648545 0.065480 0.137435
0.856683 0.200660 0.107084
0.970509 0.477415 0.340846
0.999322 0.672507 0.646738
0.999979 0.801403 0.857504
0.999903 0.856309 0.979008
0.004963 0.294818 0.226311
0.004966 0.314012 0.253191
0.333961 0.354463 0.329971
0.721260 0.181303 0.209108
0.874921 0.250594 0.118765
0.971364 0.481076 0.346970
0.999323 0.672600 0.647950
0.999979 0.801422 0.857681
0.999903 0.856326 0.979017
0.019746 0.542434 0.037291
0.019921 0.543985 0.042496
0.033702 0.584088 0.086654
0.700152 0.590179 0.055890
0.904637 0.484550 0.104133
0.977621 0.511538 0.360646
0.999384 0.676250 0.652026
0.999979 0.801497 0.858350
0.999903 0.856390 0.979052
0.382135 0.708485 0.028734
0.382630 0.708703 0.029061
0.404200 0.715815 0.033698
0.499616 0.748219 0.073661
0.891981 0.751259 0.084018
0.984152 0.688107 0.370417
0.999685 0.700141 0.661865
0.999980 0.804478 0.860535
0.999902 0.856633 0.979186
0.781958 0.836449 0.386938
0.782034 0.836477 0.387123
0.782325 0.836581 0.387822
0.798008 0.842199 0.405756
0.846435 0.859991 0.471179
0.974652 0.869117 0.505566
0.999381 0.830611 0.664720
0.999984 0.825178 0.867424
0.999901 0.863505 0.981150
0.946614 0.914578 0.677363
0.946620 0.914582 0.677396
0.946645 0.914599 0.677520
0.946740 0.914665 0.677989
0.950729 0.918164 0.691099
0.963440 0.929595 0.735202
0.996220 0.936731 0.766799
0.999849 0.921998 0.864436
0.999797 0.911015 0.984575
0.986302 0.957678 0.852144
0.986303 0.957678 0.852150
0.986304 0.957681 0.852171
0.986310 0.957690 0.852252
0.986331 0.957724 0.852557
0.987540 0.959617 0.861495
0.991125 0.966174 0.886596
0.998832 0.969529 0.902205
0.997967 0.968244 0.978814
0.986744 0.959959 0.974124
0.986744 0.959959 0.974127
0.986744 0.959959 0.974137
0.986743 0.959960 0.974175
0.986741 0.959961 0.974319
0.986734 0.959968 0.974865
0.989521 0.965183 0.979577
0.997887 0.968159 0.983687
0.997752 0.968017 0.991799
0.040109 0.105796 0.466542
0.042521 0.122395 0.497876
0.241637 0.179310 0.560021
0.667372 0.233323 0.574997
0.872230 0.324179 0.523845
0.971211 0.496485 0.525271
0.999316 0.675727 0.684224
0.999978 0.802226 0.863815
0.999901 0.856871 0.979317
0.042749 0.129851 0.507338
0.044235 0.147742 0.533269
0.239782 0.206723 0.587161
0.679154 0.253767 0.590569
0.875857 0.332005 0.530752
0.971209 0.496606 0.526358
0.999315 0.675748 0.684492
0.999978 0.802234 0.863869
0.999901 0.856875 0.979320
0.033513 0.313419 0.574134
0.034202 0.324188 0.590176
0.101911 0.355690 0.639104
0.709280 0.319678 0.635291
0.888658 0.358433 0.554997
0.972633 0.502468 0.531988
0.999313 0.675826 0.685509
0.999978 0.802266 0.864075
0.999901 0.856892 0.979329
0.014114 0.556517 0.584383
0.014842 0.559419 0.589696
0.022280 0.581341 0.625392
0.672709 0.592091 0.658338
0.911355 0.509656 0.603489
0.978477 0.528525 0.550351
0.999389 0.679901 0.688942
0.999978 0.802385 0.864856
0.999901 0.856955 0.979364
0.432684 0.728694 0.480168
0.432710 0.728669 0.481932
0.452192 0.734385 0.494858
0.531316 0.757595 0.541565
0.898272 0.758827 0.546140
0.984367 0.691492 0.561970
0.999715 0.702950 0.697211
0.999979 0.805640 0.867572
0.999900 0.857196 0.979496
0.795703 0.841091 0.441407
0.795772 0.841112 0.441875
0.796031 0.841192 0.443648
0.809536 0.846045 0.461220
0.854028 0.863200 0.512838
0.975380 0.871019 0.554487
0.999419 0.831166 0.700891
0.999982 0.826100 0.874324
0.999900 0.864104 0.981472
0.947711 0.915394 0.682791
0.947716 0.915398 0.682821
0.947733 0.915413 0.682932
0.947797 0.915472 0.683352
0.951577 0.918946 0.696025
0.963930 0.930075 0.738182
0.996256 0.937055 0.768627
0.999854 0.922099 0.869051
0.999796 0.911201 0.984829
0.986365 0.957779 0.853047
0.986366 0.957780 0.853053
0.986367 0.957782 0.853073
0.986373 0.957791 0.853151
0.986393 0.957824 0.853448
0.987600 0.959713 0.862306
0.991154 0.966256 0.887871
0.998824 0.969503 0.903771
0.997962 0.968239 0.979108
0.986738 0.959964 0.974553
0.986738 0.959964 0.974556
0.986738 0.959964 0.974566
0.986737 0.959965 0.974603
0.986736 0.959966 0.974747
0.986728 0.959973 0.975289
0.989506 0.965173 0.979817
0.997884 0.968156 0.983879
0.997751 0.968016 0.991851
0.044615 0.408140 0.758673
0.044600 0.414873 0.764365
0.050863 0.436067 0.781246
0.604596 0.474211 0.809789
0.880804 0.511157 0.814618
0.971354 0.567765 0.789486
0.999062 0.690120 0.792855
0.999975 0.806083 0.886040
0.999894 0.858975 0.980476
0.044409 0.416503 0.765330
0.044311 0.423006 0.770283
0.049242 0.442737 0.786754
0.604929 0.479203 0.814245
0.882307 0.513867 0.816928
0.971719 0.569099 0.790765
0.999061 0.690142 0.793030
0.999975 0.806090 0.886079
0.999894 0.858979 0.980478
0.043285 0.445231 0.784021
0.043377 0.450066 0.788541
0.044947 0.467188 0.803457
0.601918 0.496632 0.827206
0.887861 0.524028 0.825464
0.972973 0.573761 0.795209
0.999065 0.690417 0.793749
0.999975 0.806118 0.886225
0.999894 0.858995 0.980487
0.041282 0.567627 0.812218
0.041859 0.570301 0.815180
0.044074 0.579169 0.825737
0.525365 0.594648 0.850923
0.898743 0.569430 0.849183
0.976849 0.592175 0.809781
0.999252 0.695396 0.797272
0.999975 0.806225 0.886782
0.999894 0.859056 0.980520
0.481416 0.731386 0.812692
0.483858 0.732101 0.813697
0.499054 0.736590 0.819509
0.548904 0.751315 0.838960
0.881333 0.755620 0.854080
0.981644 0.704246 0.834414
0.999578 0.715280 0.806891
0.999976 0.809793 0.888990
0.999893 0.859288 0.980648
0.816972 0.845919 0.737518
0.816976 0.845914 0.737819
0.816991 0.845897 0.738962
0.829123 0.850287 0.748186
0.863073 0.864939 0.778229
0.973965 0.871736 0.794037
0.999527 0.832816 0.809639
0.999979 0.829458 0.894857
0.999893 0.866341 0.982381
0.950572 0.917985 0.718245
0.950575 0.917988 0.718319
0.950588 0.918000 0.718600
0.950635 0.918043 0.719668
0.954336 0.921475 0.731145
0.965592 0.931719 0.764290
0.996221 0.937877 0.797734
0.999875 0.922364 0.886545
0.999789 0.911898 0.985740
0.986589 0.958139 0.856254
0.986589 0.958140 0.856259
0.986590 0.958142 0.856277
0.986595 0.958150 0.856348
0.986614 0.958180 0.856614
0.987816 0.960063 0.865140
0.991256 0.966549 0.892444
0.998793 0.969409 0.909497
0.997944 0.968220 0.980205
0.986712 0.959983 0.976035
0.986712 0.959983 0.976037
0.986712 0.959983 0.976044
0.986711 0.959984 0.976072
0.986708 0.959985 0.976178
0.986698 0.959993 0.976489
0.989457 0.965151 0.980706
0.997872 0.968143 0.984597
0.997748 0.968013 0.992049
0.054790 0.622117 0.913927
0.056012 0.623466 0.914794
0.063172 0.628330 0.917986
0.352205 0.644401 0.927989
0.836903 0.667154 0.934956
0.968820 0.699899 0.937529
0.998384 0.744049 0.927217
0.999959 0.819622 0.934942
0.999872 0.866334 0.983778
0.055256 0.623686 0.914836
0.056474 0.625031 0.915701
0.063834 0.629863 0.918784
0.345727 0.645776 0.928664
0.836868 0.668235 0.935511
0.968956 0.700423 0.937765
0.998404 0.744307 0.927372
0.999959 0.819629 0.934959
0.999872 0.866337 0.983780
0.056904 0.629200 0.918026
0.058089 0.630537 0.918723
0.066110 0.635260 0.921280
0.324180 0.650737 0.931036
0.836675 0.672051 0.937471
0.969487 0.702536 0.938688
0.998447 0.745184 0.927908
0.999959 0.819658 0.935020
0.999872 0.866351 0.983786
0.076839 0.651372 0.926890
0.078526 0.652418 0.927496
0.085505 0.656124 0.929762
0.250414 0.669233 0.938515
0.834696 0.685596 0.942656
0.970942 0.710279 0.942084
0.998553 0.748687 0.929901
0.999959 0.820144 0.935337
0.999872 0.866405 0.983807
0.501657 0.742368 0.938103
0.503114 0.742881 0.938484
0.508139 0.744790 0.939956
0.526498 0.751157 0.944087
0.804652 0.758048 0.950225
0.973983 0.745597 0.951061
0.998922 0.761988 0.935644
0.999961 0.824510 0.936995
0.999871 0.866608 0.983889
0.833966 0.849200 0.928612
0.834471 0.849409 0.928831
0.836100 0.850208 0.929669
0.842087 0.853159 0.932172
0.861267 0.862836 0.940266
0.966703 0.869770 0.948467
0.998873 0.840007 0.943176
0.999964 0.840577 0.942139
0.999879 0.873082 0.985493
0.954057 0.921246 0.890345
0.954056 0.921245 0.890386
0.954053 0.921243 0.890542
0.954095 0.921287 0.891187
0.957468 0.924277 0.896789
0.965997 0.932385 0.911451
0.994901 0.937905 0.922080
0.999877 0.922985 0.940895
0.999759 0.914447 0.988212
0.987174 0.959229 0.882791
0.987174 0.959230 0.882801
0.987175 0.959231 0.882838
0.987178 0.959237 0.882981
0.987189 0.959258 0.883521
0.988401 0.961142 0.889387
0.991559 0.967449 0.906687
0.998663 0.969131 0.926438
0.997888 0.968160 0.983650
0.986603 0.960070 0.979347
0.986603 0.960070 0.979348
0.986603 0.960070 0.979353
0.986603 0.960071 0.979372
0.986600 0.960073 0.979443
0.986591 0.960080 0.979714
0.989295 0.965091 0.983569
0.997829 0.968098 0.987181
0.997736 0.968000 0.992775
0.495098 0.781392 0.980791
0.496349 0.781635 0.980853
0.501808 0.782529 0.981075
0.526421 0.785686 0.981829
0.702314 0.794214 0.982662
0.949297 0.810816 0.982346
0.995540 0.835633 0.983102
0.999897 0.861654 0.980995
0.999794 0.885228 0.990627
0.495804 0.781690 0.980865
0.497056 0.781933 0.980927
0.502329 0.782821 0.981149
0.526512 0.785974 0.981904
0.701491 0.794463 0.982727
0.949293 0.811010 0.982393
0.995546 0.835721 0.983121
0.999897 0.861702 0.981007
0.999794 0.885230 0.990628
0.498432 0.782800 0.981140
0.499687 0.783043 0.981203
0.504271 0.783912 0.981423
0.527068 0.787049 0.982183
0.698621 0.795397 0.982969
0.949279 0.811734 0.982568
0.995570 0.836060 0.983192
0.999897 0.861878 0.981053
0.999794 0.885238 0.990630
0.507657 0.786704 0.982109
0.508926 0.786951 0.982172
0.513257 0.787820 0.982394
0.533884 0.790878 0.983152
0.690629 0.798766 0.983800
0.949217 0.814280 0.983184
0.995674 0.837429 0.983475
0.999897 0.862641 0.981271
0.999794 0.885270 0.990640
0.564825 0.801722 0.984483
0.565462 0.801895 0.984523
0.567574 0.802539 0.984682
0.577148 0.804831 0.985212
0.663026 0.811757 0.986388
0.948539 0.823500 0.985065
0.996000 0.842312 0.984486
0.999898 0.865422 0.981887
0.999795 0.886154 0.990811
0.819406 0.859307 0.982768
0.819570 0.859394 0.982800
0.820120 0.859721 0.982927
0.822335 0.860964 0.983402
0.830404 0.865327 0.985100
0.939384 0.871119 0.986165
0.996371 0.865801 0.986810
0.999905 0.874426 0.983648
0.999789 0.893076 0.991993
0.955152 0.924728 0.976281
0.955191 0.924759 0.976302
0.955339 0.924874 0.976380
0.955891 0.925307 0.976672
0.957894 0.926914 0.977767
0.962898 0.932204 0.980764
0.992484 0.937159 0.984037
0.999637 0.925782 0.984507
0.999694 0.919778 0.993594
0.986841 0.959873 0.966850
0.986841 0.959873 0.966853
0.986841 0.959873 0.966869
0.986840 0.959874 0.966926
0.986870 0.959925 0.967192
0.987993 0.961665 0.969028
0.990597 0.967007 0.974959
0.997949 0.968224 0.979952
0.997768 0.968033 0.990877
0.986234 0.960328 0.987554
0.986234 0.960328 0.987555
0.986234 0.960328 0.987557
0.986233 0.960328 0.987566
0.986229 0.960329 0.987599
0.986216 0.960330 0.987722
0.988737 0.964854 0.989847
0.997749 0.968014 0.992003
0.997708 0.967970 0.994419
0.792337 0.884388 0.997584
0.792494 0.884425 0.997587
0.793081 0.884563 0.997595
0.795891 0.885069 0.997624
0.808384 0.886874 0.997716
0.896712 0.891494 0.997288
0.988248 0.902878 0.996332
0.999558 0.913869 0.996109
0.999566 0.911710 0.995871
0.792435 0.884434 0.997587
0.792593 0.884471 0.997590
0.793180 0.884609 0.997598
0.795965 0.885114 0.997627
0.808403 0.886919 0.997720
0.896609 0.891538 0.997295
0.988248 0.902906 0.996335
0.999558 0.913889 0.996111
0.999566 0.911730 0.995874
0.792807 0.884609 0.997599
0.792965 0.884646 0.997601
0.793553 0.884784 0.997610
0.796248 0.885287 0.997639
0.808477 0.887091 0.997732
0.896219 0.891705 0.997320
0.988245 0.903011 0.996346
0.999558 0.913962 0.996120
0.999565 0.911808 0.995882
0.794193 0.885259 0.997641
0.794352 0.885296 0.997643
0.794941 0.885434 0.997652
0.797302 0.885929 0.997682
0.808750 0.887732 0.997779
0.894882 0.892339 0.997404
0.988237 0.903403 0.996388
0.999557 0.914235 0.996150
0.999564 0.912096 0.995914
0.799057 0.887543 0.997790
0.799217 0.887581 0.997792
0.799814 0.887721 0.997801
0.801909 0.888214 0.997832
0.812394 0.889997 0.997933
0.891312 0.894621 0.997678
0.988206 0.904781 0.996535
0.999552 0.915191 0.996255
0.999561 0.913067 0.996021
0.831915 0.896948 0.998098
0.831985 0.896981 0.998101
0.832246 0.897106 0.998113
0.833158 0.897542 0.998154
0.837452 0.899140 0.998261
0.878964 0.902969 0.998240
0.987983 0.909898 0.997010
0.999533 0.918633 0.996621
0.999545 0.916697 0.996418
0.948438 0.931175 0.995575
0.948452 0.931187 0.995577
0.948503 0.931233 0.995585
0.948698 0.931424 0.995620
0.949475 0.932143 0.995747
0.952203 0.934628 0.996199
0.985338 0.938854 0.996459
0.999246 0.937071 0.996223
0.999323 0.933376 0.996434
0.985572 0.960510 0.992456
0.985576 0.960516 0.992457
0.985590 0.960539 0.992464
0.985644 0.960623 0.992487
0.985854 0.960952 0.992579
0.986607 0.962131 0.992910
0.988703 0.965935 0.993995
0.997708 0.967970 0.994419
0.997708 0.967970 0.994419
0.985532 0.960448 0.992438
0.985532 0.960448 0.992438
0.985532 0.960448 0.992438
0.985532 0.960448 0.992438
0.985532 0.960448 0.992438
0.985628 0.960599 0.992481
0.988145 0.964794 0.993666
0.997708 0.967970 0.994419
0.997708 0.967970 0.994419
0.957111 0.937301 0.996081
0.957119 0.937311 0.996083
0.957151 0.937348 0.996090
0.957270 0.937490 0.996116
0.957988 0.938027 0.996219
0.962629 0.939824 0.996520
0.991731 0.941281 0.996162
0.999201 0.939230 0.996099
0.999274 0.935718 0.996300
0.957154 0.937329 0.996079
0.957163 0.937339 0.996081
0.957195 0.937377 0.996088
0.957314 0.937518 0.996114
0.958029 0.938056 0.996217
0.962645 0.939853 0.996518
0.991729 0.941305 0.996161
0.999200 0.939259 0.996098
0.999273 0.935749 0.996298
0.957320 0.937438 0.996070
0.957328 0.937448 0.996072
0.957360 0.937486 0.996079
0.957479 0.937627 0.996105
0.958186 0.938164 0.996208
0.962702 0.939966 0.996511
0.991722 0.941398 0.996156
0.999198 0.939368 0.996092
0.999271 0.935867 0.996291
0.957946 0.937850 0.996037
0.957955 0.937860 0.996039
0.957987 0.937898 0.996046
0.958106 0.938039 0.996072
0.958779 0.938574 0.996174
0.962922 0.940392 0.996487
0.991697 0.941749 0.996136
0.999188 0.939777 0.996068
0.999262 0.936314 0.996266
0.960281 0.939384 0.995915
0.960290 0.939394 0.995917
0.960322 0.939432 0.995924
0.960442 0.939573 0.995950
0.960987 0.940103 0.996048
0.963755 0.941674 0.996406
0.991592 0.943055 0.996063
0.999132 0.940987 0.995999
0.999227 0.937975 0.996171
0.966902 0.943558 0.995453
0.966911 0.943566 0.995455
0.966944 0.943596 0.995463
0.967069 0.943707 0.995491
0.967525 0.944109 0.995592
0.969456 0.945581 0.995963
0.991081 0.947505 0.995814
0.998903 0.945766 0.995723
0.999032 0.943054 0.995881
0.980097 0.955080 0.994175
0.980102 0.955086 0.994177
0.980121 0.955108 0.994184
0.980192 0.955191 0.994211
0.980438 0.955481 0.994303
0.981389 0.956595 0.994654
0.989769 0.959127 0.995156
0.998225 0.959059 0.994947
0.998300 0.957749 0.995024
0.986655 0.962206 0.992931
0.986658 0.962210 0.992932
0.986670 0.962229 0.992938
0.986727 0.962319 0.992963
0.986926 0.962631 0.993051
0.987607 0.963701 0.993353
0.989397 0.966886 0.994323
0.997708 0.967970 0.994419
0.997708 0.967970 0.994419
0.985688 0.960692 0.992507
0.985691 0.960697 0.992508
0.985706 0.960720 0.992514
0.985761 0.960806 0.992538
0.985970 0.961133 0.992630
0.986710 0.962292 0.992955
0.988781 0.966068 0.994033
0.997708 0.967970 0.994419
0.997708 0.967970 0.994419
