Assets/Data/Textures/70 CGC LUTs/LUTs_AgX_Filmic_ViewTransforms/ARRILogC4AWG4-to-OpenDRT-sRGB.cube
#  Baked from the PixelManager OCIO config by Joe Genco
#  https://github.com/Joegenco/PixelManager
#  Input Gamma: Arri LogC4
#  Input Color Space: Arri Wide Gamut 4
#  floating point data (range 0.0 - 1.0)   
#       
#  Output Gamma: Gamma 2.2 (Display)
#  Output Color Space: Rec.709
#  floating point data (range 0.0 - 1.0)
LUT_3D_SIZE 9
0.000000 0.000000 0.000000
0.000000 0.000000 0.000000
0.388493 0.000000 0.000000
0.761047 0.094102 0.000000
0.973819 0.419593 0.293175
0.998743 0.778699 0.711206
0.997175 0.941406 0.921172
0.997868 0.963199 0.950238
0.997868 0.963199 0.950238
0.000000 0.000000 0.000000
0.053073 0.056209 0.007063
0.382491 0.000000 0.000000
0.759441 0.093212 0.000000
0.973708 0.419065 0.292587
0.998744 0.778615 0.711100
0.997175 0.941398 0.921162
0.997868 0.963199 0.950238
0.997868 0.963199 0.950238
0.017781 0.332139 0.011816
0.017646 0.331177 0.011432
0.331345 0.332162 0.022651
0.735735 0.240096 0.000000
0.973286 0.417036 0.290329
0.998751 0.778297 0.710692
0.997174 0.941369 0.921123
0.997868 0.963199 0.950238
0.997868 0.963199 0.950238
0.069680 0.661971 0.000000
0.068942 0.660875 0.000000
0.081140 0.647599 0.019783
0.634764 0.639221 0.121389
0.948354 0.525313 0.332928
0.998774 0.777019 0.709097
0.997172 0.941257 0.920974
0.997868 0.963199 0.950238
0.997868 0.963199 0.950238
0.371427 0.882028 0.325435
0.371089 0.881895 0.325093
0.369816 0.881390 0.323810
0.403280 0.860249 0.358474
0.877452 0.883778 0.512394
0.986596 0.822104 0.742105
0.997162 0.940829 0.920405
0.997868 0.963199 0.950238
0.997868 0.963199 0.950238
0.751259 0.957447 0.727558
0.751185 0.957437 0.727479
0.750904 0.957400 0.727175
0.749829 0.957258 0.726016
0.772633 0.948384 0.750526
0.966154 0.969843 0.836235
0.994447 0.953700 0.931835
0.997868 0.963199 0.950238
0.997868 0.963199 0.950238
0.932950 0.986195 0.925820
0.932945 0.986194 0.925813
0.932922 0.986189 0.925788
0.932835 0.986174 0.925692
0.932502 0.986114 0.925325
0.940177 0.984676 0.933730
0.991820 0.992754 0.959870
0.997694 0.982617 0.967836
0.997868 0.963199 0.950238
0.964837 0.991819 0.961108
0.964837 0.991819 0.961107
0.964837 0.991819 0.961107
0.964835 0.991819 0.961104
0.964829 0.991819 0.961095
0.964806 0.991817 0.961058
0.975270 0.992107 0.971771
0.995116 0.996852 0.982207
0.995189 0.997169 0.981190
0.970663 0.995614 0.977884
0.970663 0.995614 0.977884
0.970662 0.995614 0.977883
0.970662 0.995613 0.977880
0.970659 0.995610 0.977870
0.970648 0.995598 0.977829
0.970605 0.995553 0.977673
0.994778 0.995073 0.992424
0.994808 0.995166 0.991964
0.000000 0.000000 0.000000
0.057170 0.000000 0.040658
0.394310 0.000000 0.102466
0.760207 0.096791 0.017215
0.973585 0.420198 0.295739
0.998742 0.778702 0.711211
0.997175 0.941406 0.921173
0.997868 0.963199 0.950238
0.997868 0.963199 0.950238
0.004470 0.048706 0.037756
0.073136 0.073135 0.073135
0.387164 0.000000 0.096275
0.758642 0.096079 0.037690
0.973426 0.419783 0.295713
0.998744 0.778619 0.711105
0.997175 0.941399 0.921162
0.997868 0.963199 0.950238
0.997868 0.963199 0.950238
0.017277 0.335970 0.033000
0.016392 0.334046 0.034566
0.329576 0.330538 0.019489
0.732757 0.235224 0.000000
0.972861 0.418190 0.295628
0.998751 0.778301 0.710697
0.997174 0.941369 0.921123
0.997868 0.963199 0.950238
0.997868 0.963199 0.950238
0.073695 0.658579 0.000000
0.072951 0.657491 0.000000
0.085282 0.644484 0.024611
0.632417 0.636415 0.128890
0.945911 0.526181 0.338630
0.998773 0.777024 0.709103
0.997172 0.941257 0.920975
0.997868 0.963199 0.950238
0.997868 0.963199 0.950238
0.373950 0.880387 0.328096
0.373620 0.880251 0.327762
0.372353 0.879734 0.326484
0.405584 0.859074 0.360934
0.876405 0.882667 0.514508
0.986176 0.822374 0.742834
0.997162 0.940829 0.920406
0.997868 0.963199 0.950238
0.997868 0.963199 0.950238
0.751762 0.957209 0.728101
0.751689 0.957199 0.728022
0.751409 0.957162 0.727720
0.750338 0.957018 0.726565
0.773060 0.948253 0.750990
0.965967 0.969726 0.836523
0.994413 0.953724 0.931889
0.997868 0.963199 0.950238
0.997868 0.963199 0.950238
0.932995 0.986184 0.925869
0.932989 0.986183 0.925862
0.932966 0.986179 0.925837
0.932879 0.986163 0.925741
0.932547 0.986104 0.925374
0.940212 0.984672 0.933769
0.991804 0.992745 0.959899
0.997685 0.982621 0.967854
0.997868 0.963199 0.950238
0.964850 0.991820 0.961127
0.964850 0.991820 0.961127
0.964849 0.991820 0.961127
0.964848 0.991820 0.961124
0.964842 0.991819 0.961115
0.964819 0.991818 0.961078
0.975279 0.992106 0.971783
0.995115 0.996849 0.982221
0.995189 0.997167 0.981197
0.970669 0.995620 0.977906
0.970669 0.995620 0.977906
0.970668 0.995620 0.977905
0.970668 0.995619 0.977902
0.970665 0.995616 0.977892
0.970654 0.995604 0.977851
0.970611 0.995560 0.977695
0.994777 0.995072 0.992428
0.994808 0.995165 0.991969
0.000000 0.000000 0.266917
0.124377 0.000000 0.293637
0.408405 0.000000 0.328844
0.768067 0.104496 0.299480
0.974531 0.426528 0.341520
0.998564 0.779459 0.713168
0.997175 0.941408 0.921174
0.997868 0.963199 0.950238
0.997868 0.963199 0.950238
0.000000 0.058934 0.291642
0.024465 0.031058 0.304014
0.394502 0.000000 0.327743
0.766627 0.103729 0.302507
0.974490 0.426097 0.342023
0.998562 0.779397 0.713120
0.997175 0.941400 0.921164
0.997868 0.963199 0.950238
0.997868 0.963199 0.950238
0.011940 0.339179 0.311809
0.011239 0.335722 0.312780
0.319077 0.319077 0.319077
0.734994 0.217179 0.282006
0.974323 0.424431 0.343799
0.998555 0.779154 0.712920
0.997174 0.941371 0.921125
0.997868 0.963199 0.950238
0.997868 0.963199 0.950238
0.085518 0.657234 0.226525
0.084800 0.656188 0.227066
0.097293 0.644342 0.228872
0.623239 0.626641 0.260894
0.935048 0.530715 0.375981
0.998536 0.778166 0.712174
0.997172 0.941259 0.920976
0.997868 0.963199 0.950238
0.997868 0.963199 0.950238
0.383320 0.874821 0.339154
0.382879 0.874704 0.338689
0.381585 0.874170 0.337380
0.414031 0.855201 0.371272
0.872568 0.878436 0.525856
0.984414 0.823433 0.745947
0.997162 0.940830 0.920407
0.997868 0.963199 0.950238
0.997868 0.963199 0.950238
0.753404 0.956593 0.729889
0.753331 0.956582 0.729811
0.753055 0.956542 0.729512
0.751997 0.956389 0.728372
0.774454 0.947884 0.752521
0.965547 0.969138 0.837583
0.994262 0.953821 0.932144
0.997868 0.963199 0.950238
0.997868 0.963199 0.950238
0.933158 0.986145 0.926048
0.933152 0.986143 0.926041
0.933129 0.986139 0.926016
0.933043 0.986124 0.925921
0.932712 0.986064 0.925555
0.940342 0.984658 0.933912
0.991762 0.992721 0.959989
0.997652 0.982636 0.967917
0.997868 0.963199 0.950238
0.964896 0.991822 0.961202
0.964896 0.991822 0.961202
0.964895 0.991822 0.961201
0.964894 0.991822 0.961199
0.964888 0.991822 0.961190
0.964866 0.991821 0.961153
0.975316 0.992100 0.971828
0.995113 0.996836 0.982271
0.995186 0.997156 0.981224
0.970692 0.995644 0.977990
0.970691 0.995644 0.977990
0.970691 0.995644 0.977989
0.970690 0.995643 0.977986
0.970688 0.995640 0.977976
0.970677 0.995628 0.977935
0.970634 0.995584 0.977780
0.994776 0.995069 0.992444
0.994806 0.995162 0.991987
0.000000 0.041936 0.641964
0.000000 0.052730 0.640137
0.368952 0.065120 0.654952
0.784539 0.124114 0.641076
0.991251 0.446759 0.507912
0.999424 0.783713 0.728851
0.997156 0.941686 0.921817
0.997868 0.963199 0.950238
0.997868 0.963199 0.950238
0.000000 0.053858 0.638186
0.000000 0.062759 0.636173
0.344678 0.076869 0.649216
0.776128 0.128386 0.638763
0.991258 0.446337 0.508438
0.999434 0.783649 0.728829
0.997156 0.941681 0.921812
0.997868 0.963199 0.950238
0.997868 0.963199 0.950238
0.000000 0.291066 0.635847
0.000000 0.285696 0.634456
0.223985 0.260942 0.639184
0.738856 0.180045 0.627447
0.991120 0.444782 0.510457
0.999472 0.783406 0.728743
0.997155 0.941660 0.921794
0.997868 0.963199 0.950238
0.997868 0.963199 0.950238
0.117981 0.658127 0.610244
0.117312 0.656778 0.610570
0.129764 0.644946 0.607482
0.591679 0.591679 0.591679
0.924472 0.544978 0.521332
0.999606 0.782414 0.728350
0.997153 0.941575 0.921714
0.997868 0.963199 0.950238
0.997868 0.963199 0.950238
0.412929 0.882375 0.475008
0.412530 0.882287 0.474875
0.411002 0.881948 0.474367
0.439937 0.864466 0.492100
0.858687 0.861849 0.641081
0.975356 0.828215 0.762865
0.997150 0.941245 0.921403
0.997868 0.963199 0.950238
0.997868 0.963199 0.950238
0.759896 0.954207 0.737338
0.759826 0.954195 0.737264
0.759563 0.954148 0.736980
0.758556 0.953970 0.735898
0.779947 0.946617 0.758993
0.963701 0.966979 0.843620
0.993629 0.954208 0.933203
0.997868 0.963206 0.950257
0.997868 0.963199 0.950238
0.933704 0.986027 0.926652
0.933699 0.986026 0.926645
0.933676 0.986021 0.926621
0.933591 0.986005 0.926527
0.933266 0.985943 0.926168
0.940799 0.984608 0.934418
0.991671 0.992586 0.960338
0.997522 0.982691 0.968168
0.997868 0.963199 0.950238
0.965067 0.991831 0.961478
0.965066 0.991831 0.961477
0.965066 0.991831 0.961477
0.965065 0.991831 0.961474
0.965059 0.991831 0.961465
0.965038 0.991830 0.961431
0.975550 0.992023 0.972197
0.995104 0.996790 0.982457
0.995175 0.997119 0.981318
0.970778 0.995735 0.978306
0.970778 0.995735 0.978306
0.970777 0.995734 0.978305
0.970777 0.995734 0.978302
0.970774 0.995731 0.978292
0.970763 0.995719 0.978252
0.970721 0.995675 0.978099
0.994772 0.995057 0.992505
0.994802 0.995148 0.992056
0.000000 0.317066 0.931004
0.000000 0.322307 0.926805
0.128206 0.339989 0.917416
0.588195 0.374782 0.961553
1.000000 0.504668 0.886560
1.000000 0.797431 0.790001
0.997597 0.943080 0.926157
0.997913 0.963664 0.951391
0.997868 0.963199 0.950238
0.000000 0.321713 0.926613
0.000000 0.327055 0.922512
0.109655 0.345285 0.911900
0.578983 0.379582 0.955786
1.000000 0.505203 0.886495
1.000000 0.797373 0.790015
0.997597 0.943074 0.926152
0.997913 0.963665 0.951393
0.997868 0.963199 0.950238
0.024366 0.344289 0.909955
0.036470 0.348002 0.907156
0.088014 0.365695 0.894816
0.546333 0.398224 0.934129
1.000000 0.513278 0.881350
1.000000 0.797154 0.790069
0.997599 0.943051 0.926134
0.997913 0.963667 0.951401
0.997868 0.963199 0.950238
0.191467 0.555458 0.908515
0.190577 0.554223 0.908417
0.202685 0.552663 0.899611
0.445738 0.557519 0.853642
0.965532 0.566525 0.861383
1.000000 0.796282 0.790260
0.997607 0.942961 0.926064
0.997916 0.963677 0.951430
0.997868 0.963199 0.950238
0.493015 0.908766 0.862026
0.492719 0.908567 0.862236
0.491584 0.907804 0.863038
0.513112 0.888823 0.854669
0.828016 0.828016 0.828016
0.965905 0.840822 0.816057
0.997636 0.942617 0.925788
0.997926 0.963713 0.951534
0.997868 0.963199 0.950238
0.779446 0.959850 0.789606
0.779385 0.959843 0.789566
0.779155 0.959816 0.789410
0.778274 0.959712 0.788814
0.796410 0.952636 0.804506
0.957027 0.958687 0.893249
0.990108 0.955949 0.938825
0.997975 0.963861 0.951976
0.997868 0.963199 0.950238
0.935858 0.985625 0.929132
0.935853 0.985624 0.929126
0.935831 0.985619 0.929103
0.935750 0.985602 0.929013
0.935440 0.985537 0.928671
0.942543 0.984491 0.936468
0.991219 0.992061 0.962421
0.996863 0.982951 0.969432
0.997868 0.963249 0.950346
0.965643 0.991862 0.962407
0.965643 0.991862 0.962407
0.965642 0.991862 0.962406
0.965641 0.991862 0.962404
0.965636 0.991862 0.962397
0.965619 0.991861 0.962368
0.976202 0.991916 0.973204
0.995070 0.996571 0.983586
0.995135 0.996950 0.981815
0.971094 0.996068 0.979468
0.971094 0.996068 0.979468
0.971094 0.996067 0.979467
0.971093 0.996067 0.979465
0.971091 0.996064 0.979455
0.971080 0.996053 0.979417
0.971041 0.996012 0.979272
0.994758 0.995011 0.992730
0.994785 0.995097 0.992306
0.542049 0.700645 0.998893
0.543736 0.701890 0.998067
0.550081 0.706563 0.995052
0.588544 0.721185 0.989604
0.794895 0.749730 1.000000
1.000000 0.832248 0.966958
0.999902 0.947571 0.942703
0.999090 0.965819 0.958613
0.998465 0.964820 0.955150
0.543600 0.701688 0.998980
0.545272 0.702922 0.998024
0.551609 0.707599 0.994576
0.588674 0.722335 0.988350
0.794010 0.750557 1.000000
1.000000 0.832205 0.967056
0.999902 0.947565 0.942702
0.999090 0.965820 0.958615
0.998465 0.964821 0.955153
0.549768 0.706390 0.995560
0.551402 0.707576 0.994670
0.557502 0.711993 0.991352
0.590319 0.726528 0.984268
0.790036 0.754078 1.000000
1.000000 0.832886 0.967095
0.999903 0.947545 0.942696
0.999092 0.965822 0.958622
0.998467 0.964823 0.955162
0.572772 0.723996 0.982928
0.572944 0.724112 0.982841
0.578485 0.728121 0.980062
0.600586 0.742244 0.970947
0.778378 0.766699 0.997802
1.000000 0.837117 0.965225
0.999908 0.947466 0.942674
0.999097 0.965830 0.958649
0.998473 0.964833 0.955197
0.659854 0.824316 0.983009
0.659726 0.824157 0.982991
0.659237 0.823551 0.982925
0.669516 0.825802 0.976294
0.774352 0.837266 0.934095
0.997476 0.860895 0.955434
0.999927 0.947164 0.942588
0.999115 0.965859 0.958750
0.998496 0.964871 0.955327
0.826122 0.982597 0.960748
0.826080 0.982582 0.960783
0.825923 0.982525 0.960916
0.825321 0.982308 0.961422
0.836415 0.972438 0.957290
0.947522 0.947522 0.947522
0.987001 0.960177 0.953188
0.999209 0.965995 0.959226
0.998579 0.965007 0.955799
0.942169 0.987903 0.943596
0.942164 0.987902 0.943592
0.942146 0.987899 0.943577
0.942077 0.987888 0.943522
0.941812 0.987846 0.943311
0.947695 0.986689 0.948781
0.989547 0.989955 0.977288
0.993175 0.984175 0.976647
0.998888 0.965501 0.957511
0.967556 0.992898 0.967553
0.967556 0.992898 0.967553
0.967556 0.992898 0.967552
0.967555 0.992898 0.967549
0.967551 0.992895 0.967537
0.967536 0.992885 0.967493
0.978301 0.991904 0.977357
0.994953 0.995783 0.988376
0.995010 0.996129 0.986221
0.972230 0.997371 0.984433
0.972230 0.997371 0.984433
0.972230 0.997371 0.984432
0.972229 0.997370 0.984429
0.972227 0.997368 0.984418
0.972218 0.997357 0.984377
0.972183 0.997316 0.984218
0.994722 0.994895 0.993334
0.994735 0.994939 0.993095
0.860498 0.915773 0.997410
0.860694 0.915896 0.997328
0.861388 0.916342 0.997038
0.864026 0.918002 0.995978
0.876897 0.923063 0.994559
0.937189 0.932783 1.000000
1.000000 0.958773 0.991881
1.000000 0.971912 0.981782
1.000000 0.971301 0.979238
0.860664 0.915879 0.997332
0.860857 0.916000 0.997250
0.861552 0.916447 0.996961
0.864188 0.918106 0.995903
0.876961 0.923169 0.994461
0.937147 0.932861 1.000000
1.000000 0.958770 0.991889
1.000000 0.971913 0.981784
1.000000 0.971301 0.979240
0.861279 0.916272 0.997037
0.861455 0.916384 0.996962
0.862167 0.916838 0.996670
0.864789 0.918491 0.995627
0.877233 0.923566 0.994107
0.936987 0.933149 1.000000
1.000000 0.958756 0.991920
1.000000 0.971914 0.981789
1.000000 0.971303 0.979246
0.863916 0.917959 0.995900
0.864096 0.918070 0.995829
0.864762 0.918494 0.995561
0.867259 0.920069 0.994609
0.878508 0.925082 0.992868
0.936349 0.934323 1.000000
1.000000 0.958989 0.991978
1.000000 0.971919 0.981811
1.000000 0.971308 0.979270
0.873222 0.924045 0.992378
0.873207 0.924035 0.992383
0.873434 0.924180 0.992309
0.875645 0.925565 0.991580
0.884126 0.930334 0.989124
0.934656 0.938486 0.998945
1.000000 0.960231 0.992044
1.000000 0.971939 0.981892
1.000000 0.971330 0.979360
0.904748 0.952162 0.993902
0.904736 0.952151 0.993900
0.904692 0.952110 0.993893
0.904524 0.951952 0.993866
0.908304 0.953198 0.992127
0.941084 0.957409 0.976998
0.998667 0.967217 0.989177
1.000000 0.972012 0.982198
1.000000 0.971412 0.979700
0.956416 0.996042 0.990644
0.956413 0.996041 0.990646
0.956401 0.996038 0.990655
0.956355 0.996028 0.990688
0.956178 0.995988 0.990815
0.959629 0.993581 0.989916
0.988306 0.988306 0.988306
0.992077 0.987276 0.987094
1.000000 0.971713 0.980953
0.972616 0.997821 0.986168
0.972616 0.997821 0.986167
0.972616 0.997821 0.986167
0.972615 0.997820 0.986164
0.972613 0.997818 0.986154
0.972604 0.997808 0.986115
0.981519 0.994920 0.988217
0.994713 0.994864 0.993507
0.994725 0.994905 0.993283
0.975461 0.997659 0.996615
0.975461 0.997659 0.996615
0.975461 0.997659 0.996615
0.975461 0.997659 0.996615
0.975461 0.997659 0.996615
0.975461 0.997659 0.996615
0.975461 0.997659 0.996615
0.994747 0.994747 0.994747
0.994745 0.994749 0.994713
0.936275 0.962979 0.994711
0.936322 0.963006 0.994699
0.936489 0.963100 0.994652
0.937129 0.963465 0.994474
0.939515 0.964789 0.993830
0.953501 0.967892 0.994200
0.996279 0.973745 1.000000
1.000000 0.976353 1.000000
1.000000 0.976353 1.000000
0.936322 0.963018 0.994713
0.936369 0.963045 0.994700
0.936536 0.963140 0.994654
0.937175 0.963503 0.994476
0.939555 0.964824 0.993835
0.953525 0.967926 0.994143
0.996253 0.973762 1.000000
1.000000 0.976353 1.000000
1.000000 0.976353 1.000000
0.936498 0.963166 0.994719
0.936546 0.963194 0.994706
0.936714 0.963291 0.994660
0.937347 0.963648 0.994483
0.939709 0.964958 0.993852
0.953616 0.968053 0.993929
0.996155 0.973827 1.000000
1.000000 0.976353 1.000000
1.000000 0.976353 1.000000
0.937166 0.963729 0.994739
0.937210 0.963754 0.994727
0.937375 0.963848 0.994682
0.938000 0.964196 0.994508
0.940327 0.965480 0.993888
0.954008 0.968531 0.993127
0.995793 0.974067 1.000000
1.000000 0.976353 1.000000
1.000000 0.976353 1.000000
0.939520 0.965747 0.994854
0.939557 0.965766 0.994842
0.939717 0.965846 0.994792
0.940302 0.966151 0.994619
0.942432 0.967272 0.994022
0.955889 0.970222 0.990290
0.994480 0.975103 0.999904
1.000000 0.976793 1.000000
1.000000 0.976353 1.000000
0.948327 0.973850 0.996378
0.948324 0.973847 0.996377
0.948309 0.973834 0.996375
0.948512 0.973894 0.996280
0.950188 0.974550 0.995689
0.959186 0.976412 0.991213
0.988755 0.981035 0.994821
1.000000 0.978973 0.998941
1.000000 0.976353 1.000000
0.969295 0.994165 0.999385
0.969293 0.994164 0.999385
0.969287 0.994160 0.999388
0.969262 0.994146 0.999399
0.969167 0.994093 0.999442
0.971337 0.993300 0.998399
0.989272 0.991351 0.992546
0.993655 0.990754 0.993059
1.000000 0.976353 1.000000
0.975461 0.997659 0.996615
0.975461 0.997659 0.996615
0.975461 0.997659 0.996615
0.975461 0.997659 0.996615
0.975461 0.997659 0.996615
0.975461 0.997659 0.996615
0.983777 0.994981 0.994614
0.994747 0.994747 0.994747
0.994747 0.994747 0.994747
0.975461 0.997659 0.996615
0.975461 0.997659 0.996615
0.975461 0.997659 0.996615
0.975461 0.997659 0.996615
0.975461 0.997659 0.996615
0.975461 0.997659 0.996615
0.975461 0.997659 0.996615
0.994747 0.994747 0.994747
0.994747 0.994747 0.994747
0.969313 0.992967 0.999311
0.969328 0.992962 0.999301
0.969384 0.992943 0.999265
0.969576 0.992874 0.999139
0.970314 0.992646 0.998687
0.973409 0.991946 0.997042
0.990714 0.991291 0.992774
0.993713 0.990102 0.992979
1.000000 0.976353 1.000000
0.969328 0.992986 0.999315
0.969343 0.992981 0.999305
0.969399 0.992962 0.999269
0.969591 0.992893 0.999143
0.970328 0.992664 0.998691
0.973412 0.991962 0.997052
0.990715 0.991298 0.992776
0.993711 0.990111 0.992979
1.000000 0.976353 1.000000
0.969387 0.993057 0.999331
0.969402 0.993052 0.999322
0.969458 0.993033 0.999285
0.969651 0.992965 0.999158
0.970384 0.992731 0.998707
0.973422 0.992022 0.997090
0.990718 0.991325 0.992783
0.993704 0.990145 0.992979
1.000000 0.976353 1.000000
0.969608 0.993211 0.999242
0.969624 0.993207 0.999233
0.969681 0.993190 0.999200
0.969879 0.993132 0.999085
0.970595 0.992930 0.998696
0.973462 0.992251 0.997235
0.990732 0.991428 0.992808
0.993676 0.990273 0.992981
1.000000 0.976353 1.000000
0.970469 0.993788 0.998878
0.970481 0.993784 0.998871
0.970527 0.993770 0.998844
0.970716 0.993701 0.998746
0.971408 0.993490 0.998375
0.974131 0.992846 0.997135
0.990849 0.991831 0.992945
0.993648 0.990720 0.993047
1.000000 0.976353 1.000000
0.973470 0.995836 0.997575
0.973479 0.995830 0.997572
0.973521 0.995811 0.997551
0.973682 0.995732 0.997479
0.974278 0.995458 0.997220
0.976379 0.994641 0.996467
0.991536 0.992866 0.993446
0.993916 0.992104 0.993539
1.000000 0.978000 0.999654
0.975461 0.997659 0.996615
0.975461 0.997659 0.996615
0.975461 0.997659 0.996615
0.975461 0.997659 0.996615
0.975792 0.997491 0.996490
0.977970 0.996544 0.995790
0.991908 0.993990 0.993922
0.994747 0.994747 0.994747
0.993744 0.989962 0.992976
0.975461 0.997659 0.996615
0.975461 0.997659 0.996615
0.975461 0.997659 0.996615
0.975461 0.997659 0.996615
0.975461 0.997659 0.996615
0.975461 0.997659 0.996615
0.986061 0.994445 0.994179
0.994747 0.994747 0.994747
0.994747 0.994747 0.994747
0.975461 0.997659 0.996615
0.975461 0.997659 0.996615
0.975461 0.997659 0.996615
0.975461 0.997659 0.996615
0.975461 0.997659 0.996615
0.975461 0.997659 0.996615
0.975461 0.997659 0.996615
0.994747 0.994747 0.994747
0.994747 0.994747 0.994747
