Assets/Data/Textures/70 CGC LUTs/LUTs_AgX_Filmic_ViewTransforms/ARRILogC4AWG4-to-JP2499DRT-PrintV3-sRGB.cube
#  Baked from the PixelManager OCIO config by Joe Genco
#  https://github.com/Joegenco/PixelManager
#  Input Gamma: Arri LogC4
#  Input Color Space: Arri Wide Gamut 4
#  floating point data (range 0.0 - 1.0)   
#       
#  Output Gamma: Gamma 2.2 (Display)
#  Output Color Space: Rec.709
#  floating point data (range 0.0 - 1.0)
LUT_3D_SIZE 33
0.025112 0.022922 0.025485
0.025112 0.022922 0.025485
0.025112 0.022922 0.025485
0.025495 0.022925 0.025482
0.044167 0.023086 0.024752
0.069988 0.021744 0.022050
0.104629 0.019567 0.017032
0.150155 0.020347 0.015283
0.209861 0.021331 0.017817
0.282873 0.025754 0.022150
0.373670 0.031598 0.028214
0.474702 0.040366 0.035454
0.571236 0.049189 0.042546
0.657616 0.060310 0.049470
0.730789 0.075052 0.055777
0.791079 0.099664 0.062737
0.839548 0.144671 0.071832
0.876699 0.219491 0.086894
0.903550 0.314034 0.116916
0.923591 0.414387 0.179008
0.934511 0.516047 0.273892
0.940382 0.613232 0.375887
0.942803 0.700444 0.475456
0.942979 0.772539 0.568175
0.942348 0.828648 0.649742
0.941431 0.869462 0.717907
0.940530 0.897434 0.771846
0.939834 0.915807 0.812747
0.939204 0.922615 0.849388
0.938552 0.926340 0.879930
0.938071 0.930099 0.897474
0.937685 0.934567 0.905193
0.937366 0.938800 0.909012
0.025112 0.022922 0.025485
0.025112 0.022922 0.025485
0.025112 0.022922 0.025485
0.025342 0.022924 0.025483
0.043993 0.023084 0.024759
0.069844 0.021750 0.022069
0.104488 0.019578 0.017054
0.150012 0.020366 0.015276
0.209726 0.021319 0.017809
0.282767 0.025745 0.022143
0.374377 0.031671 0.028284
0.475176 0.040406 0.035509
0.571539 0.049238 0.042584
0.657780 0.060338 0.049521
0.730882 0.075084 0.055815
0.791156 0.099731 0.062807
0.839604 0.144758 0.071944
0.876744 0.219585 0.087080
0.903581 0.314113 0.117198
0.923608 0.414446 0.179341
0.934512 0.516084 0.274199
0.940382 0.613257 0.376091
0.942802 0.700458 0.475596
0.942979 0.772547 0.568261
0.942348 0.828653 0.649795
0.941430 0.869464 0.717939
0.940530 0.897435 0.771864
0.939834 0.915808 0.812757
0.939204 0.922615 0.849392
0.938552 0.926340 0.879932
0.938071 0.930099 0.897475
0.937685 0.934568 0.905194
0.937366 0.938800 0.909012
0.025112 0.022922 0.025485
0.025112 0.022922 0.025485
0.025112 0.022922 0.025485
0.025112 0.022922 0.025485
0.043747 0.023081 0.024769
0.069642 0.021758 0.022095
0.104291 0.019592 0.017085
0.149811 0.020392 0.015302
0.209538 0.021302 0.017797
0.282618 0.025732 0.022134
0.375245 0.031760 0.028371
0.475811 0.040464 0.035582
0.571957 0.049310 0.042640
0.658006 0.060377 0.049590
0.731010 0.075130 0.055868
0.791263 0.099825 0.062906
0.839683 0.144879 0.072105
0.876806 0.219716 0.087338
0.903625 0.314224 0.117592
0.923633 0.414528 0.179805
0.934513 0.516136 0.274627
0.940381 0.613290 0.376377
0.942800 0.700478 0.475791
0.942977 0.772559 0.568380
0.942347 0.828659 0.649870
0.941430 0.869467 0.717983
0.940530 0.897437 0.771889
0.939834 0.915808 0.812771
0.939203 0.922615 0.849398
0.938552 0.926340 0.879934
0.938071 0.930099 0.897476
0.937685 0.934568 0.905194
0.937366 0.938800 0.909013
0.025112 0.022922 0.025485
0.025112 0.022922 0.025485
0.025112 0.022922 0.025485
0.025112 0.022922 0.025485
0.043399 0.023078 0.024783
0.069358 0.021770 0.022132
0.104016 0.019613 0.017128
0.149529 0.020428 0.015356
0.209293 0.021304 0.017782
0.282410 0.025715 0.022120
0.376403 0.031882 0.028490
0.476650 0.040541 0.035680
0.572527 0.049411 0.042718
0.658316 0.060431 0.049685
0.731188 0.075192 0.055941
0.791413 0.099954 0.063047
0.839796 0.145047 0.072343
0.876892 0.219899 0.087699
0.903687 0.314377 0.118141
0.923667 0.414643 0.180452
0.934514 0.516208 0.275225
0.940380 0.613337 0.376775
0.942799 0.700506 0.476064
0.942976 0.772575 0.568547
0.942345 0.828668 0.649974
0.941429 0.869472 0.718046
0.940529 0.897439 0.771925
0.939834 0.915809 0.812790
0.939203 0.922616 0.849406
0.938552 0.926341 0.879938
0.938071 0.930100 0.897478
0.937685 0.934568 0.905195
0.937366 0.938800 0.909013
0.024323 0.042196 0.024301
0.024327 0.042127 0.024306
0.024331 0.042030 0.024313
0.024338 0.041895 0.024323
0.052509 0.050666 0.021952
0.097585 0.040471 0.016808
0.141209 0.029033 0.015343
0.187956 0.024146 0.016666
0.243518 0.024363 0.019394
0.309899 0.027478 0.023680
0.397648 0.034149 0.029990
0.489928 0.041671 0.036571
0.579105 0.050351 0.043209
0.660390 0.060720 0.049915
0.731433 0.075279 0.056042
0.791624 0.100133 0.063260
0.839951 0.145280 0.072674
0.877012 0.220152 0.088199
0.903772 0.314591 0.118904
0.923714 0.414803 0.181354
0.934515 0.516309 0.276058
0.940378 0.613403 0.377330
0.942796 0.700544 0.476444
0.942973 0.772598 0.568781
0.942344 0.828681 0.650120
0.941428 0.869479 0.718133
0.940528 0.897442 0.771975
0.939833 0.915810 0.812817
0.939203 0.922617 0.849418
0.938552 0.926341 0.879943
0.938071 0.930101 0.897480
0.937685 0.934569 0.905195
0.937366 0.938800 0.909013
0.018689 0.068341 0.017719
0.018710 0.068279 0.017742
0.018739 0.068193 0.017774
0.018780 0.068071 0.017820
0.019315 0.094184 0.013177
0.089965 0.090314 0.009147
0.156575 0.076556 0.012248
0.222224 0.055178 0.017398
0.286883 0.038620 0.021853
0.357751 0.034273 0.026658
0.438888 0.038632 0.032613
0.520426 0.044946 0.038686
0.600393 0.053189 0.044611
0.674110 0.062611 0.050873
0.739273 0.077441 0.056511
0.795041 0.102221 0.063624
0.840816 0.146459 0.073106
0.877179 0.220504 0.088894
0.903891 0.314889 0.119965
0.923780 0.415026 0.182609
0.934517 0.516450 0.277220
0.940376 0.613494 0.378105
0.942793 0.700598 0.476975
0.942970 0.772630 0.569107
0.942341 0.828699 0.650323
0.941426 0.869488 0.718255
0.940527 0.897447 0.772044
0.939833 0.915811 0.812855
0.939203 0.922618 0.849434
0.938552 0.926342 0.879951
0.938071 0.930102 0.897483
0.937685 0.934570 0.905196
0.937366 0.938801 0.909013
0.015013 0.101212 0.013017
0.015012 0.101157 0.013019
0.015012 0.101081 0.013021
0.015011 0.100974 0.013025
0.009698 0.126278 0.008398
0.042992 0.144661 0.008417
0.140092 0.138578 0.004259
0.227476 0.123184 0.012795
0.311825 0.096042 0.021241
0.397843 0.064812 0.028636
0.480458 0.050832 0.035073
0.556223 0.052044 0.040890
0.626657 0.058011 0.046270
0.692076 0.067727 0.051977
0.750855 0.081003 0.057226
0.802094 0.106643 0.064159
0.845059 0.152199 0.073563
0.878837 0.225309 0.089514
0.904209 0.316263 0.121237
0.923872 0.415335 0.184353
0.934520 0.516646 0.278837
0.940373 0.613621 0.379185
0.942788 0.700674 0.477715
0.942965 0.772674 0.569562
0.942338 0.828723 0.650607
0.941424 0.869501 0.718425
0.940526 0.897453 0.772141
0.939832 0.915813 0.812908
0.939202 0.922620 0.849456
0.938552 0.926344 0.879961
0.938070 0.930103 0.897487
0.937685 0.934570 0.905198
0.937366 0.938801 0.909014
0.010636 0.142633 0.009013
0.010634 0.142581 0.009011
0.010630 0.142508 0.009009
0.010625 0.142406 0.009005
0.007200 0.164079 0.005799
0.007573 0.196216 0.005859
0.087992 0.208737 0.005662
0.204472 0.199973 0.003344
0.316212 0.181737 0.014957
0.421485 0.153245 0.026279
0.513515 0.109150 0.035425
0.590243 0.079133 0.042314
0.655205 0.071040 0.047741
0.712682 0.076141 0.053047
0.764356 0.089500 0.057961
0.810404 0.113731 0.064622
0.850191 0.160631 0.074044
0.881345 0.234709 0.089886
0.905453 0.323628 0.121827
0.924264 0.418707 0.186001
0.934523 0.516919 0.281085
0.940368 0.613799 0.380688
0.942781 0.700779 0.478747
0.942959 0.772736 0.570196
0.942333 0.828758 0.651002
0.941420 0.869519 0.718662
0.940524 0.897462 0.772277
0.939831 0.915816 0.812981
0.939202 0.922623 0.849488
0.938552 0.926346 0.879976
0.938070 0.930105 0.897493
0.937684 0.934572 0.905200
0.937366 0.938802 0.909015
0.007043 0.195823 0.006061
0.007043 0.195774 0.006061
0.007044 0.195704 0.006063
0.007045 0.195606 0.006065
0.006882 0.212728 0.005881
0.006736 0.243435 0.006141
0.011320 0.278280 0.006541
0.146547 0.288417 0.004870
0.293199 0.280621 0.004271
0.422539 0.260804 0.016962
0.529628 0.226654 0.030105
0.615814 0.178775 0.040209
0.683328 0.124970 0.047825
0.735801 0.102153 0.053721
0.780234 0.105936 0.058664
0.820241 0.131133 0.064803
0.855554 0.177710 0.074060
0.884585 0.248643 0.090086
0.907127 0.334168 0.122460
0.925055 0.426328 0.187421
0.934811 0.521540 0.282905
0.940374 0.614309 0.382713
0.942771 0.700925 0.480184
0.942950 0.772822 0.571078
0.942326 0.828806 0.651554
0.941415 0.869544 0.718993
0.940521 0.897474 0.772467
0.939829 0.915820 0.813084
0.939201 0.922626 0.849531
0.938551 0.926348 0.879996
0.938070 0.930108 0.897501
0.937684 0.934574 0.905203
0.937366 0.938803 0.909016
0.006780 0.263239 0.006119
0.006781 0.263770 0.006120
0.006783 0.264446 0.006119
0.006811 0.265460 0.006111
0.007276 0.278588 0.006272
0.007905 0.308483 0.006701
0.009053 0.346475 0.007455
0.016985 0.385175 0.008620
0.223863 0.388189 0.006890
0.392656 0.376821 0.004776
0.525974 0.352500 0.017977
0.626388 0.315432 0.031374
0.701351 0.264920 0.042528
0.757747 0.203771 0.051390
0.799388 0.161931 0.058146
0.833087 0.165565 0.064420
0.862721 0.205979 0.073548
0.888786 0.269398 0.089975
0.909308 0.348765 0.122967
0.926064 0.436891 0.188996
0.935273 0.529062 0.285012
0.940585 0.619342 0.384406
0.942769 0.701899 0.481983
0.942937 0.772942 0.572305
0.942317 0.828873 0.652324
0.941409 0.869580 0.719454
0.940517 0.897492 0.772731
0.939827 0.915826 0.813228
0.939200 0.922631 0.849593
0.938550 0.926352 0.880024
0.938069 0.930112 0.897513
0.937684 0.934577 0.905208
0.937365 0.938805 0.909017
0.009135 0.352721 0.007642
0.009141 0.353112 0.007653
0.009149 0.353637 0.007669
0.009159 0.354525 0.007693
0.009278 0.363413 0.007943
0.010259 0.387827 0.008862
0.010880 0.419728 0.009392
0.011998 0.458409 0.010062
0.034064 0.492726 0.010553
0.314232 0.492819 0.007779
0.493891 0.479689 0.005425
0.619574 0.453751 0.017541
0.706509 0.414907 0.029861
0.767167 0.363665 0.041199
0.811990 0.301598 0.052109
0.845384 0.256546 0.060933
0.870808 0.259169 0.071411
0.893259 0.302284 0.089009
0.912133 0.370598 0.123088
0.927398 0.452310 0.190152
0.935873 0.539425 0.287487
0.940866 0.626365 0.386587
0.942811 0.706079 0.483740
0.942926 0.774084 0.573808
0.942304 0.828967 0.653395
0.941400 0.869629 0.720098
0.940511 0.897515 0.773100
0.939824 0.915834 0.813428
0.939198 0.922638 0.849678
0.938550 0.926357 0.880063
0.938069 0.930118 0.897529
0.937684 0.934581 0.905214
0.937365 0.938807 0.909019
0.011833 0.451594 0.009946
0.011839 0.451887 0.009953
0.011849 0.452288 0.009961
0.011861 0.452833 0.009973
0.011933 0.456279 0.010040
0.012697 0.475678 0.010409
0.013786 0.500536 0.010949
0.014936 0.531122 0.011684
0.018205 0.567852 0.012701
0.091004 0.597850 0.012860
0.413734 0.595277 0.009208
0.587297 0.581261 0.005524
0.698404 0.556813 0.015828
0.768516 0.519588 0.026235
0.815996 0.468415 0.037317
0.851093 0.406172 0.049949
0.877163 0.361184 0.064158
0.897755 0.361732 0.083980
0.915366 0.405217 0.120049
0.928896 0.474813 0.191762
0.936681 0.554558 0.290324
0.941219 0.636004 0.389527
0.942864 0.711966 0.485984
0.942921 0.777576 0.575390
0.942285 0.830048 0.654652
0.941387 0.869697 0.720994
0.940503 0.897549 0.773614
0.939820 0.915845 0.813708
0.939196 0.922648 0.849798
0.938549 0.926364 0.880118
0.938068 0.930126 0.897552
0.937683 0.934586 0.905222
0.937365 0.938811 0.909022
0.015664 0.552546 0.012286
0.015672 0.552788 0.012295
0.015682 0.553124 0.012307
0.015697 0.553588 0.012324
0.015719 0.554226 0.012349
0.016350 0.566432 0.012750
0.017494 0.584509 0.013175
0.019225 0.606781 0.013845
0.021538 0.634850 0.014655
0.030592 0.666886 0.015434
0.205464 0.691315 0.015130
0.512877 0.686554 0.010359
0.669115 0.674017 0.006341
0.759795 0.652637 0.013872
0.814921 0.620035 0.022060
0.851529 0.573080 0.032426
0.879271 0.513652 0.047403
0.899797 0.469028 0.070398
0.917871 0.468021 0.110747
0.930541 0.510609 0.190720
0.937642 0.576598 0.292948
0.941661 0.649618 0.393166
0.942927 0.720346 0.488849
0.942909 0.782455 0.577449
0.942256 0.832834 0.656072
0.941354 0.870609 0.722028
0.940492 0.897595 0.774329
0.939814 0.915861 0.814098
0.939193 0.922661 0.849964
0.938547 0.926374 0.880194
0.938067 0.930137 0.897583
0.937683 0.934593 0.905234
0.937365 0.938815 0.909025
0.022349 0.647382 0.014985
0.022359 0.647522 0.014989
0.022373 0.647717 0.014996
0.022392 0.647986 0.015004
0.022418 0.648358 0.015016
0.022756 0.653471 0.015141
0.024791 0.665491 0.015446
0.027759 0.680835 0.015856
0.031313 0.699831 0.016791
0.035948 0.723792 0.018087
0.068165 0.750411 0.019342
0.330222 0.766173 0.018040
0.606090 0.761154 0.012096
0.737239 0.751373 0.008419
0.806857 0.735277 0.012974
0.848890 0.708117 0.019637
0.877106 0.669386 0.029414
0.898357 0.617405 0.047438
0.917189 0.576331 0.088819
0.930968 0.573887 0.179642
0.938293 0.611000 0.293294
0.941986 0.669788 0.396691
0.942954 0.732319 0.492216
0.942864 0.789520 0.580132
0.942179 0.836671 0.657869
0.941297 0.872636 0.723227
0.940464 0.898287 0.775145
0.939806 0.915882 0.814640
0.939189 0.922680 0.850197
0.938545 0.926388 0.880301
0.938065 0.930153 0.897628
0.937682 0.934604 0.905250
0.937364 0.938821 0.909031
0.039539 0.730289 0.018457
0.039589 0.730373 0.018463
0.039657 0.730490 0.018470
0.039753 0.730653 0.018482
0.039885 0.730878 0.018497
0.040325 0.731658 0.018543
0.044654 0.739415 0.018958
0.049321 0.748589 0.019451
0.056151 0.760596 0.020112
0.068692 0.776650 0.021094
0.099270 0.796175 0.023246
0.203409 0.815075 0.024950
0.453133 0.824030 0.022403
0.687899 0.819203 0.015328
0.790841 0.811547 0.011467
0.842556 0.799498 0.013742
0.874077 0.780820 0.019778
0.895307 0.750986 0.031285
0.913467 0.710198 0.061728
0.929194 0.675746 0.152152
0.938136 0.670234 0.286211
0.941805 0.700266 0.398430
0.942789 0.749214 0.495654
0.942710 0.798908 0.583384
0.942079 0.841456 0.660365
0.941235 0.875015 0.724789
0.940421 0.899644 0.776111
0.939792 0.916259 0.815257
0.939183 0.922707 0.850520
0.938541 0.926407 0.880449
0.938063 0.930175 0.897689
0.937680 0.934619 0.905271
0.937364 0.938830 0.909038
0.102918 0.798382 0.023535
0.102993 0.798423 0.023542
0.103098 0.798479 0.023551
0.103244 0.798558 0.023563
0.103447 0.798667 0.023580
0.103728 0.798819 0.023604
0.108204 0.801372 0.023943
0.118382 0.807019 0.024672
0.134754 0.814368 0.025606
0.165287 0.823976 0.026757
0.204527 0.836279 0.028244
0.255667 0.848954 0.032474
0.364051 0.861501 0.036012
0.569463 0.866878 0.031977
0.754970 0.862506 0.022611
0.832229 0.856853 0.018125
0.870124 0.848185 0.018324
0.893285 0.836564 0.026072
0.910122 0.816123 0.047623
0.925475 0.788032 0.121950
0.936381 0.758114 0.266414
0.940846 0.751171 0.395489
0.942383 0.773580 0.498150
0.942515 0.810828 0.586936
0.941960 0.847578 0.663369
0.941168 0.878065 0.726908
0.940374 0.901310 0.777340
0.939772 0.917020 0.816010
0.939172 0.923167 0.850900
0.938537 0.926434 0.880656
0.938060 0.930205 0.897770
0.937679 0.934640 0.905294
0.937363 0.938842 0.909048
0.256719 0.849405 0.032667
0.256843 0.849436 0.032687
0.257014 0.849479 0.032715
0.257253 0.849538 0.032754
0.257585 0.849621 0.032808
0.258047 0.849737 0.032883
0.258686 0.849896 0.032987
0.270483 0.852725 0.034101
0.287208 0.856741 0.035687
0.309475 0.862036 0.037757
0.337593 0.869137 0.040234
0.373679 0.877616 0.044681
0.419646 0.886267 0.054828
0.509436 0.895216 0.063759
0.673736 0.898174 0.057530
0.809363 0.894500 0.043808
0.864981 0.890495 0.036950
0.891913 0.884713 0.035480
0.909674 0.878215 0.059093
0.923415 0.866570 0.115043
0.933667 0.845638 0.254292
0.938723 0.820368 0.387212
0.941327 0.813533 0.497263
0.942041 0.830292 0.589402
0.941760 0.856526 0.666509
0.941072 0.882259 0.729420
0.940327 0.903309 0.779033
0.939743 0.918080 0.816945
0.939153 0.924047 0.851363
0.938539 0.926804 0.881015
0.938056 0.930248 0.897866
0.937677 0.934668 0.905326
0.937361 0.938859 0.909063
0.417984 0.886107 0.054858
0.418063 0.886124 0.054895
0.418172 0.886148 0.054948
0.418325 0.886182 0.055021
0.418538 0.886228 0.055123
0.418834 0.886292 0.055266
0.419246 0.886382 0.055463
0.422062 0.886940 0.056255
0.433154 0.889102 0.058963
0.447850 0.892069 0.062788
0.467692 0.896068 0.067875
0.493472 0.901298 0.073842
0.526631 0.907408 0.093545
0.566403 0.913410 0.119070
0.638636 0.919496 0.142355
0.758544 0.921005 0.144577
0.852674 0.918594 0.124718
0.891120 0.916159 0.109488
0.910631 0.912673 0.107778
0.922959 0.908503 0.178332
0.931553 0.899831 0.273308
0.936182 0.883307 0.388282
0.939461 0.865392 0.493389
0.941124 0.859357 0.589522
0.941323 0.871198 0.668865
0.940908 0.888565 0.732026
0.940260 0.906085 0.781031
0.939699 0.919609 0.818207
0.939134 0.925186 0.851948
0.938543 0.927496 0.881543
0.938062 0.930739 0.898112
0.937674 0.934708 0.905371
0.937360 0.938883 0.909083
0.563779 0.913048 0.118377
0.563826 0.913057 0.118441
0.563891 0.913070 0.118530
0.563981 0.913088 0.118653
0.564108 0.913113 0.118826
0.564284 0.913147 0.119066
0.564530 0.913195 0.119400
0.564871 0.913261 0.119864
0.568950 0.913915 0.122777
0.578645 0.915447 0.129304
0.591522 0.917483 0.138011
0.609427 0.920310 0.149736
0.630403 0.923489 0.170820
0.656546 0.926560 0.201044
0.688457 0.930390 0.238837
0.740724 0.933918 0.276335
0.820623 0.934225 0.289448
0.882572 0.933049 0.281735
0.908898 0.932036 0.273701
0.922267 0.930138 0.278471
0.930154 0.926085 0.338903
0.934406 0.919460 0.410275
0.937481 0.908379 0.499123
0.939619 0.895955 0.587999
0.940649 0.891066 0.669418
0.940565 0.898945 0.733752
0.940146 0.910261 0.783160
0.939635 0.921798 0.819489
0.939093 0.926582 0.852877
0.938528 0.928493 0.882219
0.938054 0.931644 0.898517
0.937684 0.935175 0.905558
0.937357 0.938915 0.909111
0.685487 0.930024 0.236637
0.685514 0.930028 0.236703
0.685551 0.930034 0.236794
0.685603 0.930041 0.236922
0.685675 0.930051 0.237099
0.685776 0.930066 0.237347
0.685916 0.930086 0.237692
0.686098 0.930114 0.238174
0.686349 0.930153 0.238844
0.690183 0.930698 0.244519
0.697211 0.931696 0.254614
0.706505 0.932994 0.267872
0.719149 0.934333 0.283165
0.735574 0.935701 0.303454
0.753967 0.937157 0.330288
0.775516 0.939017 0.364001
0.809813 0.940787 0.394878
0.862323 0.940874 0.411209
0.901976 0.940204 0.410816
0.919014 0.939633 0.408692
0.928778 0.938530 0.415970
0.933354 0.935951 0.460926
0.936260 0.931809 0.520564
0.938230 0.924382 0.594993
0.939524 0.915892 0.668723
0.940065 0.912227 0.734239
0.939942 0.916802 0.784565
0.939531 0.925087 0.820788
0.939050 0.928193 0.854206
0.938504 0.929871 0.883077
0.938040 0.932917 0.899027
0.937696 0.936016 0.905875
0.937375 0.939337 0.909297
0.772660 0.938793 0.361475
0.772674 0.938794 0.361514
0.772692 0.938795 0.361568
0.772719 0.938797 0.361645
0.772755 0.938800 0.361751
0.772806 0.938804 0.361899
0.772877 0.938810 0.362106
0.772976 0.938818 0.362393
0.773114 0.938829 0.362794
0.773305 0.938845 0.363351
0.776730 0.939137 0.368313
0.782094 0.939593 0.375808
0.789251 0.940207 0.385781
0.797456 0.941064 0.399544
0.807324 0.941869 0.417611
0.819965 0.942864 0.440635
0.835116 0.944119 0.467682
0.856109 0.945289 0.496070
0.888361 0.945366 0.513335
0.913828 0.944991 0.516211
0.926436 0.944627 0.516046
0.932252 0.943888 0.524634
0.935463 0.942178 0.561638
0.937411 0.939023 0.612963
0.938601 0.934107 0.674690
0.939289 0.928831 0.733782
0.939522 0.926486 0.784856
0.939415 0.928818 0.821889
0.938972 0.930662 0.855726
0.938459 0.931928 0.884040
0.938036 0.934352 0.899718
0.937709 0.937172 0.906269
0.937407 0.940075 0.909610
0.833234 0.943939 0.465327
0.833240 0.943939 0.465348
0.833248 0.943940 0.465378
0.833260 0.943941 0.465421
0.833277 0.943942 0.465479
0.833300 0.943944 0.465561
0.833332 0.943947 0.465675
0.833377 0.943950 0.465835
0.833440 0.943956 0.466056
0.833527 0.943963 0.466365
0.833649 0.943973 0.466795
0.835757 0.944204 0.471606
0.838646 0.944530 0.478378
0.842552 0.944977 0.487483
0.847851 0.945467 0.499837
0.854760 0.945969 0.516022
0.863163 0.946622 0.536104
0.872304 0.947474 0.559689
0.885266 0.948078 0.585366
0.905871 0.947994 0.601951
0.922463 0.947727 0.605825
0.930634 0.947515 0.606782
0.934565 0.947070 0.615107
0.936765 0.946112 0.646407
0.938017 0.943786 0.688792
0.938702 0.940340 0.738703
0.939083 0.936348 0.784582
0.939167 0.934730 0.822219
0.938826 0.934644 0.857032
0.938385 0.934876 0.885020
0.938018 0.936383 0.900504
0.937713 0.938812 0.906782
0.937448 0.941067 0.909903
0.871066 0.947339 0.557317
0.871068 0.947339 0.557331
0.871071 0.947339 0.557350
0.871076 0.947339 0.557377
0.871082 0.947340 0.557414
0.871091 0.947341 0.557466
0.871104 0.947342 0.557539
0.871122 0.947344 0.557640
0.871146 0.947346 0.557781
0.871180 0.947349 0.557978
0.871228 0.947354 0.558252
0.871337 0.947365 0.558760
0.872746 0.947526 0.563187
0.874652 0.947744 0.569196
0.877248 0.948016 0.577332
0.880756 0.948168 0.588381
0.884780 0.948377 0.602634
0.889681 0.948646 0.619768
0.895840 0.949000 0.640109
0.904190 0.949179 0.662541
0.916910 0.949098 0.676887
0.928078 0.948916 0.681088
0.933270 0.948783 0.682585
0.936072 0.948463 0.689725
0.937555 0.947733 0.715758
0.938315 0.946410 0.749096
0.938662 0.944456 0.787806
0.938862 0.941544 0.822064
0.938599 0.940026 0.857960
0.938185 0.939613 0.885558
0.937913 0.939790 0.901244
0.937721 0.940761 0.907365
0.937486 0.942486 0.910236
0.894872 0.948935 0.637837
0.894873 0.948935 0.637845
0.894875 0.948935 0.637857
0.894877 0.948935 0.637873
0.894881 0.948936 0.637896
0.894886 0.948936 0.637928
0.894893 0.948936 0.637973
0.894903 0.948936 0.638036
0.894917 0.948937 0.638123
0.894936 0.948937 0.638245
0.894963 0.948938 0.638414
0.895000 0.948940 0.638650
0.895137 0.948946 0.639254
0.896252 0.949011 0.643083
0.897766 0.949086 0.648287
0.899558 0.949141 0.655368
0.901625 0.949222 0.664960
0.903975 0.949332 0.676557
0.907005 0.949481 0.690651
0.910527 0.949671 0.707682
0.915764 0.949703 0.726511
0.924884 0.949604 0.738325
0.931405 0.949500 0.741886
0.935020 0.949409 0.743309
0.936991 0.949174 0.749364
0.937974 0.948617 0.770152
0.938440 0.947722 0.795577
0.938615 0.946326 0.824907
0.938254 0.945253 0.858427
0.937863 0.944687 0.885191
0.937623 0.944228 0.901407
0.937535 0.943926 0.907725
0.937478 0.944049 0.910595
0.910020 0.949640 0.705694
0.910020 0.949640 0.705699
0.910021 0.949640 0.705706
0.910022 0.949640 0.705715
0.910023 0.949640 0.705729
0.910025 0.949640 0.705748
0.910027 0.949640 0.705775
0.910030 0.949640 0.705812
0.910035 0.949641 0.705865
0.910042 0.949641 0.705937
0.910051 0.949641 0.706038
0.910063 0.949641 0.706180
0.910080 0.949642 0.706376
0.910164 0.949647 0.706979
0.910709 0.949663 0.710181
0.911450 0.949678 0.714542
0.912474 0.949701 0.720470
0.913836 0.949731 0.728306
0.915625 0.949774 0.737635
0.917906 0.949842 0.748505
0.920157 0.949900 0.762132
0.924084 0.949869 0.777208
0.929053 0.949807 0.786463
0.933679 0.949725 0.789389
0.936161 0.949661 0.790663
0.937531 0.949491 0.795471
0.938184 0.949074 0.811257
0.938461 0.948469 0.830589
0.938101 0.947827 0.857629
0.937709 0.947375 0.884014
0.937451 0.947011 0.901000
0.937355 0.946716 0.907761
0.937322 0.946422 0.910777
0.919758 0.949892 0.760503
0.919759 0.949892 0.760506
0.919759 0.949892 0.760510
0.919760 0.949892 0.760516
0.919760 0.949892 0.760523
0.919761 0.949892 0.760534
0.919762 0.949892 0.760549
0.919764 0.949892 0.760570
0.919767 0.949892 0.760600
0.919770 0.949892 0.760641
0.919775 0.949891 0.760698
0.919782 0.949891 0.760779
0.919792 0.949890 0.760891
0.919805 0.949890 0.761047
0.919878 0.949889 0.761588
0.920284 0.949888 0.764138
0.920839 0.949887 0.767621
0.921611 0.949887 0.772363
0.922631 0.949886 0.778748
0.923983 0.949896 0.785783
0.925115 0.949934 0.793985
0.926407 0.949923 0.804349
0.928521 0.949880 0.815839
0.931948 0.949818 0.823056
0.935196 0.949750 0.825713
0.936889 0.949704 0.826804
0.937842 0.949583 0.830380
0.938247 0.949286 0.841787
0.938034 0.948988 0.857126
0.937660 0.948621 0.882063
0.937390 0.948328 0.899571
0.937266 0.948145 0.907549
0.937221 0.948000 0.910744
0.926172 0.949921 0.803082
0.926172 0.949921 0.803083
0.926172 0.949921 0.803085
0.926173 0.949921 0.803088
0.926173 0.949921 0.803093
0.926173 0.949921 0.803098
0.926174 0.949921 0.803107
0.926174 0.949921 0.803118
0.926176 0.949921 0.803134
0.926177 0.949921 0.803157
0.926179 0.949921 0.803188
0.926182 0.949920 0.803232
0.926185 0.949920 0.803292
0.926191 0.949919 0.803377
0.926198 0.949918 0.803495
0.926244 0.949917 0.803934
0.926477 0.949911 0.805869
0.926796 0.949904 0.808514
