Assets/Data/Textures/70 CGC LUTs/LUTs_AgX_Filmic_ViewTransforms/ARRILogC4AWG4-to-AgX-Kraken-sRGB.cube
#  Baked from the PixelManager OCIO config by Joe Genco
#  https://github.com/Joegenco/PixelManager
#  Input Gamma: Arri LogC4
#  Input Color Space: Arri Wide Gamut 4
#  floating point data (range 0.0 - 1.0)   
#       
#  Output Gamma: Gamma 2.2 (Display)
#  Output Color Space: Rec.709
#  floating point data (range 0.0 - 1.0)
LUT_3D_SIZE 5
0.000000 0.000000 0.000000
0.529835 0.101268 0.101352
0.928623 0.497430 0.497626
1.000000 0.902486 0.902591
1.000000 1.000000 1.000000
0.120826 0.471535 0.120826
0.443783 0.447149 0.143282
0.926528 0.492694 0.492889
1.000000 0.902315 0.902420
1.000000 1.000000 1.000000
0.544575 0.902742 0.544575
0.542825 0.901806 0.542825
0.889259 0.890993 0.589490
1.000000 0.899782 0.899888
1.000000 1.000000 1.000000
0.925767 1.000000 0.925767
0.925714 1.000000 0.925714
0.924932 1.000000 0.924932
1.000000 1.000000 0.944385
1.000000 1.000000 1.000000
1.000000 1.000000 1.000000
1.000000 1.000000 1.000000
1.000000 1.000000 1.000000
1.000000 1.000000 1.000000
1.000000 1.000000 1.000000
0.108659 0.108601 0.444450
0.528273 0.167410 0.455373
0.928536 0.505971 0.579112
1.000000 0.902462 0.902566
1.000000 1.000000 1.000000
0.170144 0.463489 0.434805
0.436768 0.436734 0.436758
0.926398 0.499791 0.563691
1.000000 0.902291 0.902395
1.000000 1.000000 1.000000
0.543433 0.902131 0.543433
0.541671 0.901186 0.541671
0.888582 0.890222 0.588212
1.000000 0.899756 0.899862
1.000000 1.000000 1.000000
0.925733 1.000000 0.925733
0.925679 1.000000 0.925679
0.924897 1.000000 0.924897
1.000000 1.000000 0.944352
1.000000 1.000000 1.000000
1.000000 1.000000 1.000000
1.000000 1.000000 1.000000
1.000000 1.000000 1.000000
1.000000 1.000000 1.000000
1.000000 1.000000 1.000000
0.521681 0.521554 0.889118
0.524345 0.521571 0.889053
0.928434 0.624817 0.895182
1.000000 0.907986 0.945563
1.000000 1.000000 1.000000
0.520191 0.520064 0.888253
0.520066 0.519939 0.888180
0.926291 0.621751 0.894202
1.000000 0.907774 0.945214
1.000000 1.000000 1.000000
0.632869 0.899580 0.885022
0.631766 0.898587 0.884835
0.886570 0.886550 0.886564
1.000000 0.904612 0.939777
1.000000 1.000000 1.000000
0.925223 1.000000 0.925223
0.925169 1.000000 0.925169
0.924378 1.000000 0.924378
1.000000 1.000000 0.943873
1.000000 1.000000 1.000000
1.000000 1.000000 1.000000
1.000000 1.000000 1.000000
1.000000 1.000000 1.000000
1.000000 1.000000 1.000000
1.000000 1.000000 1.000000
0.915104 0.915042 1.000000
0.915100 0.915038 1.000000
0.926924 0.915648 1.000000
1.000000 0.956794 1.000000
1.000000 1.000000 1.000000
0.915055 0.914993 1.000000
0.915051 0.914988 1.000000
0.924709 0.915465 1.000000
1.000000 0.956725 1.000000
1.000000 1.000000 1.000000
0.914332 0.914269 1.000000
0.914328 0.914265 1.000000
0.914267 0.914204 1.000000
1.000000 0.955716 1.000000
1.000000 1.000000 1.000000
0.959482 1.000000 1.000000
0.959458 1.000000 1.000000
0.959108 1.000000 1.000000
1.000000 1.000000 1.000000
1.000000 1.000000 1.000000
1.000000 1.000000 1.000000
1.000000 1.000000 1.000000
1.000000 1.000000 1.000000
1.000000 1.000000 1.000000
1.000000 1.000000 1.000000
1.000000 1.000000 1.000000
1.000000 1.000000 1.000000
1.000000 1.000000 1.000000
1.000000 1.000000 1.000000
1.000000 1.000000 1.000000
1.000000 1.000000 1.000000
1.000000 1.000000 1.000000
1.000000 1.000000 1.000000
1.000000 1.000000 1.000000
1.000000 1.000000 1.000000
1.000000 1.000000 1.000000
1.000000 1.000000 1.000000
1.000000 1.000000 1.000000
1.000000 1.000000 1.000000
1.000000 1.000000 1.000000
1.000000 1.000000 1.000000
1.000000 1.000000 1.000000
1.000000 1.000000 1.000000
1.000000 1.000000 1.000000
1.000000 1.000000 1.000000
1.000000 1.000000 1.000000
1.000000 1.000000 1.000000
1.000000 1.000000 1.000000
1.000000 1.000000 1.000000
1.000000 1.000000 1.000000
