Assets/Data/Textures/70 CGC LUTs/LUTs_AgX_Filmic_ViewTransforms/ARRILogC4AWG4-to-JP2499DRT-ClassicReversal-sRGB.cube
#  Baked from the PixelManager OCIO config by Joe Genco
#  https://github.com/Joegenco/PixelManager
#  Input Gamma: Arri LogC4
#  Input Color Space: Arri Wide Gamut 4
#  floating point data (range 0.0 - 1.0)   
#       
#  Output Gamma: Gamma 2.2 (Display)
#  Output Color Space: Rec.709
#  floating point data (range 0.0 - 1.0)
LUT_3D_SIZE 9
0.047975 0.028704 0.019625
0.065065 0.027942 0.017287
0.202406 0.023008 0.016084
0.472812 0.042777 0.035098
0.725202 0.147423 0.060924
0.882374 0.470281 0.295293
0.949676 0.734039 0.651097
0.975815 0.858785 0.835299
0.973746 0.899599 0.904398
0.048562 0.041436 0.018265
0.072773 0.046915 0.014064
0.228342 0.024149 0.017542
0.478979 0.043422 0.035650
0.725650 0.148184 0.061985
0.882396 0.470484 0.297385
0.949675 0.734072 0.651433
0.975815 0.858790 0.835328
0.973745 0.899602 0.904399
0.029639 0.184504 0.004157
0.022961 0.201872 0.003768
0.264371 0.268093 0.003293
0.565033 0.131211 0.038407
0.745772 0.181002 0.064490
0.883517 0.474618 0.304211
0.949673 0.734197 0.652710
0.975815 0.858808 0.835437
0.973745 0.899611 0.904403
0.020996 0.503063 0.010703
0.021157 0.504411 0.010743
0.025757 0.569248 0.012257
0.549278 0.601389 0.006781
0.782672 0.471427 0.041374
0.894309 0.518662 0.316759
0.950409 0.738247 0.656727
0.975813 0.858877 0.835853
0.973743 0.899645 0.904417
0.216117 0.761772 0.034095
0.216754 0.762022 0.034342
0.239233 0.770222 0.039430
0.339635 0.806686 0.074017
0.769706 0.814792 0.057310
0.906334 0.753648 0.303672
0.955163 0.764264 0.665725
0.976213 0.861417 0.837121
0.973736 0.899776 0.904469
0.641457 0.889172 0.394406
0.641556 0.889192 0.394621
0.641932 0.889269 0.395436
0.658923 0.892940 0.415714
0.715589 0.905720 0.487361
0.895009 0.909697 0.526279
0.958542 0.882492 0.669826
0.978496 0.876924 0.840689
0.975037 0.903342 0.905156
0.850468 0.934579 0.697185
0.850478 0.934581 0.697216
0.850515 0.934589 0.697336
0.850656 0.934618 0.697787
0.857781 0.935961 0.710082
0.880181 0.940666 0.748038
0.953424 0.942626 0.773098
0.978123 0.934520 0.839574
0.977420 0.929664 0.905895
0.931157 0.950429 0.835383
0.931158 0.950429 0.835386
0.931163 0.950430 0.835399
0.931181 0.950433 0.835447
0.931250 0.950443 0.835631
0.934871 0.951047 0.840957
0.946164 0.953001 0.856732
0.976619 0.953495 0.865374
0.976072 0.952926 0.903395
0.936595 0.950893 0.902388
0.936595 0.950892 0.902389
0.936595 0.950893 0.902393
0.936595 0.950893 0.902409
0.936596 0.950893 0.902467
0.936599 0.950896 0.902688
0.945100 0.952464 0.904450
0.976043 0.952896 0.905334
0.975995 0.952846 0.908517
0.048064 0.029770 0.026816
0.072852 0.029788 0.037434
0.231095 0.024575 0.022733
0.486619 0.044690 0.038464
0.729508 0.154181 0.071367
0.882623 0.472200 0.313380
0.949677 0.734356 0.654052
0.975814 0.858828 0.835555
0.973744 0.899620 0.904407
0.048626 0.051210 0.041389
0.074567 0.057368 0.058910
0.267967 0.026505 0.025413
0.495109 0.046422 0.039486
0.729920 0.154815 0.072612
0.882644 0.472394 0.315377
0.949676 0.734389 0.654384
0.975814 0.858832 0.835583
0.973744 0.899623 0.904408
0.019690 0.227214 0.005046
0.017371 0.248986 0.005465
0.290633 0.300085 0.003663
0.577381 0.138272 0.042122
0.749983 0.188536 0.073846
0.883850 0.476756 0.321859
0.949673 0.734512 0.655647
0.975814 0.858850 0.835692
0.973744 0.899632 0.904411
0.022249 0.519425 0.011153
0.022302 0.520553 0.011185
0.027897 0.581930 0.013002
0.556184 0.608545 0.006971
0.785783 0.475432 0.048190
0.894525 0.520421 0.333774
0.950420 0.738599 0.659622
0.975812 0.858919 0.836107
0.973742 0.899666 0.904425
0.223873 0.764794 0.037017
0.224431 0.765017 0.037246
0.246592 0.773058 0.042088
0.344811 0.808510 0.078849
0.771001 0.815934 0.059129
0.906531 0.754083 0.322063
0.955172 0.764500 0.668518
0.976213 0.861464 0.837371
0.973735 0.899796 0.904478
0.642716 0.889431 0.396961
0.642812 0.889451 0.397170
0.643176 0.889525 0.397958
0.660100 0.893185 0.418007
0.716284 0.905893 0.488764
0.895162 0.909780 0.527183
0.958547 0.882521 0.672382
0.978494 0.876967 0.841002
0.975036 0.903364 0.905165
0.850594 0.934605 0.697562
0.850604 0.934607 0.697593
0.850641 0.934615 0.697712
0.850780 0.934644 0.698159
0.857899 0.935983 0.710419
0.880253 0.940680 0.748225
0.953442 0.942636 0.773200
0.978120 0.934523 0.839801
0.977419 0.929667 0.905902
0.931171 0.950431 0.835421
0.931173 0.950431 0.835424
0.931177 0.950432 0.835437
0.931195 0.950435 0.835485
0.931264 0.950445 0.835669
0.934884 0.951049 0.840990
0.946172 0.953002 0.856787
0.976619 0.953495 0.865382
0.976072 0.952926 0.903403
0.936595 0.950893 0.902400
0.936595 0.950893 0.902401
0.936595 0.950893 0.902405
0.936595 0.950893 0.902421
0.936596 0.950894 0.902479
0.936599 0.950896 0.902700
0.945098 0.952464 0.904457
0.976043 0.952896 0.905340
0.975995 0.952846 0.908519
0.042564 0.038052 0.137535
0.054056 0.041307 0.182420
0.256299 0.039083 0.243541
0.517596 0.059679 0.198957
0.744252 0.180599 0.177067
0.883456 0.478772 0.372450
0.949679 0.735536 0.665009
0.975810 0.858988 0.836520
0.973740 0.899700 0.904439
0.033629 0.051582 0.233237
0.036923 0.054499 0.277343
0.288529 0.049422 0.296497
0.534080 0.065928 0.214818
0.744889 0.181795 0.181388
0.883471 0.478935 0.374039
0.949678 0.735567 0.665327
0.975810 0.858993 0.836549
0.973740 0.899703 0.904440
0.009585 0.258510 0.272909
0.009428 0.272677 0.294105
0.269967 0.312462 0.358939
0.599720 0.172667 0.272304
0.765135 0.219338 0.196661
0.884949 0.484045 0.379300
0.949675 0.735686 0.666538
0.975809 0.859011 0.836657
0.973739 0.899712 0.904444
0.023538 0.562070 0.091575
0.023572 0.563666 0.103087
0.032451 0.616556 0.155125
0.575963 0.633099 0.121868
0.799924 0.490948 0.177436
0.895243 0.526606 0.390215
0.950459 0.739909 0.670358
0.975807 0.859079 0.837067
0.973737 0.899746 0.904457
0.249111 0.775400 0.054309
0.249611 0.775664 0.055077
0.270310 0.783660 0.063139
0.363801 0.816519 0.116941
0.777415 0.821935 0.117764
0.907107 0.755426 0.389583
0.955203 0.765381 0.678905
0.976214 0.861648 0.838318
0.973730 0.899876 0.904510
0.647153 0.890356 0.406050
0.647233 0.890373 0.406239
0.647538 0.890440 0.406953
0.664175 0.894067 0.426199
0.718787 0.906516 0.493809
0.895722 0.910088 0.530496
0.958565 0.882632 0.681243
0.978487 0.877133 0.842182
0.975034 0.903449 0.905198
0.851067 0.934704 0.698972
0.851076 0.934706 0.699002
0.851112 0.934713 0.699117
0.851247 0.934739 0.699550
0.858343 0.936062 0.711691
0.880523 0.940735 0.748928
0.953510 0.942674 0.773585
0.978107 0.934531 0.840663
0.977418 0.929682 0.905925
0.931225 0.950439 0.835565
0.931226 0.950440 0.835568
0.931231 0.950440 0.835581
0.931249 0.950443 0.835629
0.931317 0.950453 0.835811
0.934934 0.951057 0.841116
0.946206 0.953007 0.856999
0.976617 0.953492 0.865584
0.976071 0.952925 0.903435
0.936595 0.950893 0.902446
0.936595 0.950893 0.902447
0.936595 0.950893 0.902451
0.936596 0.950893 0.902466
0.936597 0.950894 0.902525
0.936599 0.950896 0.902745
0.945090 0.952463 0.904484
0.976043 0.952895 0.905361
0.975995 0.952846 0.908525
0.045460 0.103292 0.483484
0.048687 0.116608 0.515679
0.205598 0.160252 0.580486
0.546584 0.203948 0.600059
0.756035 0.285574 0.551278
0.885058 0.506316 0.552225
0.949685 0.739644 0.700500
0.975777 0.859742 0.840412
0.973723 0.900003 0.904561
0.048181 0.122403 0.525364
0.050068 0.137356 0.552508
0.202365 0.180928 0.608710
0.557715 0.219367 0.616049
0.760376 0.293488 0.558399
0.885059 0.506492 0.553336
0.949684 0.739671 0.700731
0.975777 0.859750 0.840445
0.973723 0.900006 0.904562
0.045095 0.266805 0.596450
0.045744 0.277983 0.612911
0.112691 0.309952 0.662472
0.586046 0.278560 0.661807
0.774722 0.323654 0.583315
0.887570 0.514733 0.558926
0.949682 0.739774 0.701611
0.975775 0.859778 0.840571
0.973722 0.900015 0.904565
0.016350 0.576728 0.605349
0.016821 0.580840 0.610702
0.021188 0.611509 0.646474
0.542822 0.632365 0.681127
0.801402 0.524171 0.631112
0.896470 0.551457 0.576932
0.950593 0.744335 0.704411
0.975769 0.859887 0.841049
0.973720 0.900048 0.904579
0.292110 0.795106 0.494010
0.292111 0.795081 0.495842
0.311609 0.801467 0.509477
0.390477 0.823816 0.559698
0.781094 0.827616 0.568305
0.907997 0.759243 0.584215
0.955181 0.768670 0.711152
0.976180 0.862698 0.842622
0.973713 0.900177 0.904631
0.661525 0.893286 0.462400
0.661595 0.893299 0.462879
0.661864 0.893349 0.464694
0.677590 0.896764 0.482504
0.728131 0.908651 0.537174
0.897377 0.910853 0.579485
0.958590 0.882924 0.714436
0.978458 0.877755 0.846574
0.975027 0.903769 0.905313
0.852755 0.935005 0.703985
0.852763 0.935006 0.704012
0.852795 0.935012 0.704115
0.852915 0.935033 0.704501
0.859933 0.936347 0.716231
0.881497 0.940931 0.751457
0.953758 0.942814 0.774996
0.978060 0.934564 0.843882
0.977412 0.929764 0.906006
0.931426 0.950470 0.836103
0.931427 0.950470 0.836106
0.931432 0.950471 0.836118
0.931449 0.950474 0.836165
0.931515 0.950484 0.836342
0.935123 0.951086 0.841599
0.946331 0.953024 0.857792
0.976605 0.953480 0.866429
0.976070 0.952923 0.903557
0.936598 0.950895 0.902619
0.936598 0.950895 0.902620
0.936598 0.950895 0.902624
0.936598 0.950895 0.902640
0.936599 0.950896 0.902697
0.936602 0.950898 0.902916
0.945058 0.952460 0.904584
0.976041 0.952894 0.905444
0.975995 0.952846 0.908549
0.052887 0.372833 0.773154
0.052728 0.381254 0.777507
0.061183 0.409470 0.791819
0.482413 0.468005 0.815289
0.764225 0.528722 0.817801
0.886609 0.608094 0.796461
0.949285 0.756152 0.793720
0.975593 0.863209 0.854649
0.973660 0.901129 0.905014
0.052365 0.383280 0.778252
0.052065 0.391560 0.782421
0.057990 0.418875 0.796364
0.482527 0.475252 0.818285
0.765808 0.532619 0.819515
0.887139 0.609957 0.797405
0.949283 0.756179 0.793838
0.975592 0.863216 0.854674
0.973660 0.901131 0.905015
0.049662 0.422381 0.793840
0.049384 0.429115 0.797622
0.051283 0.452617 0.809224
0.478684 0.500120 0.827970
0.771637 0.547224 0.825733
0.888950 0.616473 0.800683
0.949335 0.756482 0.794315
0.975591 0.863241 0.854767
0.973659 0.901140 0.905018
0.039409 0.594963 0.813246
0.039476 0.598740 0.815447
0.041191 0.611202 0.823402
0.397852 0.636141 0.842152
0.784844 0.610407 0.840819
0.895289 0.641334 0.810967
0.950669 0.761793 0.796552
0.975587 0.863337 0.855121
0.973658 0.901172 0.905031
0.335538 0.799547 0.810780
0.337993 0.800311 0.811546
0.353591 0.804703 0.816003
0.404931 0.818570 0.829466
0.759756 0.825354 0.840232
0.905360 0.774680 0.825143
0.954721 0.783172 0.803261
0.976073 0.866405 0.856424
0.973651 0.901296 0.905081
0.685220 0.896095 0.749891
0.685224 0.896092 0.750121
0.685239 0.896078 0.750995
0.698389 0.899148 0.758862
0.738975 0.908487 0.783575
0.896666 0.910430 0.794242
0.958462 0.883965 0.803943
0.978388 0.879999 0.859910
0.975000 0.904961 0.905658
0.858260 0.935851 0.735304
0.858266 0.935852 0.735361
0.858292 0.935855 0.735574
0.858388 0.935868 0.736385
0.865272 0.937183 0.745372
0.884986 0.941540 0.772992
0.954420 0.943079 0.797082
0.977897 0.934649 0.855030
0.977389 0.930074 0.906310
0.932139 0.950580 0.838014
0.932140 0.950580 0.838017
0.932144 0.950581 0.838028
0.932160 0.950583 0.838070
0.932219 0.950592 0.838229
0.935804 0.951189 0.843636
0.946780 0.953085 0.860620
0.976561 0.953435 0.869519
0.976063 0.952916 0.904012
0.936591 0.950903 0.903212
0.936591 0.950903 0.903213
0.936591 0.950903 0.903215
0.936590 0.950903 0.903224
0.936586 0.950904 0.903257
0.936574 0.950907 0.903382
0.944961 0.952454 0.904954
0.976037 0.952889 0.905753
0.975994 0.952844 0.908639
0.041984 0.670779 0.880598
0.042473 0.672498 0.881094
0.045821 0.678647 0.882838
0.213979 0.700685 0.890173
0.710009 0.734561 0.891751
0.883655 0.771574 0.889802
0.948543 0.813262 0.881937
0.975104 0.873667 0.883009
0.973443 0.905060 0.906290
0.042053 0.672798 0.881111
0.042541 0.674512 0.881605
0.045717 0.680610 0.883236
0.206990 0.702330 0.890438
0.709941 0.735845 0.891958
0.883852 0.772147 0.889914
0.948626 0.813518 0.881994
0.975103 0.873672 0.883018
0.973443 0.905062 0.906291
0.042286 0.679898 0.882771
0.042760 0.681595 0.883177
0.045358 0.687509 0.884634
0.184048 0.708326 0.891393
0.709628 0.740372 0.892690
0.884726 0.774454 0.890350
0.948900 0.814386 0.882194
0.975102 0.873691 0.883053
0.973442 0.905069 0.906293
0.048253 0.707956 0.887204
0.048950 0.709242 0.887495
0.051988 0.713612 0.888603
0.116235 0.729668 0.893976
0.707207 0.755222 0.895087
0.887605 0.782887 0.891955
0.949996 0.817760 0.882929
0.975166 0.874010 0.883226
0.973441 0.905098 0.906301
0.355544 0.811013 0.892334
0.357081 0.811493 0.892485
0.362376 0.813276 0.893074
0.381552 0.819472 0.895169
0.672531 0.828244 0.897181
0.894204 0.816706 0.895218
0.952846 0.830078 0.885529
0.975856 0.876883 0.884099
0.973435 0.905206 0.906334
0.704231 0.898670 0.883531
0.704792 0.898818 0.883619
0.706846 0.899380 0.883955
0.714315 0.901448 0.885191
0.737810 0.907236 0.889475
0.885852 0.909511 0.891656
0.957065 0.889833 0.887856
0.978111 0.888039 0.886543
0.974904 0.909122 0.906858
0.866846 0.936468 0.860115
0.866846 0.936467 0.860140
0.866844 0.936466 0.860238
0.866932 0.936482 0.860639
0.872185 0.937766 0.864032
0.888107 0.941420 0.872148
0.954071 0.942728 0.876116
0.977428 0.935008 0.885267
0.977306 0.931202 0.907374
0.934544 0.950841 0.854746
0.934545 0.950841 0.854752
0.934548 0.950841 0.854775
0.934561 0.950842 0.854864
0.934609 0.950848 0.855200
0.938140 0.951458 0.858817
0.948164 0.953282 0.868752
0.976436 0.953305 0.878348
0.976043 0.952896 0.905345
0.936453 0.950938 0.904566
0.936453 0.950938 0.904566
0.936452 0.950938 0.904568
0.936452 0.950938 0.904576
0.936449 0.950939 0.904606
0.936437 0.950942 0.904718
0.944640 0.952441 0.906044
0.976023 0.952875 0.906699
0.975990 0.952840 0.908900
0.344054 0.847767 0.913217
0.345442 0.847967 0.913231
0.351503 0.848703 0.913280
0.378808 0.851325 0.913427
0.562740 0.858284 0.912840
0.854252 0.872302 0.909257
0.946739 0.887500 0.907248
0.974387 0.902506 0.905175
0.972657 0.916517 0.908794
0.344832 0.848009 0.913235
0.346222 0.848209 0.913250
0.352076 0.848940 0.913299
0.378900 0.851557 0.913448
0.561868 0.858492 0.912872
0.854255 0.872429 0.909272
0.946764 0.887561 0.907253
0.974396 0.902531 0.905179
0.972657 0.916519 0.908794
0.347730 0.848910 0.913305
0.349123 0.849110 0.913320
0.354207 0.849824 0.913371
0.379485 0.852424 0.913525
0.558824 0.859276 0.912987
0.854265 0.872900 0.909328
0.946864 0.887797 0.907272
0.974432 0.902623 0.905195
0.972657 0.916524 0.908795
0.357893 0.852080 0.913552
0.359299 0.852283 0.913566
0.364097 0.852995 0.913619
0.386716 0.855341 0.913787
0.550315 0.862115 0.913276
0.854284 0.874558 0.909526
0.947293 0.888751 0.907348
0.974584 0.903019 0.905271
0.972656 0.916542 0.908798
0.418665 0.864113 0.914037
0.419335 0.864263 0.914046
0.421547 0.864823 0.914084
0.431636 0.866825 0.914196
0.521068 0.873105 0.914077
0.853541 0.880567 0.910095
0.948687 0.892158 0.907623
0.975139 0.904463 0.905456
0.972846 0.917038 0.908832
0.689092 0.905800 0.910388
0.689272 0.905844 0.910398
0.689877 0.906010 0.910439
0.692312 0.906640 0.910594
0.701178 0.908852 0.911124
0.842031 0.911026 0.909803
0.951903 0.906203 0.908117
0.976989 0.909830 0.905993
0.974470 0.920931 0.909074
0.870126 0.938115 0.904700
0.870183 0.938128 0.904707
0.870401 0.938180 0.904734
0.871215 0.938373 0.904836
0.874232 0.939089 0.905216
0.883977 0.941429 0.906204
0.949326 0.942490 0.906134
0.977020 0.936526 0.905735
0.977136 0.933567 0.909382
0.936559 0.950864 0.899381
0.936559 0.950864 0.899382
0.936559 0.950864 0.899388
0.936559 0.950864 0.899410
0.936651 0.950882 0.899513
0.939806 0.951464 0.900319
0.947996 0.953021 0.902543
0.976064 0.952918 0.903907
0.976001 0.952852 0.908138
0.935864 0.951047 0.907809
0.935864 0.951047 0.907810
0.935863 0.951048 0.907810
0.935861 0.951048 0.907813
0.935853 0.951048 0.907824
0.935823 0.951049 0.907865
0.943383 0.952388 0.908584
0.975994 0.952845 0.908618
0.975980 0.952831 0.909516
0.658773 0.919851 0.916412
0.658960 0.919871 0.916411
0.659657 0.919945 0.916407
0.662997 0.920216 0.916385
0.677328 0.921177 0.916245
0.783619 0.923290 0.914645
0.934383 0.927106 0.911638
0.973455 0.931155 0.910517
0.972831 0.930241 0.910471
0.658889 0.919876 0.916412
0.659076 0.919896 0.916411
0.659773 0.919970 0.916407
0.663085 0.920241 0.916385
0.677348 0.921202 0.916245
0.783487 0.923316 0.914648
0.934384 0.927119 0.911639
0.973460 0.931163 0.910517
0.972837 0.930250 0.910471
0.659330 0.919971 0.916412
0.659517 0.919991 0.916411
0.660215 0.920065 0.916408
0.663419 0.920335 0.916387
0.677425 0.921296 0.916247
0.782989 0.923413 0.914661
0.934391 0.927171 0.911641
0.973481 0.931194 0.910519
0.972860 0.930283 0.910473
0.660969 0.920325 0.916414
0.661157 0.920345 0.916413
0.661857 0.920419 0.916410
0.664662 0.920685 0.916393
0.677706 0.921647 0.916256
0.781267 0.923775 0.914704
0.934414 0.927361 0.911650
0.973559 0.931310 0.910525
0.972944 0.930404 0.910479
0.666724 0.921569 0.916395
0.666914 0.921590 0.916393
0.667622 0.921665 0.916387
0.670109 0.921931 0.916366
0.681643 0.922883 0.916242
0.776680 0.925068 0.914831
0.934492 0.928031 0.911682
0.973830 0.931714 0.910545
0.973226 0.930815 0.910500
0.703345 0.926710 0.915918
0.703433 0.926728 0.915918
0.703758 0.926795 0.915916
0.704896 0.927011 0.915913
0.710258 0.927764 0.915884
0.760874 0.929265 0.915261
0.934510 0.930454 0.911785
0.974761 0.933173 0.910617
0.974248 0.932352 0.910577
0.859976 0.941319 0.912465
0.860001 0.941325 0.912465
0.860096 0.941345 0.912465
0.860453 0.941430 0.912469
0.861877 0.941747 0.912478
0.866778 0.942845 0.912517
0.931098 0.943398 0.911388
0.976489 0.941812 0.910253
0.976404 0.940216 0.910364
0.934377 0.951147 0.909743
0.934388 0.951149 0.909744
0.934429 0.951157 0.909746
0.934579 0.951185 0.909754
0.935169 0.951295 0.909783
0.937263 0.951669 0.909879
0.943621 0.952716 0.910103
0.975980 0.952831 0.909516
0.975980 0.952831 0.909516
0.934265 0.951126 0.909738
0.934265 0.951126 0.909738
0.934265 0.951126 0.909738
0.934265 0.951126 0.909738
0.934265 0.951126 0.909738
0.934536 0.951177 0.909751
0.941953 0.952397 0.910029
0.975980 0.952831 0.909516
0.975980 0.952831 0.909516
0.874107 0.943890 0.912325
0.874123 0.943894 0.912325
0.874186 0.943908 0.912326
0.874418 0.943961 0.912330
0.875794 0.944148 0.912336
0.884545 0.944559 0.912279
0.948378 0.943928 0.910892
0.976553 0.942498 0.910205
0.976456 0.941266 0.910291
0.874190 0.943900 0.912322
0.874206 0.943904 0.912322
0.874269 0.943918 0.912323
0.874501 0.943971 0.912327
0.875873 0.944155 0.912334
0.884576 0.944568 0.912278
0.948377 0.943937 0.910891
0.976553 0.942507 0.910204
0.976456 0.941279 0.910290
0.874505 0.943939 0.912313
0.874521 0.943943 0.912313
0.874584 0.943957 0.912314
0.874816 0.944010 0.912318
0.876172 0.944184 0.912325
0.884693 0.944601 0.912273
0.948371 0.943975 0.910889
0.976557 0.942542 0.910202
0.976459 0.941327 0.910287
0.875697 0.944085 0.912277
0.875713 0.944089 0.912277
0.875776 0.944103 0.912278
0.876010 0.944148 0.912282
0.877304 0.944293 0.912293
0.885136 0.944727 0.912255
0.948350 0.944116 0.910880
0.976569 0.942673 0.910192
0.976470 0.941509 0.910274
0.880149 0.944497 0.912152
0.880166 0.944500 0.912152
0.880229 0.944511 0.912153
0.880464 0.944551 0.912158
0.881523 0.944698 0.912171
0.886783 0.945195 0.912189
0.948241 0.944644 0.910847
0.976554 0.943162 0.910160
0.976516 0.942100 0.910233
0.892676 0.945857 0.911736
0.892693 0.945860 0.911736
0.892756 0.945871 0.911737
0.892992 0.945912 0.911742
0.893852 0.946060 0.911757
0.898112 0.946580 0.911791
0.947473 0.946302 0.910756
0.976442 0.945049 0.910036
0.976505 0.944000 0.910105
0.921343 0.949375 0.910684
0.921356 0.949377 0.910684
0.921406 0.949384 0.910686
0.921594 0.949411 0.910690
0.922248 0.949507 0.910707
0.924257 0.949885 0.910781
0.945546 0.950412 0.910530
0.976165 0.949722 0.909729
0.976194 0.949234 0.909761
0.937395 0.951689 0.909883
0.937403 0.951691 0.909883
0.937436 0.951696 0.909884
0.937596 0.951721 0.909889
0.938146 0.951806 0.909907
0.940034 0.952099 0.909967
0.945603 0.953036 0.910173
0.975980 0.952831 0.909516
0.975980 0.952831 0.909516
0.934702 0.951208 0.909760
0.934712 0.951210 0.909760
0.934752 0.951217 0.909762
0.934907 0.951246 0.909770
0.935492 0.951356 0.909799
0.937547 0.951713 0.909888
0.943847 0.952752 0.910111
0.975980 0.952831 0.909516
0.975980 0.952831 0.909516
