Assets/Data/Textures/70 CGC LUTs/LUTs_AgX_Filmic_ViewTransforms/ARRILogC4AWG4-to-AgX-Blender-sRGB.cube
#  Baked from the PixelManager OCIO config by Joe Genco
#  https://github.com/Joegenco/PixelManager
#  Input Gamma: Arri LogC4
#  Input Color Space: Arri Wide Gamut 4
#  floating point data (range 0.0 - 1.0)   
#       
#  Output Gamma: Gamma 2.2 (Display)
#  Output Color Space: Rec.709
#  floating point data (range 0.0 - 1.0)
LUT_3D_SIZE 5
0.000000 0.000000 0.000001
0.459158 0.002706 0.004327
1.000000 0.462388 0.505237
1.000000 0.893864 0.906880
1.000000 1.000000 1.000000
0.000000 0.398941 0.191657
0.422737 0.404795 0.000000
1.000000 0.463137 0.465380
1.000000 0.893920 0.907016
1.000000 1.000000 1.000000
0.000000 0.908080 0.425047
0.000000 0.907834 0.422958
0.883211 0.860169 0.527936
1.000000 0.893203 0.889310
1.000000 1.000000 1.000000
0.791210 1.000000 0.848891
0.790843 1.000000 0.848825
0.802196 1.000000 0.850103
1.000000 1.000000 0.914187
1.000000 1.000000 1.000000
0.997310 1.000000 1.000000
0.997310 1.000000 1.000000
0.997307 1.000000 1.000000
0.999396 1.000000 1.000000
1.000000 1.000000 1.000000
0.000000 0.102894 0.290973
0.455687 0.000000 0.389459
1.000000 0.483595 0.580111
1.000000 0.894984 0.909182
1.000000 1.000000 1.000000
0.000000 0.412132 0.396589
0.384493 0.384491 0.384524
1.000000 0.487366 0.554410
1.000000 0.894987 0.909285
1.000000 1.000000 1.000000
0.000000 0.902363 0.508260
0.000000 0.903009 0.503177
0.879865 0.858632 0.562647
1.000000 0.894292 0.892185
1.000000 1.000000 1.000000
0.787563 1.000000 0.848317
0.787220 1.000000 0.848255
0.799352 1.000000 0.849603
1.000000 1.000000 0.914027
1.000000 1.000000 1.000000
0.997310 1.000000 1.000000
0.997310 1.000000 1.000000
0.997307 1.000000 1.000000
0.999396 1.000000 1.000000
1.000000 1.000000 1.000000
0.299679 0.428363 0.902605
0.486885 0.456180 0.899585
0.965348 0.597372 0.881218
1.000000 0.898985 0.930253
1.000000 1.000000 1.000000
0.000000 0.477008 0.888848
0.348634 0.473014 0.925138
0.966188 0.600618 0.882643
1.000000 0.898981 0.930319
1.000000 1.000000 1.000000
0.000000 0.903387 0.875634
0.000000 0.900643 0.872967
0.857516 0.857516 0.857532
1.000000 0.904601 0.922611
1.000000 1.000000 1.000000
0.780914 1.000000 0.877996
0.781061 1.000000 0.878271
0.797726 1.000000 0.879358
1.000000 1.000000 0.927771
1.000000 1.000000 1.000000
0.997317 1.000000 1.000000
0.997317 1.000000 1.000000
0.997314 1.000000 1.000000
0.998670 1.000000 1.000000
1.000000 1.000000 1.000000
0.825043 0.863845 1.000000
0.834140 0.866403 1.000000
0.894769 0.879270 1.000000
1.000000 0.935695 1.000000
1.000000 1.000000 1.000000
0.819036 0.863132 1.000000
0.828151 0.865698 1.000000
0.893291 0.880036 1.000000
1.000000 0.935772 1.000000
1.000000 1.000000 1.000000
0.737885 0.870080 1.000000
0.739012 0.868476 1.000000
0.847476 0.884065 1.000000
1.000000 0.936870 1.000000
1.000000 1.000000 1.000000
0.822071 1.000000 1.000000
0.821885 1.000000 1.000000
0.819130 1.000000 1.000000
1.000000 1.000000 1.000000
1.000000 1.000000 1.000000
0.997138 1.000000 1.000000
0.997140 1.000000 1.000000
0.997154 1.000000 1.000000
0.998826 1.000000 1.000000
1.000000 1.000000 1.000000
1.000000 1.000000 1.000000
1.000000 1.000000 1.000000
1.000000 1.000000 1.000000
1.000000 1.000000 1.000000
1.000000 1.000000 1.000000
1.000000 1.000000 1.000000
1.000000 1.000000 1.000000
1.000000 1.000000 1.000000
1.000000 1.000000 1.000000
1.000000 1.000000 1.000000
1.000000 1.000000 1.000000
1.000000 1.000000 1.000000
1.000000 1.000000 1.000000
1.000000 1.000000 1.000000
1.000000 1.000000 1.000000
0.984960 1.000000 1.000000
0.984985 1.000000 1.000000
0.985371 1.000000 1.000000
1.000000 1.000000 1.000000
1.000000 1.000000 1.000000
1.000000 1.000000 1.000000
1.000000 1.000000 1.000000
1.000000 1.000000 1.000000
1.000000 1.000000 1.000000
1.000000 1.000000 1.000000
