Assets/Data/Textures/70 CGC LUTs/LUTs_AgX_Filmic_ViewTransforms/ARRILogC4AWG4-to-AgX-Resolve-Bombastic-sRGB.cube
#  Baked from the PixelManager OCIO config by Joe Genco
#  https://github.com/Joegenco/PixelManager
#  Input Gamma: Arri LogC4
#  Input Color Space: Arri Wide Gamut 4
#  floating point data (range 0.0 - 1.0)   
#       
#  Output Gamma: Gamma 2.2 (Display)
#  Output Color Space: Rec.709
#  floating point data (range 0.0 - 1.0)
LUT_3D_SIZE 5
0.000000 0.000000 0.000000
0.429661 0.000000 0.000000
1.072633 0.605090 0.617153
1.020385 0.957796 0.958869
1.019557 0.965089 0.966047
0.000000 0.282650 0.000000
0.319224 0.297956 0.000000
1.072855 0.602405 0.614616
1.020387 0.957777 0.958850
1.019557 0.965089 0.966047
0.000000 0.983518 0.521836
0.000000 0.983253 0.518371
0.911194 0.936442 0.701017
1.020418 0.957503 0.958581
1.019557 0.965089 0.966047
0.867876 1.006855 0.952891
0.867827 1.006853 0.952873
0.867112 1.006837 0.952607
0.994745 0.998109 0.968104
1.019557 0.965089 0.966047
0.939975 1.002440 0.993608
0.939973 1.002440 0.993608
0.939957 1.002441 0.993599
0.939715 1.002463 0.993479
0.999341 1.000292 0.993409
0.082673 0.000000 0.308507
0.475697 0.000000 0.362071
1.070747 0.606793 0.710952
1.020385 0.957796 0.958869
1.019557 0.965089 0.966047
0.000000 0.347706 0.302371
0.347379 0.347374 0.347403
1.070777 0.604420 0.715444
1.020387 0.957778 0.958851
1.019557 0.965089 0.966047
0.000000 0.975185 0.629956
0.000000 0.974874 0.628002
0.913261 0.932787 0.744122
1.020418 0.957504 0.958582
1.019557 0.965089 0.966047
0.868645 1.006723 0.953620
0.868596 1.006722 0.953602
0.867889 1.006704 0.953343
0.994764 0.998071 0.968463
1.019557 0.965089 0.966047
0.940105 1.002428 0.993673
0.940104 1.002428 0.993673
0.940087 1.002430 0.993664
0.939847 1.002451 0.993544
0.999346 1.000288 0.993466
0.352429 0.663863 1.017127
0.644132 0.659942 1.012214
1.025136 0.733805 0.985932
1.019711 0.958110 0.970384
1.019557 0.965089 0.966047
0.237599 0.732846 0.996581
0.586410 0.727081 0.992603
1.011557 0.765513 0.975585
1.019713 0.958093 0.970416
1.019557 0.965089 0.966047
0.353468 0.943658 0.923910
0.351622 0.943272 0.923977
0.924133 0.924120 0.924200
1.019694 0.957855 0.970792
1.019557 0.965089 0.966047
0.878761 1.005130 0.962384
0.878720 1.005127 0.962372
0.878124 1.005094 0.962198
0.995044 0.997606 0.972941
1.019519 0.965088 0.966611
0.941921 1.002268 0.994580
0.941920 1.002269 0.994580
0.941905 1.002270 0.994572
0.941681 1.002290 0.994460
0.999416 1.000227 0.994261
0.932957 0.965606 1.007396
0.935885 0.965488 1.007360
0.963151 0.964706 1.006963
1.011094 0.971923 1.004413
1.010460 0.973867 1.003355
0.932464 0.966098 1.007321
0.935410 0.965981 1.007285
0.962764 0.965186 1.006889
1.011095 0.971919 1.004415
1.010459 0.973870 1.003356
0.927329 0.972961 1.005826
0.928369 0.972887 1.005813
0.957488 0.971786 1.005166
1.009432 0.975638 1.003333
1.010438 0.973916 1.003368
0.940330 0.999440 0.996497
0.940323 0.999436 0.996498
0.940225 0.999381 0.996507
0.996645 0.996631 0.996717
1.010144 0.974567 1.003543
0.953416 1.001409 1.000002
0.953416 1.001409 1.000002
0.953416 1.001409 1.000002
0.953416 1.001409 1.000002
1.000004 0.999991 1.000077
0.965081 0.999675 1.000160
0.965584 0.999650 1.000151
0.971709 0.999330 1.000073
0.999082 0.998294 1.000399
1.007975 0.979855 1.003453
0.965024 0.999713 1.000150
0.965530 0.999688 1.000141
0.971661 0.999367 1.000062
0.999064 0.998325 1.000394
1.007975 0.979855 1.003453
0.964256 1.000254 1.000002
0.964753 1.000225 0.999996
0.971008 0.999893 0.999915
0.998792 0.998757 1.000309
1.007975 0.979855 1.003453
0.953416 1.001409 1.000002
0.953416 1.001409 1.000002
0.957887 1.001173 0.999916
0.996785 0.999896 0.999891
1.001515 0.996226 1.000716
0.953416 1.001409 1.000002
0.953416 1.001409 1.000002
0.953416 1.001409 1.000002
0.953416 1.001409 1.000002
1.000004 0.999991 1.000077
