Assets/Data/Textures/70 CGC LUTs/LUTs_AgX_Filmic_ViewTransforms/ARRILogC4AWG4-to-AgX-Kraken-sRGB.cube
#  Baked from the PixelManager OCIO config by Joe Genco
#  https://github.com/Joegenco/PixelManager
#  Input Gamma: Arri LogC4
#  Input Color Space: Arri Wide Gamut 4
#  floating point data (range 0.0 - 1.0)   
#       
#  Output Gamma: Gamma 2.2 (Display)
#  Output Color Space: Rec.709
#  floating point data (range 0.0 - 1.0)
LUT_3D_SIZE 33
0.000000 0.000000 0.000000
0.000000 0.000000 0.000000
0.013741 0.000000 0.000000
0.123154 0.010700 0.010712
0.217647 0.023300 0.023322
0.305501 0.037443 0.037476
0.386291 0.054431 0.054478
0.460604 0.075355 0.075419
0.529835 0.101268 0.101352
0.595518 0.133100 0.133206
0.658240 0.171439 0.171569
0.717561 0.216282 0.216435
0.772411 0.266882 0.267054
0.821561 0.321852 0.322037
0.864091 0.379517 0.379709
0.899677 0.438373 0.438569
0.928623 0.497430 0.497626
0.951679 0.556330 0.556525
0.969801 0.614892 0.615086
0.983947 0.672502 0.672692
0.994974 0.728040 0.728220
1.000000 0.780050 0.780216
1.000000 0.827074 0.827222
1.000000 0.868035 0.868161
1.000000 0.902486 0.902591
1.000000 0.930627 0.930712
1.000000 0.953120 0.953187
1.000000 0.970848 0.970900
1.000000 0.984719 0.984759
1.000000 0.995551 0.995583
1.000000 1.000000 1.000000
1.000000 1.000000 1.000000
1.000000 1.000000 1.000000
0.000000 0.000000 0.000000
0.000000 0.000000 0.000000
0.000000 0.000000 0.000000
0.104883 0.008362 0.008373
0.205590 0.021590 0.021611
0.297585 0.036017 0.036049
0.381120 0.053188 0.053234
0.457198 0.074255 0.074318
0.527549 0.100296 0.100379
0.593959 0.132252 0.132357
0.657178 0.170717 0.170847
0.716850 0.215688 0.215840
0.771947 0.266411 0.266583
0.821269 0.321492 0.321677
0.863913 0.379251 0.379443
0.899572 0.438181 0.438376
0.928562 0.497292 0.497488
0.951645 0.556231 0.556427
0.969782 0.614823 0.615017
0.983937 0.672454 0.672643
0.994968 0.728007 0.728187
1.000000 0.780028 0.780194
1.000000 0.827060 0.827208
1.000000 0.868026 0.868153
1.000000 0.902481 0.902586
1.000000 0.930624 0.930709
1.000000 0.953118 0.953185
1.000000 0.970847 0.970899
1.000000 0.984718 0.984759
1.000000 0.995550 0.995582
1.000000 1.000000 1.000000
1.000000 1.000000 1.000000
1.000000 1.000000 1.000000
0.000000 0.000000 0.000000
0.000000 0.000000 0.000000
0.000000 0.000000 0.000000
0.076579 0.004673 0.004681
0.187604 0.019112 0.019131
0.285983 0.033990 0.034020
0.373647 0.051435 0.051479
0.452328 0.072708 0.072770
0.524304 0.098930 0.099012
0.591756 0.131061 0.131166
0.655683 0.169705 0.169834
0.715849 0.214855 0.215007
0.771296 0.265752 0.265923
0.820860 0.320989 0.321173
0.863664 0.378879 0.379071
0.899425 0.437912 0.438107
0.928478 0.497100 0.497296
0.951598 0.556095 0.556290
0.969755 0.614726 0.614920
0.983922 0.672386 0.672575
0.994960 0.727961 0.728141
1.000000 0.779998 0.780164
1.000000 0.827041 0.827189
1.000000 0.868015 0.868141
1.000000 0.902474 0.902579
1.000000 0.930620 0.930705
1.000000 0.953116 0.953183
1.000000 0.970845 0.970898
1.000000 0.984717 0.984758
1.000000 0.995550 0.995582
1.000000 1.000000 1.000000
1.000000 1.000000 1.000000
1.000000 1.000000 1.000000
0.007387 0.063155 0.007387
0.006113 0.056620 0.006113
0.004190 0.046996 0.004190
0.029682 0.033222 0.003451
0.160059 0.019864 0.015860
0.268601 0.031082 0.031110
0.362681 0.048948 0.048990
0.445291 0.070525 0.070585
0.519668 0.097008 0.097088
0.588631 0.129389 0.129493
0.653569 0.168284 0.168412
0.714440 0.213686 0.213838
0.770381 0.264827 0.264998
0.820284 0.320283 0.320468
0.863315 0.378358 0.378550
0.899220 0.437536 0.437731
0.928360 0.496831 0.497027
0.951531 0.555903 0.556099
0.969718 0.614590 0.614784
0.983901 0.672291 0.672481
0.994948 0.727896 0.728077
1.000000 0.779955 0.780121
1.000000 0.827014 0.827162
1.000000 0.867998 0.868124
1.000000 0.902465 0.902569
1.000000 0.930615 0.930699
1.000000 0.953113 0.953179
1.000000 0.970843 0.970896
1.000000 0.984716 0.984757
1.000000 0.995549 0.995581
1.000000 1.000000 1.000000
1.000000 1.000000 1.000000
1.000000 1.000000 1.000000
0.024418 0.154163 0.024418
0.023604 0.149887 0.023604
0.022449 0.143781 0.022449
0.020798 0.134983 0.020798
0.122815 0.126157 0.026285
0.245328 0.115832 0.037391
0.347610 0.100596 0.051154
0.435126 0.077391 0.068401
0.512979 0.094295 0.094373
0.584166 0.127032 0.127134
0.650569 0.166284 0.166411
0.712447 0.212044 0.212195
0.769090 0.263527 0.263698
0.819475 0.319293 0.319478
0.862825 0.377627 0.377820
0.898932 0.437009 0.437204
0.928195 0.496455 0.496651
0.951438 0.555635 0.555830
0.969666 0.614400 0.614594
0.983872 0.672159 0.672348
0.994932 0.727806 0.727986
1.000000 0.779896 0.780062
1.000000 0.826976 0.827124
1.000000 0.867975 0.868101
1.000000 0.902451 0.902555
1.000000 0.930607 0.930691
1.000000 0.953108 0.953175
1.000000 0.970841 0.970893
1.000000 0.984715 0.984756
1.000000 0.995549 0.995581
1.000000 1.000000 1.000000
1.000000 1.000000 1.000000
1.000000 1.000000 1.000000
0.042353 0.240932 0.042353
0.041690 0.238010 0.041690
0.040757 0.233861 0.040757
0.039442 0.227931 0.039442
0.057826 0.219831 0.038679
0.209410 0.212958 0.048578
0.326450 0.202994 0.061306
0.422208 0.188305 0.077615
0.504222 0.166097 0.098371
0.577794 0.131114 0.124472
0.646280 0.163461 0.163587
0.709616 0.209729 0.209879
0.767263 0.261699 0.261869
0.818333 0.317903 0.318087
0.862135 0.376602 0.376794
0.898527 0.436270 0.436465
0.927963 0.495928 0.496124
0.951307 0.555260 0.555455
0.969593 0.614134 0.614329
0.983831 0.671973 0.672163
0.994909 0.727680 0.727860
1.000000 0.779813 0.779979
1.000000 0.826924 0.827071
1.000000 0.867943 0.868069
1.000000 0.902432 0.902536
1.000000 0.930596 0.930680
1.000000 0.953102 0.953169
1.000000 0.970837 0.970890
1.000000 0.984713 0.984754
1.000000 0.995547 0.995579
1.000000 1.000000 1.000000
1.000000 1.000000 1.000000
1.000000 1.000000 1.000000
0.063531 0.323163 0.063531
0.062959 0.321202 0.062959
0.062157 0.318429 0.062157
0.061030 0.314491 0.061030
0.059443 0.308855 0.059443
0.147367 0.302573 0.062814
0.292480 0.296064 0.074537
0.402453 0.286608 0.089814
0.492053 0.272628 0.109490
0.569918 0.251395 0.134440
0.640554 0.217741 0.165418
0.705563 0.206455 0.206603
0.764664 0.259118 0.259288
0.816715 0.315943 0.316127
0.861160 0.375161 0.375353
0.897957 0.435232 0.435428
0.927637 0.495190 0.495386
0.951123 0.554734 0.554930
0.969490 0.613763 0.613957
0.983774 0.671714 0.671904
0.994878 0.727503 0.727684
1.000000 0.779696 0.779863
1.000000 0.826850 0.826998
1.000000 0.867898 0.868024
1.000000 0.902405 0.902509
1.000000 0.930580 0.930665
1.000000 0.953093 0.953160
1.000000 0.970833 0.970885
1.000000 0.984710 0.984751
1.000000 0.995546 0.995578
1.000000 1.000000 1.000000
1.000000 1.000000 1.000000
1.000000 1.000000 1.000000
0.089324 0.399953 0.089324
0.088823 0.398649 0.088823
0.088122 0.396810 0.088122
0.087138 0.394211 0.087138
0.085756 0.390516 0.085756
0.083810 0.385229 0.083810
0.233112 0.380287 0.091631
0.370708 0.374205 0.105776
0.473498 0.365364 0.124179
0.558275 0.352274 0.147702
0.632995 0.332344 0.177099
0.700412 0.300595 0.212819
0.760936 0.255460 0.255628
0.814410 0.313173 0.313356
0.859777 0.373128 0.373320
0.897151 0.433773 0.433968
0.927178 0.494153 0.494348
0.950866 0.553998 0.554194
0.969346 0.613242 0.613436
0.983695 0.671351 0.671541
0.994833 0.727257 0.727437
1.000000 0.779534 0.779701
1.000000 0.826747 0.826895
1.000000 0.867835 0.867961
1.000000 0.902368 0.902472
1.000000 0.930559 0.930643
1.000000 0.953081 0.953148
1.000000 0.970826 0.970878
1.000000 0.984706 0.984747
1.000000 0.995544 0.995576
1.000000 1.000000 1.000000
1.000000 1.000000 1.000000
1.000000 1.000000 1.000000
0.120826 0.471535 0.120826
0.120390 0.470663 0.120390
0.119780 0.469436 0.119780
0.118926 0.467708 0.118926
0.117726 0.465266 0.117726
0.116040 0.461796 0.116040
0.113665 0.456831 0.113665
0.314926 0.452833 0.126361
0.443783 0.447149 0.143282
0.540578 0.438890 0.165074
0.621813 0.426671 0.192500
0.693253 0.408076 0.226056
0.756366 0.378440 0.265770
0.811168 0.327158 0.311086
0.857804 0.370251 0.370443
0.896007 0.431714 0.431909
0.926528 0.492694 0.492889
0.950502 0.552964 0.553159
0.969144 0.612512 0.612706
0.983582 0.670843 0.671033
0.994771 0.726911 0.727092
1.000000 0.779307 0.779473
1.000000 0.826603 0.826750
1.000000 0.867747 0.867873
1.000000 0.902315 0.902420
1.000000 0.930529 0.930613
1.000000 0.953064 0.953131
1.000000 0.970816 0.970869
1.000000 0.984701 0.984742
1.000000 0.995541 0.995573
1.000000 1.000000 1.000000
1.000000 1.000000 1.000000
1.000000 1.000000 1.000000
0.158765 0.538971 0.158765
0.158394 0.538377 0.158394
0.157874 0.537546 0.157874
0.157146 0.536377 0.157146
0.156125 0.534731 0.156125
0.154691 0.532406 0.154691
0.152674 0.529104 0.152674
0.196625 0.524772 0.152416
0.391692 0.521022 0.167640
0.512396 0.515644 0.187386
0.604808 0.507842 0.212427
0.682632 0.496326 0.243318
0.749754 0.478854 0.280210
0.807137 0.451105 0.322726
0.855091 0.403238 0.369973
0.894372 0.428798 0.428993
0.925606 0.490635 0.490830
0.949988 0.551508 0.551704
0.968860 0.611486 0.611681
0.983425 0.670130 0.670320
0.994683 0.726427 0.726608
1.000000 0.778989 0.779155
1.000000 0.826401 0.826549
1.000000 0.867623 0.867750
1.000000 0.902243 0.902347
1.000000 0.930487 0.930571
1.000000 0.953040 0.953107
1.000000 0.970803 0.970855
1.000000 0.984693 0.984734
1.000000 0.995537 0.995569
1.000000 1.000000 1.000000
1.000000 1.000000 1.000000
1.000000 1.000000 1.000000
0.203272 0.603441 0.203272
0.202965 0.603034 0.202965
0.202535 0.602463 0.202535
0.201934 0.601663 0.201934
0.201091 0.600539 0.201091
0.199909 0.598955 0.199909
0.198246 0.596718 0.198246
0.195904 0.593543 0.195904
0.280320 0.589668 0.197936
0.463412 0.586068 0.215346
0.577750 0.580910 0.237609
0.666420 0.573432 0.265341
0.739900 0.562411 0.298832
0.801227 0.545734 0.337913
0.851628 0.519386 0.381929
0.892161 0.474316 0.429877
0.924287 0.487717 0.487913
0.949258 0.549455 0.549651
0.968457 0.610043 0.610238
0.983203 0.669129 0.669318
0.994561 0.725748 0.725929
1.000000 0.778543 0.778709
1.000000 0.826118 0.826266
1.000000 0.867451 0.867577
1.000000 0.902140 0.902245
1.000000 0.930428 0.930512
1.000000 0.953007 0.953074
1.000000 0.970784 0.970836
1.000000 0.984683 0.984724
1.000000 0.995531 0.995563
1.000000 1.000000 1.000000
1.000000 1.000000 1.000000
1.000000 1.000000 1.000000
0.253710 0.665236 0.253710
0.253466 0.664958 0.253466
0.253124 0.664568 0.253124
0.252645 0.664022 0.252645
0.251975 0.663257 0.251975
0.251035 0.662181 0.251035
0.249715 0.660665 0.249715
0.247857 0.658523 0.247857
0.245235 0.655481 0.245235
0.359322 0.651967 0.249359
0.530991 0.648519 0.268538
0.640513 0.643574 0.292699
0.724766 0.636402 0.322272
0.792374 0.625821 0.357312
0.846532 0.609800 0.397437
0.889282 0.584500 0.441892
0.922523 0.541414 0.489765
0.948212 0.546545 0.546741
0.967885 0.608006 0.608201
0.982889 0.667719 0.667909
0.994387 0.724794 0.724975
1.000000 0.777916 0.778083
1.000000 0.825722 0.825870
1.000000 0.867209 0.867335
1.000000 0.901998 0.902102
1.000000 0.930346 0.930430
1.000000 0.952960 0.953027
1.000000 0.970758 0.970810
1.000000 0.984668 0.984709
1.000000 0.995523 0.995555
1.000000 1.000000 1.000000
1.000000 1.000000 1.000000
1.000000 1.000000 1.000000
0.308742 0.723738 0.308742
0.308555 0.723552 0.308555
0.308293 0.723291 0.308293
0.307926 0.722925 0.307926
0.307413 0.722413 0.307413
0.306693 0.721695 0.306693
0.305684 0.720684 0.305684
0.304265 0.719260 0.304265
0.302267 0.717247 0.302267
0.299442 0.714384 0.299442
0.433145 0.711206 0.305296
0.595597 0.707956 0.325647
0.700373 0.703288 0.350945
0.778671 0.696503 0.381464
0.838856 0.686466 0.417109
0.885033 0.671212 0.457422
0.920194 0.647015 0.501713
0.946827 0.605650 0.549277
0.967066 0.605119 0.605313
0.982443 0.665727 0.665918
0.994142 0.723450 0.723631
1.000000 0.777036 0.777203
1.000000 0.825166 0.825314
1.000000 0.866870 0.866997
1.000000 0.901798 0.901902
1.000000 0.930230 0.930315
1.000000 0.952895 0.952962
1.000000 0.970721 0.970774
1.000000 0.984648 0.984689
1.000000 0.995511 0.995543
1.000000 1.000000 1.000000
1.000000 1.000000 1.000000
1.000000 1.000000 1.000000
0.366672 0.777789 0.366672
0.366533 0.777668 0.366533
0.366339 0.777498 0.366339
0.366067 0.777260 0.366067
0.365687 0.776927 0.365687
0.365154 0.776460 0.365154
0.364408 0.775805 0.364408
0.363360 0.774884 0.363360
0.361886 0.773584 0.361886
0.359808 0.771745 0.359808
0.356866 0.769126 0.356866
0.502354 0.766302 0.364001
0.657614 0.763321 0.384920
0.756330 0.759029 0.410668
0.826879 0.752773 0.441425
0.878601 0.743478 0.477053
0.916747 0.729268 0.517145
0.944978 0.706538 0.561145
0.965986 0.667251 0.608316
0.981803 0.662902 0.663093
0.993794 0.721549 0.721731
1.000000 0.775795 0.775963
1.000000 0.824383 0.824532
1.000000 0.866394 0.866521
1.000000 0.901517 0.901622
1.000000 0.930069 0.930153
1.000000 0.952803 0.952871
1.000000 0.970670 0.970723
1.000000 0.984619 0.984660
1.000000 0.995495 0.995527
1.000000 1.000000 1.000000
1.000000 1.000000 1.000000
1.000000 1.000000 1.000000
0.425912 0.826137 0.425912
0.425812 0.826061 0.425812
0.425671 0.825954 0.425671
0.425474 0.825805 0.425474
0.425199 0.825595 0.425199
0.424815 0.825303 0.424815
0.424275 0.824892 0.424275
0.423520 0.824315 0.423520
0.422458 0.823504 0.422458
0.420965 0.822358 0.420965
0.418859 0.820735 0.418859
0.415874 0.818420 0.415874
0.568129 0.815976 0.423860
0.716501 0.813333 0.444891
0.807104 0.809518 0.470632
0.868491 0.803938 0.501249
0.911510 0.795605 0.536648
0.942238 0.782772 0.576469
0.964536 0.762018 0.620047
0.980966 0.725562 0.666371
0.993296 0.718850 0.719032
1.000000 0.774039 0.774207
1.000000 0.823279 0.823429
1.000000 0.865723 0.865851
1.000000 0.901122 0.901227
1.000000 0.929842 0.929927
1.000000 0.952675 0.952743
1.000000 0.970598 0.970651
1.000000 0.984579 0.984620
1.000000 0.995473 0.995505
1.000000 1.000000 1.000000
1.000000 1.000000 1.000000
1.000000 1.000000 1.000000
0.485362 0.867882 0.485362
0.485290 0.867836 0.485290
0.485189 0.867771 0.485189
0.485049 0.867681 0.485049
0.484853 0.867554 0.484853
0.484578 0.867376 0.484578
0.484194 0.867128 0.484194
0.483656 0.866779 0.483656
0.482901 0.866289 0.482901
0.481841 0.865599 0.481841
0.480350 0.864625 0.480350
0.478245 0.863242 0.478245
0.475262 0.861268 0.475262
0.631277 0.859214 0.483778
0.771136 0.856952 0.504695
0.851600 0.853681 0.530269
0.903230 0.848878 0.560685
0.938064 0.841669 0.595812
0.962385 0.830482 0.635154
0.979834 0.812176 0.677794
0.992644 0.779406 0.722395
1.000000 0.771540 0.771710
1.000000 0.821715 0.821865
1.000000 0.864777 0.864905
1.000000 0.900567 0.900672
1.000000 0.929523 0.929609
1.000000 0.952496 0.952563
1.000000 0.970498 0.970551
1.000000 0.984523 0.984564
1.000000 0.995442 0.995474
1.000000 1.000000 1.000000
1.000000 1.000000 1.000000
1.000000 1.000000 1.000000
0.544575 0.902742 0.544575
0.544524 0.902714 0.544524
0.544453 0.902676 0.544453
0.544353 0.902623 0.544353
0.544213 0.902548 0.544213
0.544017 0.902444 0.544017
0.543744 0.902298 0.543744
0.543361 0.902093 0.543361
0.542825 0.901806 0.542825
0.542074 0.901403 0.542074
0.541019 0.900835 0.541019
0.539534 0.900031 0.539534
0.537438 0.898891 0.537438
0.534468 0.897260 0.534468
0.691624 0.895581 0.543328
0.820243 0.893708 0.564106
0.889259 0.890993 0.589490
0.931437 0.886994 0.619592
0.959104 0.880966 0.654147
0.978155 0.871547 0.692433
0.991762 0.855961 0.733249
1.000000 0.827532 0.774975
1.000000 0.819486 0.819637
1.000000 0.863434 0.863563
1.000000 0.899782 0.899888
1.000000 0.929075 0.929160
1.000000 0.952243 0.952311
1.000000 0.970357 0.970410
1.000000 0.984445 0.984486
1.000000 0.995398 0.995430
1.000000 1.000000 1.000000
1.000000 1.000000 1.000000
1.000000 1.000000 1.000000
0.603432 0.931052 0.603432
0.603396 0.931037 0.603396
0.603345 0.931015 0.603345
0.603274 0.930984 0.603274
0.603175 0.930941 0.603175
0.603036 0.930881 0.603036
0.602843 0.930798 0.602843
0.602571 0.930680 0.602571
0.602192 0.930516 0.602192
0.601661 0.930285 0.601661
0.600915 0.929961 0.600915
0.599869 0.929505 0.599869
0.598396 0.928859 0.598396
0.596316 0.927941 0.596316
0.593367 0.926628 0.593367
0.748246 0.925286 0.602429
0.862851 0.923774 0.622970
0.920175 0.921580 0.647949
0.953881 0.918341 0.677351
0.975593 0.913441 0.710713
0.990453 0.905741 0.747063
1.000000 0.892886 0.784957
1.000000 0.869049 0.822646
1.000000 0.861519 0.861649
1.000000 0.898667 0.898774
1.000000 0.928440 0.928526
1.000000 0.951887 0.951955
1.000000 0.970159 0.970212
1.000000 0.984335 0.984376
1.000000 0.995337 0.995369
1.000000 1.000000 1.000000
1.000000 1.000000 1.000000
1.000000 1.000000 1.000000
0.661439 0.953580 0.661439
0.661414 0.953571 0.661414
0.661378 0.953559 0.661378
0.661328 0.953542 0.661328
0.661259 0.953518 0.661259
0.661162 0.953484 0.661162
0.661026 0.953436 0.661026
0.660837 0.953370 0.660837
0.660572 0.953278 0.660572
0.660200 0.953148 0.660200
0.659680 0.952966 0.659680
0.658950 0.952710 0.658950
0.657925 0.952349 0.657925
0.656482 0.951838 0.656482
0.654444 0.951113 0.654444
0.651552 0.950074 0.651552
0.799876 0.949018 0.660621
0.898584 0.947820 0.680632
0.944963 0.946080 0.704765
0.971511 0.943507 0.732830
0.988456 0.939606 0.764152
1.000000 0.933452 0.797558
1.000000 0.923111 0.831494
1.000000 0.903691 0.864294
1.000000 0.897075 0.897183
1.000000 0.927540 0.927626
1.000000 0.951384 0.951452
1.000000 0.969879 0.969933
1.000000 0.984180 0.984221
1.000000 0.995251 0.995283
1.000000 1.000000 1.000000
1.000000 1.000000 1.000000
1.000000 1.000000 1.000000
0.717579 0.971278 0.717579
0.717562 0.971273 0.717562
0.717538 0.971266 0.717538
0.717504 0.971256 0.717504
0.717456 0.971243 0.717456
0.717390 0.971224 0.717390
0.717297 0.971197 0.717297
0.717167 0.971160 0.717167
0.716986 0.971109 0.716986
0.716732 0.971036 0.716732
0.716377 0.970935 0.716377
0.715879 0.970792 0.715879
0.715181 0.970592 0.715181
0.714200 0.970309 0.714200
0.712817 0.969910 0.712817
0.710863 0.969341 0.710863
0.708087 0.968528 0.708087
0.845363 0.967704 0.716909
0.927704 0.966766 0.735936
0.964525 0.965401 0.758612
0.985273 0.963382 0.784573
0.998490 0.960317 0.812979
1.000000 0.955471 0.842568
1.000000 0.947294 0.871853
1.000000 0.931809 0.899416
1.000000 0.926251 0.926338
1.000000 0.950669 0.950738
1.000000 0.969485 0.969538
1.000000 0.983962 0.984003
1.000000 0.995130 0.995162
1.000000 1.000000 1.000000
1.000000 1.000000 1.000000
1.000000 1.000000 1.000000
0.770449 0.985093 0.770449
0.770437 0.985090 0.770437
0.770421 0.985087 0.770421
0.770399 0.985081 0.770399
0.770367 0.985074 0.770367
0.770323 0.985063 0.770323
0.770262 0.985048 0.770262
0.770176 0.985028 0.770176
0.770056 0.984999 0.770056
0.769888 0.984959 0.769888
0.769652 0.984902 0.769652
0.769323 0.984823 0.769323
0.768862 0.984712 0.768862
0.768214 0.984555 0.768214
0.767303 0.984335 0.767303
0.766019 0.984024 0.766019
0.764202 0.983581 0.764202
0.761617 0.982946 0.761617
0.884056 0.982306 0.769902
0.950930 0.981574 0.787417
0.979825 0.980509 0.808000
0.996005 0.978934 0.831155
1.000000 0.976541 0.855973
1.000000 0.972755 0.881240
1.000000 0.966353 0.905668
1.000000 0.954175 0.928166
1.000000 0.949646 0.949715
1.000000 0.968923 0.968977
1.000000 0.983653 0.983695
1.000000 0.994959 0.994992
1.000000 1.000000 1.000000
1.000000 1.000000 1.000000
1.000000 1.000000 1.000000
0.818566 0.995865 0.818566
0.818558 0.995863 0.818558
0.818548 0.995861 0.818548
0.818534 0.995858 0.818534
0.818514 0.995854 0.818514
0.818485 0.995848 0.818485
0.818446 0.995840 0.818446
0.818391 0.995828 0.818391
0.818314 0.995812 0.818314
0.818207 0.995790 0.818207
0.818057 0.995758 0.818057
0.817847 0.995714 0.817847
0.817552 0.995652 0.817552
0.817140 0.995566 0.817140
0.816560 0.995444 0.816560
0.815745 0.995272 0.815745
0.814595 0.995029 0.814595
0.812965 0.994683 0.812965
0.810644 0.994188 0.810644
0.915953 0.993690 0.818125
0.969202 0.993119 0.833665
0.991755 0.992289 0.851662
1.000000 0.991061 0.871564
1.000000 0.989195 0.892492
1.000000 0.986244 0.913382
1.000000 0.981252 0.933207
1.000000 0.971741 0.951178
1.000000 0.968120 0.968174
1.000000 0.983215 0.983257
1.000000 0.994718 0.994751
1.000000 1.000000 1.000000
1.000000 1.000000 1.000000
1.000000 1.000000 1.000000
0.860760 1.000000 0.860760
0.860756 1.000000 0.860756
0.860749 1.000000 0.860749
0.860740 1.000000 0.860740
0.860728 1.000000 0.860728
0.860711 1.000000 0.860711
0.860686 1.000000 0.860686
0.860653 1.000000 0.860653
0.860605 1.000000 0.860605
0.860539 1.000000 0.860539
0.860447 1.000000 0.860447
0.860318 1.000000 0.860318
0.860137 1.000000 0.860137
0.859883 1.000000 0.859883
0.859528 1.000000 0.859528
0.859029 1.000000 0.859029
0.858326 1.000000 0.858326
0.857333 1.000000 0.857333
0.855926 1.000000 0.855926
0.853917 1.000000 0.853917
0.941606 1.000000 0.860410
0.983473 1.000000 0.873700
1.000000 1.000000 0.888886
1.000000 1.000000 0.905430
1.000000 0.999067 0.922556
1.000000 0.996762 0.939397
1.000000 0.992868 0.955172
1.000000 0.985453 0.969329
1.000000 0.982587 0.982629
1.000000 0.994376 0.994408
1.000000 1.000000 1.000000
1.000000 1.000000 1.000000
1.000000 1.000000 1.000000
0.896464 1.000000 0.896464
0.896461 1.000000 0.896461
0.896457 1.000000 0.896457
0.896452 1.000000 0.896452
0.896445 1.000000 0.896445
0.896434 1.000000 0.896434
0.896420 1.000000 0.896420
0.896400 1.000000 0.896400
0.896372 1.000000 0.896372
0.896332 1.000000 0.896332
0.896277 1.000000 0.896277
0.896200 1.000000 0.896200
0.896093 1.000000 0.896093
0.895942 1.000000 0.895942
0.895731 1.000000 0.895731
0.895435 1.000000 0.895435
0.895019 1.000000 0.895019
0.894433 1.000000 0.894433
0.893606 1.000000 0.893606
0.892431 1.000000 0.892431
0.890751 1.000000 0.890751
0.961888 1.000000 0.896190
0.994600 1.000000 0.907190
1.000000 1.000000 0.919625
1.000000 1.000000 0.933015
1.000000 1.000000 0.946720
1.000000 1.000000 0.960061
1.000000 1.000000 0.972461
1.000000 0.996145 0.983536
1.000000 0.993885 0.993918
1.000000 1.000000 1.000000
1.000000 1.000000 1.000000
1.000000 1.000000 1.000000
0.925767 1.000000 0.925767
0.925766 1.000000 0.925766
0.925764 1.000000 0.925764
0.925761 1.000000 0.925761
0.925756 1.000000 0.925756
0.925750 1.000000 0.925750
0.925742 1.000000 0.925742
0.925730 1.000000 0.925730
0.925714 1.000000 0.925714
0.925691 1.000000 0.925691
0.925659 1.000000 0.925659
0.925615 1.000000 0.925615
0.925553 1.000000 0.925553
0.925465 1.000000 0.925465
0.925343 1.000000 0.925343
0.925172 1.000000 0.925172
0.924932 1.000000 0.924932
0.924595 1.000000 0.924595
0.924120 1.000000 0.924120
0.923449 1.000000 0.923449
0.922495 1.000000 0.922495
0.921130 1.000000 0.921130
0.977768 1.000000 0.925555
1.000000 1.000000 0.934431
1.000000 1.000000 0.944385
1.000000 1.000000 0.955020
1.000000 1.000000 0.965828
1.000000 1.000000 0.976291
1.000000 1.000000 0.985982
1.000000 1.000000 0.994628
1.000000 1.000000 1.000000
1.000000 1.000000 1.000000
1.000000 1.000000 1.000000
0.949268 1.000000 0.949268
0.949267 1.000000 0.949267
0.949266 1.000000 0.949266
0.949264 1.000000 0.949264
0.949262 1.000000 0.949262
0.949258 1.000000 0.949258
0.949253 1.000000 0.949253
0.949247 1.000000 0.949247
0.949238 1.000000 0.949238
0.949225 1.000000 0.949225
0.949206 1.000000 0.949206
0.949181 1.000000 0.949181
0.949146 1.000000 0.949146
0.949096 1.000000 0.949096
0.949027 1.000000 0.949027
0.948930 1.000000 0.948930
0.948794 1.000000 0.948794
0.948603 1.000000 0.948603
0.948335 1.000000 0.948335
0.947958 1.000000 0.947958
0.947423 1.000000 0.947423
0.946664 1.000000 0.946664
0.945577 1.000000 0.945577
0.990151 1.000000 0.949105
1.000000 1.000000 0.956140
1.000000 1.000000 0.963991
1.000000 1.000000 0.972343
1.000000 1.000000 0.980800
1.000000 1.000000 0.988971
1.000000 1.000000 0.996539
1.000000 1.000000 1.000000
1.000000 1.000000 1.000000
1.000000 1.000000 1.000000
0.967827 1.000000 0.967827
0.967826 1.000000 0.967826
0.967826 1.000000 0.967826
0.967825 1.000000 0.967825
0.967823 1.000000 0.967823
0.967821 1.000000 0.967821
0.967819 1.000000 0.967819
0.967815 1.000000 0.967815
0.967810 1.000000 0.967810
0.967802 1.000000 0.967802
0.967792 1.000000 0.967792
0.967778 1.000000 0.967778
0.967758 1.000000 0.967758
0.967730 1.000000 0.967730
0.967691 1.000000 0.967691
0.967637 1.000000 0.967637
0.967561 1.000000 0.967561
0.967454 1.000000 0.967454
