Assets/Data/Textures/70 CGC LUTs/LUTs_AgX_Filmic_ViewTransforms/ARRILogC4AWG4-to-AgX-Kraken-sRGB.cube
#  Baked from the PixelManager OCIO config by Joe Genco
#  https://github.com/Joegenco/PixelManager
#  Input Gamma: Arri LogC4
#  Input Color Space: Arri Wide Gamut 4
#  floating point data (range 0.0 - 1.0)   
#       
#  Output Gamma: Gamma 2.2 (Display)
#  Output Color Space: Rec.709
#  floating point data (range 0.0 - 1.0)
LUT_3D_SIZE 9
0.000000 0.000000 0.000000
0.217647 0.023300 0.023322
0.529835 0.101268 0.101352
0.772411 0.266882 0.267054
0.928623 0.497430 0.497626
0.994974 0.728040 0.728220
1.000000 0.902486 0.902591
1.000000 0.984719 0.984759
1.000000 1.000000 1.000000
0.024418 0.154163 0.024418
0.122815 0.126157 0.026285
0.512979 0.094295 0.094373
0.769090 0.263527 0.263698
0.928195 0.496455 0.496651
0.994932 0.727806 0.727986
1.000000 0.902451 0.902555
1.000000 0.984715 0.984756
1.000000 1.000000 1.000000
0.120826 0.471535 0.120826
0.117726 0.465266 0.117726
0.443783 0.447149 0.143282
0.756366 0.378440 0.265770
0.926528 0.492694 0.492889
0.994771 0.726911 0.727092
1.000000 0.902315 0.902420
1.000000 0.984701 0.984742
1.000000 1.000000 1.000000
0.308742 0.723738 0.308742
0.307413 0.722413 0.307413
0.302267 0.717247 0.302267
0.700373 0.703288 0.350945
0.920194 0.647015 0.501713
0.994142 0.723450 0.723631
1.000000 0.901798 0.901902
1.000000 0.984648 0.984689
1.000000 1.000000 1.000000
0.544575 0.902742 0.544575
0.544213 0.902548 0.544213
0.542825 0.901806 0.542825
0.537438 0.898891 0.537438
0.889259 0.890993 0.589490
0.991762 0.855961 0.733249
1.000000 0.899782 0.899888
1.000000 0.984445 0.984486
1.000000 1.000000 1.000000
0.770449 0.985093 0.770449
0.770367 0.985074 0.770367
0.770056 0.984999 0.770056
0.768862 0.984712 0.768862
0.764202 0.983581 0.764202
0.979825 0.980509 0.808000
1.000000 0.966353 0.905668
1.000000 0.983653 0.983695
1.000000 1.000000 1.000000
0.925767 1.000000 0.925767
0.925756 1.000000 0.925756
0.925714 1.000000 0.925714
0.925553 1.000000 0.925553
0.924932 1.000000 0.924932
0.922495 1.000000 0.922495
1.000000 1.000000 0.944385
1.000000 1.000000 0.985982
1.000000 1.000000 1.000000
0.993709 1.000000 0.993709
0.993708 1.000000 0.993708
0.993704 1.000000 0.993704
0.993688 1.000000 0.993688
0.993626 1.000000 0.993626
0.993390 1.000000 0.993390
0.992460 1.000000 0.992460
1.000000 1.000000 1.000000
1.000000 1.000000 1.000000
1.000000 1.000000 1.000000
1.000000 1.000000 1.000000
1.000000 1.000000 1.000000
1.000000 1.000000 1.000000
1.000000 1.000000 1.000000
1.000000 1.000000 1.000000
1.000000 1.000000 1.000000
1.000000 1.000000 1.000000
1.000000 1.000000 1.000000
0.019507 0.019495 0.127212
0.211083 0.036039 0.134284
0.528485 0.108365 0.177535
0.772063 0.268898 0.292713
0.928561 0.497290 0.497486
0.994968 0.728006 0.728187
1.000000 0.902481 0.902586
1.000000 0.984718 0.984759
1.000000 1.000000 1.000000
0.031734 0.139455 0.110519
0.108402 0.108386 0.108397
0.511163 0.099098 0.151009
0.768671 0.264351 0.277310
0.928133 0.496315 0.496511
0.994926 0.727772 0.727953
1.000000 0.902446 0.902550
1.000000 0.984714 0.984755
1.000000 1.000000 1.000000
0.118803 0.467459 0.118803
0.115676 0.461040 0.115676
0.439539 0.442269 0.140608
0.755767 0.371270 0.264215
0.926464 0.492550 0.492746
0.994765 0.726877 0.727058
1.000000 0.902310 0.902415
1.000000 0.984700 0.984741
1.000000 1.000000 1.000000
0.307874 0.722873 0.307874
0.306538 0.721539 0.306538
0.301370 0.716339 0.301370
0.699464 0.702246 0.349929
0.920112 0.645506 0.501274
0.994136 0.723415 0.723596
1.000000 0.901792 0.901897
1.000000 0.984647 0.984688
1.000000 1.000000 1.000000
0.544338 0.902615 0.544338
0.543975 0.902422 0.543975
0.542586 0.901678 0.542586
0.537191 0.898756 0.537191
0.889119 0.890833 0.589225
0.991754 0.855700 0.733145
1.000000 0.899776 0.899882
1.000000 0.984444 0.984486
1.000000 1.000000 1.000000
0.770396 0.985080 0.770396
0.770314 0.985061 0.770314
0.770002 0.984986 0.770002
0.768807 0.984699 0.768807
0.764145 0.983567 0.764145
0.979811 0.980493 0.807945
1.000000 0.966325 0.905653
1.000000 0.983653 0.983695
1.000000 1.000000 1.000000
0.925760 1.000000 0.925760
0.925749 1.000000 0.925749
0.925707 1.000000 0.925707
0.925545 1.000000 0.925545
0.924925 1.000000 0.924925
0.922487 1.000000 0.922487
1.000000 1.000000 0.944378
1.000000 1.000000 0.985980
1.000000 1.000000 1.000000
0.993708 1.000000 0.993708
0.993707 1.000000 0.993707
0.993703 1.000000 0.993703
0.993687 1.000000 0.993687
0.993625 1.000000 0.993625
0.993389 1.000000 0.993389
0.992459 1.000000 0.992459
1.000000 1.000000 1.000000
1.000000 1.000000 1.000000
1.000000 1.000000 1.000000
1.000000 1.000000 1.000000
1.000000 1.000000 1.000000
1.000000 1.000000 1.000000
1.000000 1.000000 1.000000
1.000000 1.000000 1.000000
1.000000 1.000000 1.000000
1.000000 1.000000 1.000000
1.000000 1.000000 1.000000
0.108659 0.108601 0.444450
0.209961 0.114686 0.445263
0.528273 0.167410 0.455373
0.772020 0.299724 0.489298
0.928536 0.505971 0.579112
0.994952 0.728647 0.736351
1.000000 0.902462 0.902566
1.000000 0.984716 0.984757
1.000000 1.000000 1.000000
0.107616 0.121330 0.439332
0.106017 0.105960 0.438592
0.510929 0.160224 0.449024
0.768627 0.295812 0.484080
0.928099 0.504703 0.576017
0.994909 0.728329 0.735237
1.000000 0.902426 0.902531
1.000000 0.984712 0.984753
1.000000 1.000000 1.000000
0.170144 0.463489 0.434805
0.167470 0.456883 0.433656
0.436768 0.436734 0.436758
0.755299 0.362131 0.466049
0.926398 0.499791 0.563691
0.994745 0.727112 0.730908
1.000000 0.902291 0.902395
1.000000 0.984698 0.984739
1.000000 1.000000 1.000000
0.317754 0.720747 0.416432
0.316404 0.719385 0.415158
0.311176 0.714072 0.410223
0.697221 0.699457 0.431338
0.919870 0.640745 0.525847
0.994112 0.723282 0.723464
1.000000 0.901773 0.901878
1.000000 0.984645 0.984686
1.000000 1.000000 1.000000
0.543433 0.902131 0.543433
0.543068 0.901936 0.543068
0.541671 0.901186 0.541671
0.536247 0.898239 0.536247
0.888582 0.890222 0.588212
0.991724 0.854699 0.732747
1.000000 0.899756 0.899862
1.000000 0.984442 0.984483
1.000000 1.000000 1.000000
0.770192 0.985032 0.770192
0.770110 0.985012 0.770110
0.769798 0.984937 0.769798
0.768601 0.984649 0.768601
0.763931 0.983514 0.763931
0.979755 0.980430 0.807734
1.000000 0.966216 0.905594
1.000000 0.983651 0.983692
1.000000 1.000000 1.000000
0.925733 1.000000 0.925733
0.925721 1.000000 0.925721
0.925679 1.000000 0.925679
0.925518 1.000000 0.925518
0.924897 1.000000 0.924897
0.922457 1.000000 0.922457
1.000000 1.000000 0.944352
1.000000 1.000000 0.985974
1.000000 1.000000 1.000000
0.993706 1.000000 0.993706
0.993705 1.000000 0.993705
0.993700 1.000000 0.993700
0.993684 1.000000 0.993684
0.993623 1.000000 0.993623
0.993386 1.000000 0.993386
0.992456 1.000000 0.992456
1.000000 1.000000 1.000000
1.000000 1.000000 1.000000
1.000000 1.000000 1.000000
1.000000 1.000000 1.000000
1.000000 1.000000 1.000000
1.000000 1.000000 1.000000
1.000000 1.000000 1.000000
1.000000 1.000000 1.000000
1.000000 1.000000 1.000000
1.000000 1.000000 1.000000
1.000000 1.000000 1.000000
0.287270 0.287155 0.700298
0.287178 0.287063 0.700201
0.527463 0.309875 0.702135
0.771857 0.386357 0.710414
0.928515 0.538311 0.738080
0.994950 0.737293 0.808348
1.000000 0.903072 0.909655
1.000000 0.984708 0.984749
1.000000 1.000000 1.000000
0.286166 0.286051 0.699140
0.286074 0.285959 0.699042
0.510035 0.306157 0.700707
0.768458 0.383868 0.709067
0.928078 0.537258 0.736981
0.994907 0.736996 0.807748
1.000000 0.903024 0.909497
1.000000 0.984705 0.984746
1.000000 1.000000 1.000000
0.304439 0.449511 0.696903
0.302996 0.442351 0.696662
0.428885 0.417215 0.696707
0.754560 0.374071 0.703818
0.926376 0.533190 0.732709
0.994743 0.735855 0.805430
1.000000 0.902842 0.908891
1.000000 0.984691 0.984732
1.000000 1.000000 1.000000
0.393687 0.717909 0.693184
0.392782 0.716518 0.692937
0.389293 0.711093 0.691991
0.695576 0.695543 0.695566
0.919726 0.634984 0.719485
0.994101 0.731419 0.796095
1.000000 0.902140 0.906523
1.000000 0.984638 0.984679
1.000000 1.000000 1.000000
0.558206 0.901175 0.678103
0.557850 0.900975 0.677829
0.556488 0.900208 0.676783
0.551199 0.897194 0.672731
0.887546 0.888865 0.691139
0.991648 0.851997 0.767629
1.000000 0.899678 0.899785
1.000000 0.984435 0.984476
1.000000 1.000000 1.000000
0.769413 0.984844 0.769413
0.769331 0.984825 0.769331
0.769016 0.984749 0.769016
0.767812 0.984458 0.767812
0.763110 0.983313 0.763110
0.979544 0.980190 0.806930
1.000000 0.965798 0.905368
1.000000 0.983643 0.983684
1.000000 1.000000 1.000000
0.925627 1.000000 0.925627
0.925616 1.000000 0.925616
0.925573 1.000000 0.925573
0.925411 1.000000 0.925411
0.924789 1.000000 0.924789
0.922344 1.000000 0.922344
1.000000 1.000000 0.944253
1.000000 1.000000 0.985951
1.000000 1.000000 1.000000
0.993695 1.000000 0.993695
0.993694 1.000000 0.993694
0.993690 1.000000 0.993690
0.993674 1.000000 0.993674
0.993612 1.000000 0.993612
0.993376 1.000000 0.993376
0.992445 1.000000 0.992445
1.000000 1.000000 1.000000
1.000000 1.000000 1.000000
1.000000 1.000000 1.000000
1.000000 1.000000 1.000000
1.000000 1.000000 1.000000
1.000000 1.000000 1.000000
1.000000 1.000000 1.000000
1.000000 1.000000 1.000000
1.000000 1.000000 1.000000
1.000000 1.000000 1.000000
1.000000 1.000000 1.000000
0.521681 0.521554 0.889118
0.521655 0.521528 0.889103
0.524345 0.521571 0.889053
0.771231 0.548731 0.890378
0.928434 0.624817 0.895182
0.994942 0.765756 0.910589
1.000000 0.907986 0.945563
1.000000 0.984972 0.987752
1.000000 1.000000 1.000000
0.521372 0.521245 0.888939
0.521346 0.521219 0.888924
0.521248 0.521121 0.888867
0.767814 0.547740 0.890159
0.927996 0.624184 0.894979
0.994899 0.765518 0.910434
1.000000 0.907942 0.945491
1.000000 0.984967 0.987736
1.000000 1.000000 1.000000
0.520191 0.520064 0.888253
0.520165 0.520038 0.888238
0.520066 0.519939 0.888180
0.753839 0.543913 0.889319
0.926291 0.621751 0.894202
0.994735 0.764609 0.909839
1.000000 0.907774 0.945214
1.000000 0.984948 0.987675
1.000000 1.000000 1.000000
0.544733 0.706541 0.887237
0.544348 0.705033 0.887200
0.542875 0.699143 0.887057
0.689136 0.679608 0.887241
0.919176 0.612143 0.891147
0.994093 0.761082 0.907511
1.000000 0.907131 0.944144
1.000000 0.984877 0.987443
1.000000 1.000000 1.000000
0.632869 0.899580 0.885022
0.632640 0.899375 0.884983
0.631766 0.898587 0.884835
0.628394 0.895488 0.884268
0.886570 0.886550 0.886564
0.991593 0.848133 0.900392
1.000000 0.904612 0.939777
1.000000 0.984602 0.986532
1.000000 1.000000 1.000000
0.782964 0.984498 0.875847
0.782886 0.984478 0.875803
0.782589 0.984400 0.875634
0.781450 0.984103 0.874985
0.777008 0.982932 0.872459
0.979165 0.979685 0.883922
1.000000 0.964718 0.926018
1.000000 0.983612 0.983654
1.000000 1.000000 1.000000
0.925223 1.000000 0.925223
0.925212 1.000000 0.925212
0.925169 1.000000 0.925169
0.925005 1.000000 0.925005
0.924378 1.000000 0.924378
0.921911 1.000000 0.921911
1.000000 1.000000 0.943873
1.000000 1.000000 0.985863
1.000000 1.000000 1.000000
0.993655 1.000000 0.993655
0.993654 1.000000 0.993654
0.993650 1.000000 0.993650
0.993633 1.000000 0.993633
0.993572 1.000000 0.993572
0.993335 1.000000 0.993335
0.992401 1.000000 0.992401
1.000000 1.000000 1.000000
1.000000 1.000000 1.000000
1.000000 1.000000 1.000000
1.000000 1.000000 1.000000
1.000000 1.000000 1.000000
1.000000 1.000000 1.000000
1.000000 1.000000 1.000000
1.000000 1.000000 1.000000
1.000000 1.000000 1.000000
1.000000 1.000000 1.000000
1.000000 1.000000 1.000000
0.750396 0.750282 0.979760
0.750390 0.750276 0.979758
0.750367 0.750253 0.979752
0.768816 0.751167 0.979753
0.928124 0.774666 0.980274
0.994912 0.835116 0.982156
1.000000 0.923420 0.988109
1.000000 0.986886 1.000000
1.000000 1.000000 1.000000
0.750324 0.750210 0.979741
0.750318 0.750204 0.979739
0.750295 0.750181 0.979734
0.765329 0.750900 0.979730
0.927683 0.774446 0.980252
0.994869 0.834994 0.982135
1.000000 0.923387 0.988094
1.000000 0.986882 1.000000
1.000000 1.000000 1.000000
0.750050 0.749936 0.979671
0.750044 0.749930 0.979669
0.750021 0.749907 0.979663
0.751051 0.749876 0.979642
0.925966 0.773603 0.980165
0.994704 0.834526 0.982056
1.000000 0.923263 0.988034
1.000000 0.986865 1.000000
1.000000 1.000000 1.000000
0.749000 0.748886 0.979400
0.748994 0.748880 0.979398
0.748971 0.748857 0.979392
0.748883 0.748769 0.979370
0.918800 0.770335 0.979835
0.994061 0.832724 0.981752
1.000000 0.922786 0.987806
1.000000 0.986799 1.000000
1.000000 1.000000 1.000000
0.771613 0.893087 0.979031
0.771527 0.892858 0.979027
0.771200 0.891981 0.979012
0.769943 0.888526 0.978956
0.882718 0.876916 0.979045
0.991383 0.831573 0.980578
1.000000 0.920927 0.986913
1.000000 0.986550 1.000000
1.000000 1.000000 1.000000
0.841173 0.983880 0.978154
0.841130 0.983859 0.978150
0.840965 0.983780 0.978135
0.840332 0.983474 0.978076
0.837879 0.982267 0.977851
0.978780 0.978772 0.978778
1.000000 0.963091 0.984187
1.000000 0.985569 0.999125
1.000000 1.000000 1.000000
0.932271 1.000000 0.974492
0.932261 1.000000 0.974487
0.932222 1.000000 0.974469
0.932073 1.000000 0.974401
0.931502 1.000000 0.974140
0.929256 1.000000 0.973120
1.000000 1.000000 0.977731
1.000000 1.000000 0.993972
1.000000 1.000000 1.000000
0.993501 1.000000 0.993501
0.993500 1.000000 0.993500
0.993496 1.000000 0.993496
0.993479 1.000000 0.993479
0.993417 1.000000 0.993417
0.993178 1.000000 0.993178
0.992236 1.000000 0.992236
1.000000 1.000000 1.000000
1.000000 1.000000 1.000000
1.000000 1.000000 1.000000
1.000000 1.000000 1.000000
1.000000 1.000000 1.000000
1.000000 1.000000 1.000000
1.000000 1.000000 1.000000
1.000000 1.000000 1.000000
1.000000 1.000000 1.000000
1.000000 1.000000 1.000000
1.000000 1.000000 1.000000
0.915104 0.915042 1.000000
0.915103 0.915041 1.000000
0.915100 0.915038 1.000000
0.915088 0.915026 1.000000
0.926924 0.915648 1.000000
0.994795 0.928029 1.000000
1.000000 0.956794 1.000000
1.000000 0.992824 1.000000
1.000000 1.000000 1.000000
0.915094 0.915032 1.000000
0.915093 0.915031 1.000000
0.915090 0.915028 1.000000
0.915077 0.915015 1.000000
0.926472 0.915610 1.000000
0.994752 0.927999 1.000000
1.000000 0.956780 1.000000
1.000000 0.992821 1.000000
1.000000 1.000000 1.000000
0.915055 0.914993 1.000000
0.915054 0.914992 1.000000
0.915051 0.914988 1.000000
0.915038 0.914976 1.000000
0.924709 0.915465 1.000000
0.994586 0.927886 1.000000
1.000000 0.956725 1.000000
1.000000 0.992808 1.000000
1.000000 1.000000 1.000000
0.914905 0.914843 1.000000
0.914904 0.914842 1.000000
0.914901 0.914839 1.000000
0.914889 0.914826 1.000000
0.917343 0.914907 1.000000
0.993938 0.927454 1.000000
1.000000 0.956518 1.000000
1.000000 0.992761 1.000000
1.000000 1.000000 1.000000
0.914332 0.914269 1.000000
0.914331 0.914268 1.000000
0.914328 0.914265 1.000000
0.914315 0.914253 1.000000
0.914267 0.914204 1.000000
0.991226 0.925770 1.000000
1.000000 0.955716 1.000000
1.000000 0.992579 1.000000
1.000000 1.000000 1.000000
0.926508 0.981351 1.000000
0.926497 0.981328 1.000000
0.926453 0.981238 1.000000
0.926284 0.980894 1.000000
0.925635 0.979535 1.000000
0.977253 0.974936 1.000000
1.000000 0.955978 1.000000
1.000000 0.991868 1.000000
1.000000 1.000000 1.000000
0.959482 1.000000 1.000000
0.959477 1.000000 1.000000
0.959458 1.000000 1.000000
0.959385 1.000000 1.000000
0.959108 1.000000 1.000000
0.958031 1.000000 1.000000
1.000000 1.000000 1.000000
1.000000 1.000000 1.000000
1.000000 1.000000 1.000000
0.996191 1.000000 1.000000
0.996190 1.000000 1.000000
0.996186 1.000000 1.000000
0.996171 1.000000 1.000000
0.996115 1.000000 1.000000
0.995899 1.000000 1.000000
0.995048 1.000000 1.000000
1.000000 1.000000 1.000000
1.000000 1.000000 1.000000
1.000000 1.000000 1.000000
1.000000 1.000000 1.000000
1.000000 1.000000 1.000000
1.000000 1.000000 1.000000
1.000000 1.000000 1.000000
1.000000 1.000000 1.000000
1.000000 1.000000 1.000000
1.000000 1.000000 1.000000
1.000000 1.000000 1.000000
0.989625 0.989601 1.000000
0.989625 0.989601 1.000000
0.989625 0.989601 1.000000
0.989624 0.989600 1.000000
0.989619 0.989595 1.000000
0.994344 0.989847 1.000000
1.000000 0.994578 1.000000
1.000000 1.000000 1.000000
1.000000 1.000000 1.000000
0.989624 0.989600 1.000000
0.989624 0.989600 1.000000
0.989624 0.989600 1.000000
0.989623 0.989599 1.000000
0.989618 0.989594 1.000000
0.994299 0.989843 1.000000
1.000000 0.994575 1.000000
1.000000 1.000000 1.000000
1.000000 1.000000 1.000000
0.989620 0.989596 1.000000
0.989620 0.989596 1.000000
0.989620 0.989596 1.000000
0.989619 0.989595 1.000000
0.989614 0.989590 1.000000
0.994129 0.989829 1.000000
1.000000 0.994564 1.000000
1.000000 1.000000 1.000000
1.000000 1.000000 1.000000
0.989605 0.989581 1.000000
0.989605 0.989581 1.000000
0.989605 0.989581 1.000000
0.989604 0.989580 1.000000
0.989599 0.989575 1.000000
0.993464 0.989773 1.000000
1.000000 0.994521 1.000000
1.000000 1.000000 1.000000
1.000000 1.000000 1.000000
0.989548 0.989524 1.000000
0.989547 0.989523 1.000000
0.989547 0.989523 1.000000
0.989546 0.989522 1.000000
0.989541 0.989517 1.000000
0.990672 0.989558 1.000000
1.000000 0.994357 1.000000
1.000000 1.000000 1.000000
1.000000 1.000000 1.000000
0.989327 0.989302 1.000000
0.989327 0.989302 1.000000
0.989326 0.989302 1.000000
0.989325 0.989301 1.000000
0.989320 0.989296 1.000000
0.989301 0.989277 1.000000
1.000000 0.993716 1.000000
1.000000 1.000000 1.000000
1.000000 1.000000 1.000000
0.994005 1.000000 1.000000
0.994004 1.000000 1.000000
0.994000 1.000000 1.000000
0.993983 1.000000 1.000000
0.993918 1.000000 1.000000
0.993672 1.000000 1.000000
1.000000 1.000000 1.000000
1.000000 1.000000 1.000000
1.000000 1.000000 1.000000
1.000000 1.000000 1.000000
1.000000 1.000000 1.000000
1.000000 1.000000 1.000000
1.000000 1.000000 1.000000
1.000000 1.000000 1.000000
1.000000 1.000000 1.000000
1.000000 1.000000 1.000000
1.000000 1.000000 1.000000
1.000000 1.000000 1.000000
1.000000 1.000000 1.000000
1.000000 1.000000 1.000000
1.000000 1.000000 1.000000
1.000000 1.000000 1.000000
1.000000 1.000000 1.000000
1.000000 1.000000 1.000000
1.000000 1.000000 1.000000
1.000000 1.000000 1.000000
1.000000 1.000000 1.000000
1.000000 1.000000 1.000000
1.000000 1.000000 1.000000
1.000000 1.000000 1.000000
1.000000 1.000000 1.000000
1.000000 1.000000 1.000000
1.000000 1.000000 1.000000
1.000000 1.000000 1.000000
1.000000 1.000000 1.000000
1.000000 1.000000 1.000000
1.000000 1.000000 1.000000
1.000000 1.000000 1.000000
1.000000 1.000000 1.000000
1.000000 1.000000 1.000000
1.000000 1.000000 1.000000
1.000000 1.000000 1.000000
1.000000 1.000000 1.000000
1.000000 1.000000 1.000000
1.000000 1.000000 1.000000
1.000000 1.000000 1.000000
1.000000 1.000000 1.000000
1.000000 1.000000 1.000000
1.000000 1.000000 1.000000
1.000000 1.000000 1.000000
1.000000 1.000000 1.000000
1.000000 1.000000 1.000000
1.000000 1.000000 1.000000
1.000000 1.000000 1.000000
1.000000 1.000000 1.000000
1.000000 1.000000 1.000000
1.000000 1.000000 1.000000
1.000000 1.000000 1.000000
1.000000 1.000000 1.000000
1.000000 1.000000 1.000000
1.000000 1.000000 1.000000
1.000000 1.000000 1.000000
1.000000 1.000000 1.000000
1.000000 1.000000 1.000000
1.000000 1.000000 1.000000
1.000000 1.000000 1.000000
1.000000 1.000000 1.000000
1.000000 1.000000 1.000000
1.000000 1.000000 1.000000
1.000000 1.000000 1.000000
1.000000 1.000000 1.000000
1.000000 1.000000 1.000000
1.000000 1.000000 1.000000
1.000000 1.000000 1.000000
1.000000 1.000000 1.000000
1.000000 1.000000 1.000000
1.000000 1.000000 1.000000
1.000000 1.000000 1.000000
1.000000 1.000000 1.000000
1.000000 1.000000 1.000000
1.000000 1.000000 1.000000
1.000000 1.000000 1.000000
1.000000 1.000000 1.000000
1.000000 1.000000 1.000000
1.000000 1.000000 1.000000
1.000000 1.000000 1.000000
1.000000 1.000000 1.000000
1.000000 1.000000 1.000000
1.000000 1.000000 1.000000
1.000000 1.000000 1.000000
1.000000 1.000000 1.000000
1.000000 1.000000 1.000000
1.000000 1.000000 1.000000
1.000000 1.000000 1.000000
1.000000 1.000000 1.000000
1.000000 1.000000 1.000000
1.000000 1.000000 1.000000
1.000000 1.000000 1.000000
1.000000 1.000000 1.000000
1.000000 1.000000 1.000000
1.000000 1.000000 1.000000
1.000000 1.000000 1.000000
1.000000 1.000000 1.000000
1.000000 1.000000 1.000000
1.000000 1.000000 1.000000
1.000000 1.000000 1.000000
1.000000 1.000000 1.000000
1.000000 1.000000 1.000000
