Assets/Data/Textures/70 CGC LUTs/LUTs_AgX_Filmic_ViewTransforms/ARRILogC4AWG4-to-AgX-NR2383-sRGB.cube
#  Baked from the PixelManager OCIO config by Joe Genco
#  https://github.com/Joegenco/PixelManager
#  Input Gamma: Arri LogC4
#  Input Color Space: Arri Wide Gamut 4
#  floating point data (range 0.0 - 1.0)   
#       
#  Output Gamma: Gamma 2.2 (Display)
#  Output Color Space: Rec.709
#  floating point data (range 0.0 - 1.0)
LUT_3D_SIZE 9
0.000000 0.000000 0.000000
0.077272 0.000000 0.000000
0.441595 0.000000 0.000000
0.770797 0.171830 0.160462
0.932812 0.526776 0.523731
0.996249 0.784076 0.785291
1.008329 0.927445 0.928015
1.001175 0.989245 0.991893
1.000266 0.996383 1.000217
0.000000 0.064286 0.031421
0.066545 0.060955 0.010554
0.453443 0.000000 0.000000
0.775790 0.176362 0.151901
0.932702 0.526849 0.525241
0.996230 0.784083 0.785516
1.008328 0.927446 0.928040
1.001175 0.989245 0.991897
1.000266 0.996384 1.000217
0.000000 0.378389 0.184251
0.000000 0.375781 0.163411
0.401885 0.368643 0.050097
0.799762 0.360809 0.000000
0.945394 0.551468 0.476370
0.997429 0.787665 0.784397
1.008324 0.927448 0.928136
1.001174 0.989247 0.991911
1.000266 0.996385 1.000217
0.000000 0.716684 0.514588
0.000000 0.716566 0.516620
0.000000 0.720104 0.402312
0.730516 0.708447 0.335231
0.948854 0.707488 0.431569
1.005211 0.808469 0.759070
1.008201 0.929710 0.927283
1.001171 0.989253 0.991965
1.000266 0.996391 1.000217
0.402272 0.897185 0.783552
0.402349 0.897157 0.783867
0.402908 0.898209 0.779527
0.401291 0.907966 0.705630
0.904162 0.895515 0.671705
1.005916 0.894244 0.742483
1.008006 0.939603 0.914827
1.001072 0.990733 0.991677
1.000264 0.996413 1.000216
0.730744 0.981919 0.928362
0.730756 0.981916 0.928396
0.730799 0.981902 0.928522
0.731049 0.982606 0.925526
0.728904 0.987491 0.891588
0.982566 0.978847 0.873689
1.005382 0.979419 0.908432
1.000894 0.996615 0.985563
1.000000 1.000000 1.000000
0.903175 1.005649 0.994578
0.903177 1.005649 0.994584
0.903184 1.005647 0.994603
0.903210 1.005640 0.994678
0.903370 1.005750 0.993186
0.902040 1.007203 0.975482
1.001150 1.002339 0.969493
1.000631 1.001285 0.983392
1.000000 1.000000 1.000000
0.978549 1.001157 1.000702
0.978549 1.001157 1.000702
0.978551 1.001157 1.000702
0.978555 1.001157 1.000702
0.978572 1.001156 1.000702
0.978651 1.001152 1.000699
0.977451 1.001216 1.000738
1.000000 1.000000 1.000000
1.000000 1.000000 1.000000
0.981534 1.000998 1.000606
0.981535 1.000998 1.000606
0.981536 1.000998 1.000606
0.981540 1.000998 1.000606
0.981557 1.000997 1.000605
0.981622 1.000994 1.000603
0.982374 1.000953 1.000579
1.000000 1.000000 1.000000
1.000000 1.000000 1.000000
0.000000 0.004396 0.029776
0.077838 0.009289 0.048755
0.432875 0.000000 0.068773
0.767740 0.183699 0.233175
0.931907 0.529010 0.542464
0.996078 0.784368 0.788067
1.008314 0.927479 0.928333
1.001173 0.989250 0.991939
1.000266 0.996388 1.000217
0.000000 0.074353 0.068464
0.064625 0.064625 0.064631
0.476767 0.000000 0.000000
0.774103 0.189417 0.226783
0.931800 0.529092 0.543841
0.996060 0.784374 0.788281
1.008313 0.927480 0.928358
1.001173 0.989250 0.991942
1.000266 0.996389 1.000217
0.000000 0.383131 0.228105
0.000000 0.380163 0.214254
0.393167 0.360210 0.046498
0.812419 0.333222 0.000000
0.944505 0.554023 0.503996
0.997294 0.788055 0.787221
1.008309 0.927482 0.928452
1.001172 0.989252 0.991956
1.000266 0.996390 1.000217
0.000000 0.716870 0.534174
0.000000 0.716758 0.536064
0.000000 0.719987 0.437088
0.729848 0.707785 0.334323
0.950666 0.704104 0.430660
1.005034 0.808752 0.763358
1.008185 0.929755 0.927610
1.001169 0.989258 0.992010
1.000265 0.996396 1.000217
0.403466 0.897097 0.786570
0.403529 0.897071 0.786834
0.404074 0.898164 0.782347
0.402818 0.907602 0.714114
0.904170 0.895617 0.671912
1.006168 0.893903 0.742449
1.007986 0.939630 0.915294
1.001070 0.990740 0.991724
1.000264 0.996418 1.000215
0.730934 0.981903 0.928704
0.730945 0.981900 0.928736
0.730986 0.981886 0.928856
0.731232 0.982594 0.925851
0.729146 0.987436 0.892501
0.982579 0.978858 0.873716
1.005384 0.979387 0.908439
1.000890 0.996619 0.985636
1.000000 1.000000 1.000000
0.903202 1.005644 0.994631
0.903204 1.005643 0.994637
0.903211 1.005641 0.994656
0.903237 1.005634 0.994729
0.903398 1.005744 0.993240
0.902063 1.007195 0.975569
1.001150 1.002339 0.969497
1.000631 1.001285 0.983392
1.000000 1.000000 1.000000
0.978552 1.001157 1.000702
0.978552 1.001157 1.000702
0.978553 1.001157 1.000702
0.978558 1.001157 1.000702
0.978575 1.001156 1.000702
0.978655 1.001152 1.000699
0.977457 1.001216 1.000738
1.000000 1.000000 1.000000
1.000000 1.000000 1.000000
0.981537 1.000998 1.000606
0.981537 1.000998 1.000606
0.981539 1.000998 1.000606
0.981543 1.000998 1.000605
0.981560 1.000997 1.000605
0.981625 1.000993 1.000603
0.982377 1.000953 1.000578
1.000000 1.000000 1.000000
1.000000 1.000000 1.000000
0.000000 0.032281 0.198522
0.081151 0.041591 0.221596
0.404575 0.047159 0.290735
0.756855 0.220214 0.397837
0.928888 0.537203 0.597302
0.995480 0.785472 0.797548
1.008258 0.927607 0.929496
1.001164 0.989269 0.992109
1.000265 0.996407 1.000216
0.000000 0.113292 0.263207
0.000000 0.061465 0.348178
0.447199 0.067755 0.330529
0.767796 0.231228 0.400677
0.929254 0.538208 0.597809
0.995463 0.785478 0.797728
1.008257 0.927608 0.929518
1.001164 0.989269 0.992113
1.000265 0.996407 1.000216
0.000000 0.401052 0.393341
0.000000 0.395647 0.389659
0.372568 0.372568 0.372598
0.811326 0.338449 0.370604
0.941697 0.563137 0.578186
0.996824 0.789505 0.796876
1.008254 0.927610 0.929605
1.001163 0.989271 0.992127
1.000265 0.996409 1.000216
0.000000 0.717945 0.593960
0.000000 0.717943 0.593479
0.000000 0.719853 0.541709
0.725881 0.705319 0.413398
0.952800 0.696424 0.474448
1.004430 0.809874 0.777786
1.008126 0.929926 0.928790
1.001160 0.989277 0.992180
1.000264 0.996415 1.000216
0.407914 0.896814 0.797083
0.407996 0.896787 0.797372
0.408790 0.897968 0.793339
0.408259 0.906549 0.739681
0.904567 0.895950 0.672698
1.006891 0.892988 0.742469
1.007910 0.939736 0.917015
1.001060 0.990766 0.991903
1.000262 0.996437 1.000214
0.731692 0.981838 0.930061
0.731707 0.981834 0.930100
0.731760 0.981819 0.930244
0.732084 0.982522 0.927434
0.730024 0.987251 0.895667
0.982627 0.978898 0.873817
1.005392 0.979267 0.908469
1.000877 0.996635 0.985907
1.000000 1.000000 1.000000
0.903307 1.005623 0.994828
0.903308 1.005622 0.994833
0.903315 1.005621 0.994852
0.903340 1.005614 0.994922
0.903502 1.005723 0.993438
0.902152 1.007166 0.975892
1.001149 1.002338 0.969510
1.000631 1.001285 0.983391
1.000000 1.000000 1.000000
0.978563 1.001157 1.000702
0.978563 1.001157 1.000702
0.978565 1.001157 1.000702
0.978569 1.001156 1.000702
0.978587 1.001155 1.000701
0.978671 1.001151 1.000698
0.977477 1.001214 1.000737
1.000000 1.000000 1.000000
1.000000 1.000000 1.000000
0.981548 1.000998 1.000605
0.981549 1.000997 1.000605
0.981550 1.000997 1.000605
0.981554 1.000997 1.000605
0.981572 1.000996 1.000605
0.981636 1.000993 1.000602
0.982391 1.000952 1.000578
1.000000 1.000000 1.000000
1.000000 1.000000 1.000000
0.000000 0.159661 0.545789
0.092733 0.174725 0.557666
0.397877 0.214117 0.586469
0.735905 0.331273 0.633114
0.919758 0.567027 0.712592
0.993386 0.789804 0.826567
1.008052 0.928105 0.933760
1.001131 0.989342 0.992741
1.000260 0.996478 1.000212
0.000000 0.234858 0.586629
0.000000 0.233680 0.632252
0.408115 0.258087 0.635164
0.750291 0.352872 0.650540
0.922814 0.573802 0.715026
0.993371 0.789813 0.826693
1.008051 0.928106 0.933785
1.001130 0.989342 0.992744
1.000260 0.996478 1.000212
0.000000 0.458908 0.637522
0.000000 0.452134 0.653661
0.286938 0.429736 0.712970
0.790263 0.418691 0.700340
0.933641 0.597507 0.721264
0.995196 0.795190 0.827050
1.008047 0.928109 0.933877
1.001130 0.989344 0.992758
1.000259 0.996480 1.000212
0.000000 0.725184 0.716539
0.000000 0.725384 0.716765
0.000000 0.725671 0.716888
0.708043 0.708043 0.708067
0.946585 0.698826 0.713909
1.002338 0.814624 0.820574
1.007897 0.930584 0.933329
1.001127 0.989350 0.992808
1.000259 0.996485 1.000211
0.424543 0.896184 0.829107
0.424608 0.896164 0.829279
0.426244 0.897646 0.826516
0.428912 0.904206 0.803498
0.901947 0.893397 0.742635
1.007495 0.888864 0.774185
1.007571 0.940207 0.924690
1.001024 0.990863 0.992564
1.000257 0.996507 1.000210
0.734566 0.981610 0.934932
0.734578 0.981607 0.934963
0.734625 0.981593 0.935080
0.735071 0.982329 0.932497
0.733512 0.986635 0.906631
0.982808 0.979046 0.874194
1.005436 0.978708 0.908395
1.000829 0.996697 0.986907
1.000000 1.000000 1.000000
0.903676 1.005550 0.995507
0.903678 1.005550 0.995512
0.903683 1.005548 0.995527
0.903704 1.005543 0.995587
0.903864 1.005653 0.994098
0.902781 1.006961 0.978131
1.001147 1.002334 0.969559
1.000632 1.001286 0.983386
1.000000 1.000000 1.000000
0.978613 1.001154 1.000700
0.978614 1.001154 1.000700
0.978615 1.001154 1.000700
0.978621 1.001154 1.000700
0.978643 1.001152 1.000699
0.978729 1.001148 1.000697
0.977555 1.001210 1.000735
1.000000 1.000000 1.000000
1.000000 1.000000 1.000000
0.981591 1.000995 1.000604
0.981591 1.000995 1.000604
0.981593 1.000995 1.000604
0.981597 1.000995 1.000604
0.981614 1.000994 1.000603
0.981678 1.000991 1.000601
0.982444 1.000950 1.000576
1.000000 1.000000 1.000000
1.000000 1.000000 1.000000
0.000000 0.515542 0.833179
0.196702 0.518227 0.833619
0.439241 0.528159 0.834946
0.721730 0.564005 0.839050
0.905769 0.661963 0.850903
0.988479 0.808561 0.885513
1.007377 0.930092 0.946898
1.001015 0.989616 0.994902
1.000240 0.996737 1.000196
0.071647 0.537591 0.844629
0.083650 0.543026 0.847391
0.421448 0.549332 0.846775
0.726162 0.578182 0.846973
0.908019 0.667613 0.853980
0.988990 0.810074 0.886186
1.007376 0.930093 0.946915
1.001015 0.989616 0.994905
1.000240 0.996737 1.000196
0.121223 0.607996 0.849959
0.138532 0.607071 0.857606
0.210436 0.625373 0.886629
0.736321 0.625823 0.872753
0.916147 0.688372 0.865200
0.990854 0.815557 0.888548
1.007357 0.930322 0.946990
1.001014 0.989618 0.994916
1.000240 0.996738 1.000196
0.246119 0.757842 0.859922
0.251574 0.758662 0.863083
0.273969 0.760746 0.876269
0.658840 0.751265 0.898795
0.933977 0.742781 0.891128
0.997049 0.833008 0.894824
1.007150 0.933181 0.947182
1.001012 0.989624 0.994959
1.000240 0.996744 1.000196
0.479525 0.898220 0.891043
0.480482 0.898532 0.891359
0.484113 0.899703 0.892573
0.497461 0.903944 0.897028
0.892394 0.892394 0.892406
1.002925 0.888951 0.895568
1.006629 0.942258 0.944338
1.000897 0.991223 0.994819
1.000238 0.996764 1.000195
0.744676 0.981056 0.949185
0.744686 0.981054 0.949205
0.744829 0.981131 0.949105
0.745754 0.981863 0.947647
0.746633 0.985064 0.936075
0.981271 0.977377 0.908902
1.004950 0.976767 0.924242
1.000647 0.996961 0.990602
1.000000 1.000000 1.000000
0.905008 1.005299 0.997814
0.905009 1.005299 0.997817
0.905014 1.005298 0.997831
0.905033 1.005293 0.997882
0.905255 1.005389 0.996534
0.904489 1.006437 0.983744
1.001143 1.002327 0.969663
1.000639 1.001300 0.983193
1.000000 1.000000 1.000000
0.978813 1.001143 1.000694
0.978814 1.001143 1.000694
0.978815 1.001143 1.000694
0.978820 1.001143 1.000694
0.978840 1.001142 1.000693
0.978930 1.001137 1.000690
0.977830 1.001196 1.000726
1.000000 1.000000 1.000000
1.000000 1.000000 1.000000
0.981750 1.000987 1.000599
0.981751 1.000987 1.000599
0.981752 1.000987 1.000599
0.981756 1.000986 1.000599
0.981772 1.000986 1.000598
0.981834 1.000982 1.000596
0.982640 1.000939 1.000570
1.000000 1.000000 1.000000
1.000000 1.000000 1.000000
0.452320 0.781392 0.951155
0.462234 0.781335 0.951052
0.561726 0.780252 0.949611
0.725170 0.781612 0.947124
0.886052 0.798844 0.945238
0.980889 0.861614 0.954075
1.005606 0.939050 0.974131
1.000674 0.990822 1.000550
1.000172 0.997664 1.000141
0.461386 0.786434 0.953097
0.461550 0.786525 0.953132
0.550541 0.785385 0.951820
0.724163 0.785806 0.948930
0.887108 0.801851 0.946611
0.981250 0.862572 0.954554
1.005587 0.939263 0.974231
1.000674 0.990822 1.000550
1.000172 0.997664 1.000141
0.478527 0.795814 0.956694
0.487256 0.800515 0.958489
0.494827 0.804552 0.960027
0.715619 0.801441 0.955701
0.891781 0.813410 0.951792
0.982696 0.866467 0.956520
1.005525 0.939949 0.974544
1.000674 0.990824 1.000550
1.000172 0.997666 1.000140
0.504094 0.832747 0.955641
0.508529 0.833473 0.957000
0.525840 0.836146 0.962196
0.596711 0.855580 0.979264
0.902630 0.848420 0.967681
0.987357 0.878910 0.962793
1.005299 0.942471 0.975656
1.000656 0.991072 1.000535
1.000172 0.997671 1.000140
0.613182 0.913651 0.961320
0.614455 0.913846 0.961773
0.619194 0.914573 0.963440
0.640240 0.917329 0.970850
0.870146 0.912828 0.980119
0.996727 0.908700 0.976474
1.004590 0.950605 0.978696
1.000524 0.992869 1.000428
1.000170 0.997690 1.000139
0.776532 0.981387 0.977279
0.776695 0.981425 0.977329
0.777178 0.981554 0.977447
0.779242 0.982059 0.978038
0.786577 0.983900 0.980051
0.976727 0.976727 0.976733
1.002667 0.976708 0.979156
1.000127 0.998281 1.000103
1.000000 1.000000 1.000000
0.909773 1.004657 1.002828
0.909774 1.004657 1.002828
0.909778 1.004656 1.002828
0.909864 1.004652 1.002826
0.910279 1.004632 1.002813
0.910771 1.004962 0.998381
1.000525 1.001069 0.986206
1.000117 1.000238 0.996956
1.000000 1.000000 1.000000
0.979505 1.001107 1.000672
0.979505 1.001107 1.000672
0.979506 1.001107 1.000672
0.979511 1.001106 1.000671
0.979530 1.001105 1.000671
0.979674 1.001098 1.000666
0.978937 1.001137 1.000690
1.000000 1.000000 1.000000
1.000000 1.000000 1.000000
0.982311 1.000957 1.000581
0.982312 1.000957 1.000581
0.982313 1.000957 1.000581
0.982316 1.000956 1.000580
0.982331 1.000956 1.000580
0.982386 1.000953 1.000578
0.983339 1.000902 1.000547
1.000000 1.000000 1.000000
1.000000 1.000000 1.000000
0.741559 0.920192 1.003585
0.741700 0.920252 1.003608
0.759474 0.919951 1.003286
0.807419 0.919498 1.002465
0.895023 0.921203 1.001286
0.973823 0.933443 1.001918
1.002625 0.963609 1.002143
1.000221 0.997007 1.000180
1.000000 1.000000 1.000000
0.743491 0.921012 1.003899
0.743632 0.921072 1.003921
0.757486 0.920886 1.003691
0.806691 0.920304 1.002810
0.895118 0.921861 1.001572
0.973992 0.933855 1.002113
1.002614 0.963765 1.002134
1.000218 0.997043 1.000178
1.000000 1.000000 1.000000
0.751067 0.924224 1.005128
0.751204 0.924282 1.005150
0.751706 0.924495 1.005231
0.799837 0.923823 1.004367
0.895267 0.924352 1.002661
0.974608 0.935358 1.002824
1.002574 0.964333 1.002101
1.000209 0.997170 1.000170
1.000000 1.000000 1.000000
0.765895 0.930483 1.007533
0.767326 0.931086 1.007765
0.772554 0.933284 1.008614
0.777836 0.935501 1.009472
0.892581 0.933556 1.006767
0.976774 0.940477 1.004442
1.002446 0.966140 1.001997
1.000175 0.997631 1.000142
1.000000 1.000000 1.000000
0.789746 0.950838 1.008274
0.790457 0.950931 1.008459
0.793074 0.951276 1.009138
0.802050 0.952665 1.009247
0.838678 0.961663 1.007667
0.982152 0.957392 1.003255
1.001994 0.972522 1.001627
1.000053 0.999288 1.000043
1.000000 1.000000 1.000000
0.846404 0.987797 1.005856
0.846555 0.987824 1.005849
0.847103 0.987920 1.005827
0.849724 0.988330 1.005724
0.859918 0.989792 1.005326
0.967157 0.987639 1.001950
1.000950 0.987036 1.000775
1.000000 1.000000 1.000000
1.000000 1.000000 1.000000
0.925251 1.003897 1.002367
0.925270 1.003896 1.002366
0.925326 1.003893 1.002364
0.925591 1.003880 1.002356
0.926512 1.003834 1.002329
0.929995 1.003661 1.002223
1.000000 1.000000 1.000000
1.000000 1.000000 1.000000
1.000000 1.000000 1.000000
0.981909 1.000978 1.000594
0.981909 1.000978 1.000594
0.981910 1.000978 1.000594
0.981914 1.000978 1.000593
0.981984 1.000974 1.000591
0.982318 1.000956 1.000580
0.982585 1.000942 1.000572
1.000000 1.000000 1.000000
1.000000 1.000000 1.000000
0.984363 1.000847 1.000514
0.984364 1.000847 1.000514
0.984365 1.000847 1.000514
0.984368 1.000847 1.000514
0.984381 1.000846 1.000513
0.984431 1.000843 1.000512
0.986005 1.000759 1.000460
1.000000 1.000000 1.000000
1.000000 1.000000 1.000000
0.908288 0.992080 1.003664
0.908311 0.992090 1.003663
0.908397 0.992128 1.003658
0.915020 0.991947 1.003453
0.941000 0.991303 1.002626
0.980393 0.992078 1.001205
1.000084 0.998866 1.000068
1.000000 1.000000 1.000000
1.000000 1.000000 1.000000
0.908536 0.992190 1.003649
0.908559 0.992200 1.003648
0.908645 0.992238 1.003643
0.914697 0.992078 1.003455
0.940893 0.991413 1.002622
0.980406 0.992165 1.001199
1.000080 0.998920 1.000065
1.000000 1.000000 1.000000
1.000000 1.000000 1.000000
0.909467 0.992605 1.003593
0.909490 0.992615 1.003592
0.909575 0.992654 1.003587
0.913447 0.992573 1.003465
0.940282 0.991874 1.002615
0.980453 0.992493 1.001177
1.000065 0.999120 1.000053
1.000000 1.000000 1.000000
1.000000 1.000000 1.000000
0.912843 0.994113 1.003389
0.912865 0.994123 1.003388
0.912950 0.994161 1.003383
0.913082 0.994220 1.003375
0.937828 0.993558 1.002593
0.980580 0.993711 1.001097
1.000011 0.999851 1.000009
1.000000 1.000000 1.000000
1.000000 1.000000 1.000000
0.918873 0.996818 1.003022
0.919028 0.996888 1.003013
0.919612 0.997151 1.002977
0.922300 0.998362 1.002813
0.924750 0.999470 1.002662
0.979574 0.998343 1.000843
1.000000 1.000000 1.000000
1.000000 1.000000 1.000000
1.000000 1.000000 1.000000
0.929697 1.003676 1.002232
0.929776 1.003672 1.002230
0.930076 1.003657 1.002221
0.931260 1.003598 1.002185
0.935700 1.003375 1.002049
0.953573 1.002465 1.001497
1.000000 1.000000 1.000000
1.000000 1.000000 1.000000
1.000000 1.000000 1.000000
0.957073 1.002285 1.001387
0.957089 1.002284 1.001386
0.957150 1.002281 1.001384
0.957506 1.002262 1.001373
0.958707 1.002200 1.001335
0.963226 1.001965 1.001193
1.000000 1.000000 1.000000
1.000000 1.000000 1.000000
1.000000 1.000000 1.000000
0.988350 1.000633 1.000384
0.988353 1.000632 1.000384
0.988364 1.000632 1.000383
0.988403 1.000630 1.000382
0.988580 1.000620 1.000376
0.989204 1.000587 1.000356
0.991507 1.000462 1.000280
1.000000 1.000000 1.000000
1.000000 1.000000 1.000000
0.987767 1.000664 1.000403
0.987767 1.000664 1.000403
0.987767 1.000664 1.000403
0.987767 1.000664 1.000403
0.987767 1.000664 1.000403
0.988215 1.000640 1.000388
0.990568 1.000513 1.000311
1.000000 1.000000 1.000000
1.000000 1.000000 1.000000
1.000000 1.000000 1.000000
1.000000 1.000000 1.000000
1.000000 1.000000 1.000000
1.000000 1.000000 1.000000
1.000000 1.000000 1.000000
1.000000 1.000000 1.000000
1.000000 1.000000 1.000000
1.000000 1.000000 1.000000
1.000000 1.000000 1.000000
1.000000 1.000000 1.000000
1.000000 1.000000 1.000000
1.000000 1.000000 1.000000
1.000000 1.000000 1.000000
1.000000 1.000000 1.000000
1.000000 1.000000 1.000000
1.000000 1.000000 1.000000
1.000000 1.000000 1.000000
1.000000 1.000000 1.000000
1.000000 1.000000 1.000000
1.000000 1.000000 1.000000
1.000000 1.000000 1.000000
1.000000 1.000000 1.000000
1.000000 1.000000 1.000000
1.000000 1.000000 1.000000
1.000000 1.000000 1.000000
1.000000 1.000000 1.000000
1.000000 1.000000 1.000000
1.000000 1.000000 1.000000
1.000000 1.000000 1.000000
1.000000 1.000000 1.000000
1.000000 1.000000 1.000000
1.000000 1.000000 1.000000
1.000000 1.000000 1.000000
1.000000 1.000000 1.000000
1.000000 1.000000 1.000000
1.000000 1.000000 1.000000
1.000000 1.000000 1.000000
1.000000 1.000000 1.000000
1.000000 1.000000 1.000000
1.000000 1.000000 1.000000
1.000000 1.000000 1.000000
1.000000 1.000000 1.000000
1.000000 1.000000 1.000000
1.000000 1.000000 1.000000
1.000000 1.000000 1.000000
1.000000 1.000000 1.000000
1.000000 1.000000 1.000000
1.000000 1.000000 1.000000
1.000000 1.000000 1.000000
1.000000 1.000000 1.000000
1.000000 1.000000 1.000000
1.000000 1.000000 1.000000
1.000000 1.000000 1.000000
1.000000 1.000000 1.000000
0.985902 1.000764 1.000464
0.986001 1.000759 1.000461
0.986379 1.000739 1.000448
0.987765 1.000664 1.000403
0.992407 1.000413 1.000251
1.000000 1.000000 1.000000
1.000000 1.000000 1.000000
1.000000 1.000000 1.000000
1.000000 1.000000 1.000000
0.990840 1.000498 1.000302
0.990843 1.000498 1.000302
0.990855 1.000497 1.000302
0.990901 1.000495 1.000300
0.991071 1.000486 1.000295
0.991642 1.000455 1.000276
1.000000 1.000000 1.000000
1.000000 1.000000 1.000000
1.000000 1.000000 1.000000
0.989921 1.000548 1.000332
0.989924 1.000548 1.000332
0.989937 1.000547 1.000332
0.989983 1.000544 1.000330
0.990152 1.000535 1.000325
0.990702 1.000506 1.000307
1.000000 1.000000 1.000000
1.000000 1.000000 1.000000
1.000000 1.000000 1.000000
