Assets/Data/Textures/70 CGC LUTs/LUTs_AgX_Filmic_ViewTransforms/ARRILogC4AWG4-to-AgX-Resolve-Bombastic-sRGB.cube
#  Baked from the PixelManager OCIO config by Joe Genco
#  https://github.com/Joegenco/PixelManager
#  Input Gamma: Arri LogC4
#  Input Color Space: Arri Wide Gamut 4
#  floating point data (range 0.0 - 1.0)   
#       
#  Output Gamma: Gamma 2.2 (Display)
#  Output Color Space: Rec.709
#  floating point data (range 0.0 - 1.0)
LUT_3D_SIZE 9
0.000000 0.000000 0.000000
0.056967 0.000000 0.000000
0.429661 0.000000 0.000000
0.955257 0.000000 0.127555
1.072633 0.605090 0.617153
1.034551 0.873857 0.876389
1.020385 0.957796 0.958869
1.019557 0.965089 0.966047
1.019557 0.965089 0.966047
0.000000 0.032295 0.000000
0.043254 0.033216 0.000000
0.419879 0.000000 0.000000
0.953717 0.000000 0.124730
1.072679 0.604534 0.616628
1.034560 0.873809 0.876341
1.020385 0.957792 0.958865
1.019557 0.965089 0.966047
1.019557 0.965089 0.966047
0.000000 0.282650 0.000000
0.000000 0.281704 0.000000
0.319224 0.297956 0.000000
0.919594 0.323246 0.000000
1.072855 0.602405 0.614616
1.034595 0.873625 0.876161
1.020387 0.957777 0.958850
1.019557 0.965089 0.966047
1.019557 0.965089 0.966047
0.000000 0.778039 0.000000
0.000000 0.776575 0.000000
0.000000 0.777702 0.000000
0.736310 0.772443 0.000000
1.003249 0.781752 0.583431
1.034730 0.872920 0.875470
1.020393 0.957720 0.958794
1.019557 0.965089 0.966047
1.019557 0.965089 0.966047
0.000000 0.983518 0.521836
0.000000 0.983463 0.521120
0.000000 0.983253 0.518371
0.448984 0.963705 0.549859
0.911194 0.936442 0.701017
1.003662 0.930119 0.870251
1.020418 0.957503 0.958581
1.019557 0.965089 0.966047
1.019557 0.965089 0.966047
0.560616 1.003021 0.862150
0.560459 1.003022 0.862108
0.559860 1.003022 0.861948
0.557563 1.003025 0.861337
0.846620 0.990013 0.866756
0.971282 0.979874 0.905766
1.008400 0.977697 0.956753
1.019557 0.965089 0.966047
1.019557 0.965089 0.966047
0.867876 1.006855 0.952891
0.867866 1.006854 0.952888
0.867827 1.006853 0.952873
0.867679 1.006850 0.952818
0.867112 1.006837 0.952607
0.947458 1.001978 0.954405
0.994745 0.998109 0.968104
1.002324 0.994553 0.969680
1.019557 0.965089 0.966047
0.910794 1.006027 0.974984
0.910793 1.006027 0.974983
0.910791 1.006027 0.974982
0.910784 1.006028 0.974975
0.910754 1.006033 0.974951
0.910643 1.006051 0.974859
0.983944 1.001911 0.977885
0.998431 1.001413 0.982014
0.998194 1.001795 0.978779
0.939975 1.002440 0.993608
0.939974 1.002440 0.993608
0.939973 1.002440 0.993608
0.939970 1.002440 0.993606
0.939957 1.002441 0.993599
0.939907 1.002446 0.993574
0.939715 1.002463 0.993479
0.999444 1.000210 0.994562
0.999341 1.000292 0.993409
0.008676 0.000000 0.032321
0.067330 0.000000 0.042439
0.437628 0.000000 0.050278
0.955966 0.000000 0.215615
1.072542 0.605103 0.623361
1.034550 0.873859 0.876391
1.020385 0.957796 0.958869
1.019557 0.965089 0.966047
1.019557 0.965089 0.966047
0.000000 0.046248 0.038172
0.048153 0.048153 0.048157
0.428275 0.000000 0.059904
0.954487 0.000000 0.220615
1.072564 0.604548 0.624612
1.034560 0.873811 0.876344
1.020386 0.957792 0.958865
1.019557 0.965089 0.966047
1.019557 0.965089 0.966047
0.000000 0.300848 0.000000
0.000000 0.299056 0.000000
0.324522 0.316196 0.000000
0.918796 0.333089 0.139987
1.072651 0.602416 0.629282
1.034595 0.873627 0.876163
1.020387 0.957777 0.958850
1.019557 0.965089 0.966047
1.019557 0.965089 0.966047
0.000000 0.783765 0.000000
0.000000 0.782329 0.000000
0.000000 0.783437 0.000000
0.738666 0.771341 0.000000
1.003180 0.781172 0.609304
1.034730 0.872922 0.875472
1.020393 0.957720 0.958795
1.019557 0.965089 0.966047
1.019557 0.965089 0.966047
0.000000 0.981601 0.549907
0.000000 0.981545 0.549279
0.000000 0.981329 0.546870
0.455835 0.961915 0.573879
0.911659 0.935594 0.711030
1.003682 0.930007 0.872294
1.020418 0.957503 0.958581
1.019557 0.965089 0.966047
1.019557 0.965089 0.966047
0.563501 1.002715 0.864024
0.563347 1.002715 0.863983
0.562756 1.002716 0.863827
0.560495 1.002716 0.863231
0.846973 0.989812 0.868373
0.971321 0.979797 0.906524
1.008401 0.977690 0.956920
1.019557 0.965089 0.966047
1.019557 0.965089 0.966047
0.868040 1.006827 0.953047
0.868030 1.006826 0.953043
0.867991 1.006825 0.953029
0.867843 1.006822 0.952974
0.867278 1.006808 0.952764
0.947493 1.001957 0.954571
0.994748 0.998101 0.968179
1.002328 0.994546 0.969756
1.019557 0.965089 0.966047
0.910854 1.006017 0.975033
0.910853 1.006017 0.975033
0.910851 1.006017 0.975031
0.910844 1.006019 0.975025
0.910815 1.006023 0.975001
0.910703 1.006041 0.974909
0.983949 1.001906 0.977924
0.998433 1.001410 0.982044
0.998197 1.001790 0.978818
0.940002 1.002437 0.993622
0.940001 1.002437 0.993622
0.940001 1.002437 0.993621
0.939997 1.002438 0.993619
0.939984 1.002439 0.993613
0.939934 1.002443 0.993588
0.939743 1.002460 0.993492
0.999446 1.000210 0.994573
0.999342 1.000291 0.993421
0.082673 0.000000 0.308507
0.132274 0.000000 0.319908
0.475697 0.000000 0.362071
0.960308 0.000000 0.492001
1.070747 0.606793 0.710952
1.034426 0.873862 0.881717
1.020385 0.957796 0.958869
1.019557 0.965089 0.966047
1.019557 0.965089 0.966047
0.000000 0.000000 0.320215
0.099054 0.000000 0.329705
0.463002 0.000000 0.368425
0.958968 0.000000 0.494165
1.070752 0.606304 0.711927
1.034431 0.873814 0.881843
1.020385 0.957792 0.958866
1.019557 0.965089 0.966047
1.019557 0.965089 0.966047
0.000000 0.347706 0.302371
0.000000 0.344426 0.307392
0.347379 0.347374 0.347403
0.917082 0.357499 0.469442
1.070777 0.604420 0.715444
1.034454 0.873634 0.882170
1.020387 0.957778 0.958851
1.019557 0.965089 0.966047
1.019557 0.965089 0.966047
0.000000 0.789740 0.165736
0.000000 0.788468 0.164670
0.000000 0.786590 0.224719
0.746429 0.765657 0.405955
1.002580 0.780275 0.685409
1.034529 0.872948 0.883580
1.020393 0.957721 0.958795
1.019557 0.965089 0.966047
1.019557 0.965089 0.966047
0.000000 0.975185 0.629956
0.000000 0.975120 0.629551
0.000000 0.974874 0.628002
0.479352 0.956184 0.644285
0.913261 0.932787 0.744122
1.003726 0.929659 0.879401
1.020418 0.957504 0.958582
1.019557 0.965089 0.966047
1.019557 0.965089 0.966047
0.572690 1.001752 0.869892
0.572544 1.001752 0.869856
0.571988 1.001749 0.869718
0.569855 1.001738 0.869193
0.848307 0.989143 0.873699
0.971479 0.979510 0.909247
1.008407 0.977657 0.957589
1.019557 0.965089 0.966047
1.019557 0.965089 0.966047
0.868645 1.006723 0.953620
0.868635 1.006723 0.953616
0.868596 1.006722 0.953602
0.868450 1.006718 0.953548
0.867889 1.006704 0.953343
0.947599 1.001889 0.955086
0.994764 0.998071 0.968463
1.002339 0.994522 0.970029
1.019557 0.965089 0.966047
0.911080 1.005981 0.975221
0.911080 1.005981 0.975220
0.911078 1.005981 0.975219
0.911070 1.005982 0.975213
0.911041 1.005987 0.975189
0.910932 1.006005 0.975098
0.983969 1.001888 0.978070
0.998442 1.001397 0.982158
0.998208 1.001773 0.978963
0.940105 1.002428 0.993673
0.940104 1.002428 0.993673
0.940104 1.002428 0.993673
0.940100 1.002429 0.993671
0.940087 1.002430 0.993664
0.940037 1.002434 0.993639
0.939847 1.002451 0.993544
0.999450 1.000207 0.994614
0.999346 1.000288 0.993466
0.156360 0.000000 0.852473
0.257651 0.000000 0.854121
0.573311 0.000000 0.858369
0.964403 0.000000 0.869042
1.060829 0.630984 0.867866
1.033345 0.874771 0.909277
1.020293 0.957799 0.960918
1.019557 0.965089 0.966047
1.019557 0.965089 0.966047
0.000000 0.081217 0.846279
0.184307 0.090555 0.847745
0.547657 0.080738 0.851685
0.954544 0.194401 0.863144
1.060807 0.630642 0.868237
1.033349 0.874729 0.909340
1.020294 0.957795 0.960929
1.019557 0.965089 0.966047
1.019557 0.965089 0.966047
0.000000 0.445873 0.816532
0.000000 0.443414 0.817533
0.418102 0.446347 0.820067
0.903953 0.466537 0.831161
1.060725 0.629328 0.869636
1.033363 0.874568 0.909577
1.020295 0.957781 0.960971
1.019557 0.965089 0.966047
1.019557 0.965089 0.966047
0.000000 0.787158 0.747528
0.000000 0.786191 0.747628
0.000000 0.781207 0.750184
0.765457 0.765447 0.765512
0.997794 0.787329 0.828125
1.033420 0.873952 0.910438
1.020298 0.957726 0.961120
1.019557 0.965089 0.966047
1.019557 0.965089 0.966047
0.000000 0.959808 0.781041
0.000000 0.959727 0.780915
0.000000 0.959418 0.780435
0.546674 0.943338 0.782772
0.917409 0.926572 0.822327
1.003662 0.928999 0.900980
1.020291 0.957518 0.961630
1.019557 0.965089 0.966047
1.019557 0.965089 0.966047
0.606500 0.998370 0.889739
0.606377 0.998367 0.889713
0.605910 0.998359 0.889613
0.604123 0.998326 0.889230
0.853056 0.986927 0.891464
0.972014 0.978572 0.918435
1.008412 0.977564 0.959967
1.019552 0.965093 0.966142
1.019557 0.965089 0.966047
0.870859 1.006351 0.955676
0.870849 1.006351 0.955672
0.870811 1.006350 0.955658
0.870667 1.006346 0.955607
0.870116 1.006330 0.955410
0.948034 1.001644 0.956914
0.994829 0.997963 0.969464
1.002375 0.994436 0.971025
1.019557 0.965089 0.966047
0.911912 1.005847 0.975910
0.911912 1.005848 0.975910
0.911910 1.005848 0.975908
0.911903 1.005849 0.975902
0.911876 1.005853 0.975880
0.911772 1.005870 0.975794
0.984039 1.001820 0.978605
0.998472 1.001349 0.982577
0.998245 1.001711 0.979475
0.940493 1.002394 0.993867
0.940493 1.002394 0.993867
0.940492 1.002394 0.993866
0.940489 1.002395 0.993865
0.940476 1.002396 0.993858
0.940427 1.002400 0.993834
0.940239 1.002417 0.993740
0.999464 1.000198 0.994770
0.999361 1.000274 0.993636
0.352429 0.663863 1.017127
0.444041 0.662812 1.015954
0.644132 0.659942 1.012214
0.891242 0.666906 1.003135
1.025136 0.733805 0.985932
1.028036 0.883536 0.958346
1.019711 0.958110 0.970384
1.018820 0.965168 0.971182
1.019557 0.965089 0.966047
0.324146 0.679926 1.012631
0.423385 0.678550 1.011555
0.631901 0.675469 1.007861
0.884664 0.680772 0.999142
1.024125 0.736071 0.985243
1.028035 0.883507 0.958377
1.019712 0.958106 0.970390
1.018818 0.965168 0.971190
1.019557 0.965089 0.966047
0.237599 0.732846 0.996581
0.336233 0.731556 0.995918
0.586410 0.727081 0.992603
0.862135 0.725779 0.985550
1.011557 0.765513 0.975585
1.028030 0.883395 0.958492
1.019713 0.958093 0.970416
1.018813 0.965169 0.971221
1.019557 0.965089 0.966047
0.090862 0.839197 0.959461
0.091530 0.838715 0.959634
0.439025 0.833838 0.957945
0.800923 0.824458 0.953041
0.977890 0.835333 0.951624
1.028013 0.882966 0.958926
1.019717 0.958045 0.970513
1.018795 0.965173 0.971338
1.019557 0.965089 0.966047
0.353468 0.943658 0.923910
0.353086 0.943578 0.923924
0.351622 0.943272 0.923977
0.681374 0.933449 0.921320
0.924133 0.924120 0.924200
1.002108 0.930781 0.943469
1.019694 0.957855 0.970792
1.018727 0.965188 0.971759
1.019557 0.965089 0.966047
0.692428 0.990852 0.930556
0.692358 0.990846 0.930548
0.692091 0.990825 0.930517
0.691073 0.990746 0.930399
0.867613 0.982302 0.929852
0.973402 0.976546 0.941836
1.008360 0.977400 0.967369
1.018485 0.965247 0.973248
1.019557 0.965089 0.966047
0.878761 1.005130 0.962384
0.878752 1.005129 0.962381
0.878720 1.005127 0.962372
0.878596 1.005120 0.962336
0.878124 1.005094 0.962198
0.949586 1.000846 0.963055
0.995044 0.997606 0.972941
1.002500 0.994145 0.974456
1.019519 0.965088 0.966611
0.915178 1.005365 0.978389
0.915177 1.005365 0.978389
0.915175 1.005365 0.978387
0.915168 1.005366 0.978382
0.915141 1.005370 0.978362
0.915039 1.005385 0.978285
0.984320 1.001581 0.980560
0.998576 1.001186 0.984010
0.998374 1.001504 0.981228
0.941921 1.002268 0.994580
0.941921 1.002268 0.994580
0.941920 1.002269 0.994580
0.941917 1.002269 0.994578
0.941905 1.002270 0.994572
0.941858 1.002274 0.994549
0.941681 1.002290 0.994460
0.999519 1.000166 0.995341
0.999416 1.000227 0.994261
0.795112 0.895885 1.011236
0.802675 0.895627 1.011039
0.827652 0.894817 1.010351
0.887501 0.893397 1.008435
0.965616 0.895659 1.004610
1.012790 0.914513 0.998046
1.017367 0.961001 0.988587
1.015723 0.966855 0.987499
1.017033 0.965877 0.981367
0.793655 0.897185 1.010727
0.801242 0.896925 1.010531
0.826453 0.896109 1.009836
0.886561 0.894657 1.007928
0.964982 0.896734 1.004171
1.012781 0.914504 0.998055
1.017367 0.960999 0.988590
1.015723 0.966855 0.987502
1.017032 0.965878 0.981371
0.788658 0.902098 1.008781
0.796417 0.901812 1.008590
0.821864 0.900915 1.007930
0.883151 0.899202 1.006099
0.962600 0.900750 1.002532
1.011907 0.916066 0.997427
1.017369 0.960990 0.988603
1.015720 0.966858 0.987514
1.017028 0.965880 0.981388
0.778325 0.917181 1.002561
0.779258 0.917068 1.002574
0.806648 0.916008 1.001941
0.871439 0.913770 1.000242
0.954861 0.913475 0.997338
1.007214 0.924549 0.993959
1.017376 0.960957 0.988652
1.015709 0.966867 0.987558
1.017016 0.965887 0.981451
0.783206 0.948607 0.988816
0.783187 0.948571 0.988832
0.783117 0.948434 0.988890
0.839634 0.945848 0.987791
0.935089 0.942495 0.985834
0.995063 0.945614 0.985575
1.017402 0.960827 0.988837
1.015670 0.966901 0.987727
1.016971 0.965912 0.981690
0.825749 0.982876 0.975817
0.825730 0.982869 0.975819
0.825658 0.982843 0.975824
0.825384 0.982743 0.975844
0.901006 0.978848 0.974741
0.975805 0.975792 0.975876
1.007748 0.978149 0.983137
1.015526 0.967026 0.988349
1.016790 0.966027 0.982594
0.901053 1.002332 0.977552
0.901047 1.002331 0.977551
0.901026 1.002328 0.977548
0.900946 1.002316 0.977535
0.900641 1.002272 0.977486
0.954490 0.999137 0.977393
0.995615 0.996834 0.982093
1.002764 0.993608 0.983468
1.016149 0.966484 0.985655
0.925314 1.004010 0.985327
0.925314 1.004010 0.985327
0.925312 1.004010 0.985326
0.925307 1.004011 0.985322
0.925286 1.004014 0.985310
0.925205 1.004023 0.985260
0.985251 1.000925 0.986280
0.998919 1.000711 0.988466
0.998765 1.000915 0.986506
0.946746 1.001864 0.996947
0.946746 1.001864 0.996947
0.946745 1.001864 0.996946
0.946743 1.001865 0.996945
0.946732 1.001865 0.996940
0.946693 1.001868 0.996922
0.946544 1.001878 0.996854
0.999703 1.000062 0.997262
0.999618 1.000108 0.996379
0.932957 0.965606 1.007396
0.933644 0.965578 1.007387
0.935885 0.965488 1.007360
0.943609 0.965203 1.007260
0.963151 0.964706 1.006963
0.991691 0.965295 1.006229
1.011094 0.971923 1.004413
1.009990 0.974906 1.003633
1.010460 0.973867 1.003355
0.932856 0.965710 1.007380
0.933518 0.965683 1.007372
0.935786 0.965593 1.007344
0.943516 0.965307 1.007244
0.963069 0.964808 1.006948
0.991629 0.965383 1.006216
1.011094 0.971922 1.004413
1.009990 0.974907 1.003633
1.010460 0.973867 1.003355
0.932464 0.966098 1.007321
0.933024 0.966076 1.007315
0.935410 0.965981 1.007285
0.943164 0.965693 1.007185
0.962764 0.965186 1.006889
0.991399 0.965703 1.006169
1.011095 0.971919 1.004415
1.009989 0.974909 1.003634
1.010459 0.973870 1.003356
0.930755 0.967876 1.007052
0.931396 0.967848 1.007044
0.933719 0.967750 1.007017
0.941709 0.967440 1.006852
0.961586 0.966753 1.006490
0.990434 0.967178 1.005656
1.010861 0.972563 1.004224
1.009985 0.974918 1.003636
1.010454 0.973880 1.003359
0.927329 0.972961 1.005826
0.927330 0.972954 1.005827
0.928369 0.972887 1.005813
0.936625 0.972533 1.005646
0.957488 0.971786 1.005166
0.987395 0.971600 1.004468
1.009432 0.975638 1.003333
1.009970 0.974951 1.003645
1.010438 0.973916 1.003368
0.928213 0.984754 1.001745
0.928211 0.984750 1.001747
0.928207 0.984737 1.001752
0.928191 0.984686 1.001773
0.946398 0.983770 1.001370
0.979822 0.982600 1.000692
1.004872 0.983766 1.000764
1.009913 0.975077 1.003679
1.010375 0.974055 1.003406
0.940330 0.999440 0.996497
0.940328 0.999440 0.996497
0.940323 0.999436 0.996498
0.940303 0.999425 0.996500
0.940225 0.999381 0.996507
0.966255 0.997924 0.996135
0.996645 0.996631 0.996717
1.002817 0.994115 0.997718
1.010144 0.974567 1.003543
0.948380 1.001753 0.997693
0.948380 1.001753 0.997693
0.948379 1.001753 0.997693
0.948376 1.001753 0.997692
0.948367 1.001754 0.997687
0.948330 1.001756 0.997671
0.987864 1.000009 0.997396
0.999771 1.000046 0.997896
0.999684 1.000069 0.997077
0.953416 1.001409 1.000002
0.953416 1.001409 1.000002
0.953416 1.001409 1.000002
0.953416 1.001409 1.000002
0.953416 1.001409 1.000002
0.953416 1.001409 1.000002
0.953416 1.001409 1.000002
1.000004 0.999991 1.000077
1.000004 0.999991 1.000077
0.953749 0.985798 1.003518
0.954002 0.985786 1.003515
0.954883 0.985743 1.003505
0.958046 0.985593 1.003469
0.967433 0.985189 1.003354
0.985991 0.984728 1.003060
1.004793 0.985945 1.002459
1.007975 0.979855 1.003453
1.007975 0.979855 1.003453
0.953711 0.985830 1.003513
0.953966 0.985818 1.003510
0.954850 0.985774 1.003501
0.958011 0.985625 1.003465
0.967402 0.985219 1.003349
0.985968 0.984756 1.003056
1.004778 0.985967 1.002455
1.007975 0.979855 1.003453
1.007975 0.979855 1.003453
0.953566 0.985951 1.003495
0.953826 0.985938 1.003492
0.954727 0.985894 1.003482
0.957877 0.985744 1.003446
0.967293 0.985331 1.003332
0.985884 0.984861 1.003039
1.004723 0.986053 1.002442
1.007975 0.979855 1.003453
1.007975 0.979855 1.003453
0.953087 0.986397 1.003426
0.953309 0.986386 1.003424
0.954240 0.986340 1.003414
0.957389 0.986189 1.003378
0.966901 0.985766 1.003264
0.985570 0.985253 1.002977
1.004560 0.986367 1.002390
1.007975 0.979855 1.003453
1.007975 0.979855 1.003453
0.951202 0.987965 1.003189
0.951443 0.987953 1.003186
0.952387 0.987904 1.003176
0.955670 0.987741 1.003140
0.965410 0.987285 1.003028
0.984433 0.986688 1.002749
1.003881 0.987541 1.002199
1.007410 0.981306 1.003213
1.007975 0.979855 1.003453
0.947764 0.992494 1.002460
0.947764 0.992492 1.002460
0.947762 0.992486 1.002461
0.949565 0.992379 1.002445
0.960401 0.991810 1.002332
0.980854 0.990940 1.002075
1.001759 0.991091 1.001619
1.005208 0.986923 1.002279
1.007975 0.979855 1.003453
0.952908 1.000860 1.000197
0.952908 1.000859 1.000197
0.952905 1.000857 1.000198
0.952897 1.000848 1.000201
0.952864 1.000812 1.000214
0.971975 0.999746 0.999934
0.996463 0.998720 1.000184
1.001211 0.996986 1.000587
1.007975 0.979855 1.003453
0.953416 1.001409 1.000002
0.953416 1.001409 1.000002
0.953416 1.001409 1.000002
0.953416 1.001409 1.000002
0.953416 1.001409 1.000002
0.953416 1.001409 1.000002
0.988986 0.999914 0.999662
1.000004 0.999991 1.000077
1.000004 0.999991 1.000077
0.953416 1.001409 1.000002
0.953416 1.001409 1.000002
0.953416 1.001409 1.000002
0.953416 1.001409 1.000002
0.953416 1.001409 1.000002
0.953416 1.001409 1.000002
0.953416 1.001409 1.000002
1.000004 0.999991 1.000077
1.000004 0.999991 1.000077
0.965081 0.999675 1.000160
0.965188 0.999670 1.000158
0.965584 0.999650 1.000151
0.967012 0.999573 1.000133
0.971709 0.999330 1.000073
0.983074 0.998772 1.000022
0.999082 0.998294 1.000399
1.001464 0.996355 1.000694
1.007975 0.979855 1.003453
0.965070 0.999683 1.000158
0.965176 0.999678 1.000156
0.965573 0.999658 1.000149
0.967002 0.999581 1.000131
0.971699 0.999338 1.000070
0.983067 0.998779 1.000020
0.999078 0.998301 1.000398
1.001460 0.996364 1.000692
1.007975 0.979855 1.003453
0.965024 0.999713 1.000150
0.965131 0.999708 1.000148
0.965530 0.999688 1.000141
0.966964 0.999611 1.000122
0.971661 0.999367 1.000062
0.983039 0.998807 1.000012
0.999064 0.998325 1.000394
1.001448 0.996395 1.000687
1.007975 0.979855 1.003453
0.964848 0.999826 1.000121
0.964958 0.999821 1.000119
0.965364 0.999801 1.000111
0.966817 0.999724 1.000091
0.971517 0.999478 1.000031
0.982932 0.998913 0.999981
0.999009 0.998415 1.000379
1.001400 0.996514 1.000667
1.007975 0.979855 1.003453
0.964256 1.000254 1.000002
0.964362 1.000248 1.000001
0.964753 1.000225 0.999996
0.966226 1.000146 0.999974
0.971008 0.999893 0.999915
0.982575 0.999314 0.999863
0.998792 0.998757 1.000309
1.001226 0.996950 1.000593
1.007975 0.979855 1.003453
0.961431 1.000999 0.999857
0.961560 1.000993 0.999855
0.962032 1.000970 0.999846
0.963634 1.000891 0.999817
0.968905 1.000632 0.999742
0.981322 1.000119 0.999631
0.997932 0.999930 0.999957
1.000635 0.998424 1.000343
1.006081 0.984701 1.002650
0.953416 1.001409 1.000002
0.953416 1.001409 1.000002
0.953416 1.001409 1.000002
0.953416 1.001409 1.000002
0.957887 1.001173 0.999916
0.976364 1.000307 0.999659
0.996785 0.999896 0.999891
1.000004 0.999991 1.000077
1.001515 0.996226 1.000716
0.953416 1.001409 1.000002
0.953416 1.001409 1.000002
0.953416 1.001409 1.000002
0.953416 1.001409 1.000002
0.953416 1.001409 1.000002
0.953416 1.001409 1.000002
0.990536 0.999892 0.999695
1.000004 0.999991 1.000077
1.000004 0.999991 1.000077
0.953416 1.001409 1.000002
0.953416 1.001409 1.000002
0.953416 1.001409 1.000002
0.953416 1.001409 1.000002
0.953416 1.001409 1.000002
0.953416 1.001409 1.000002
0.953416 1.001409 1.000002
1.000004 0.999991 1.000077
1.000004 0.999991 1.000077
