Assets/Data/Textures/70 CGC LUTs/LUTs_AgX_Filmic_ViewTransforms/ARRILogC4AWG4-to-JP2499DRT-ClassicNegative-sRGB.cube
#  Baked from the PixelManager OCIO config by Joe Genco
#  https://github.com/Joegenco/PixelManager
#  Input Gamma: Arri LogC4
#  Input Color Space: Arri Wide Gamut 4
#  floating point data (range 0.0 - 1.0)   
#       
#  Output Gamma: Gamma 2.2 (Display)
#  Output Color Space: Rec.709
#  floating point data (range 0.0 - 1.0)
LUT_3D_SIZE 9
0.001953 0.001953 0.001953
0.027945 0.004069 0.002795
0.247692 0.018698 0.017886
0.578364 0.046333 0.041778
0.854127 0.176492 0.061549
0.983895 0.488217 0.254856
0.999854 0.763438 0.658881
0.999947 0.908735 0.913294
0.998555 0.952442 0.997098
0.004363 0.022579 0.003011
0.039257 0.031815 0.004568
0.282950 0.021341 0.020473
0.585396 0.047099 0.042289
0.854475 0.177369 0.062017
0.983947 0.488430 0.257012
0.999855 0.763472 0.659308
0.999947 0.908740 0.913340
0.998555 0.952445 0.997099
0.003723 0.219206 0.003443
0.004408 0.238159 0.004056
0.333416 0.307976 0.004570
0.684708 0.157137 0.045222
0.873221 0.213591 0.062949
0.984573 0.492440 0.264250
0.999856 0.763600 0.660931
0.999947 0.908758 0.913515
0.998554 0.952457 0.997101
0.017509 0.522770 0.009886
0.017742 0.524049 0.009917
0.032972 0.586892 0.011354
0.672923 0.616000 0.008139
0.907338 0.486934 0.045777
0.989875 0.534268 0.278166
0.999862 0.767970 0.666220
0.999947 0.908827 0.914179
0.998552 0.952503 0.997109
0.332642 0.790576 0.025811
0.333227 0.790872 0.025910
0.353796 0.800053 0.027680
0.453819 0.841452 0.046239
0.896198 0.850024 0.038437
0.991639 0.780901 0.254273
0.999882 0.799073 0.678401
0.999941 0.911510 0.916289
0.998543 0.952677 0.997140
0.779524 0.939804 0.344289
0.779632 0.939828 0.344560
0.780041 0.939916 0.345585
0.797286 0.944093 0.369749
0.852311 0.957579 0.451233
0.981615 0.962870 0.497705
0.999307 0.935302 0.681578
0.999846 0.928991 0.922303
0.998311 0.956800 0.997547
0.957080 0.985806 0.714741
0.957086 0.985808 0.714787
0.957111 0.985815 0.714962
0.957201 0.985841 0.715623
0.960903 0.986924 0.732400
0.972174 0.990459 0.786884
0.997283 0.992168 0.825521
0.997783 0.986053 0.921945
0.996825 0.981703 0.996825
0.990770 0.996404 0.915397
0.990770 0.996404 0.915402
0.990772 0.996404 0.915423
0.990777 0.996404 0.915502
0.990797 0.996406 0.915802
0.991641 0.996586 0.923003
0.994202 0.996841 0.944535
0.996592 0.996592 0.956600
0.995951 0.995952 0.995690
0.991167 0.995760 0.994872
0.991167 0.995760 0.994873
0.991167 0.995760 0.994876
0.991167 0.995760 0.994886
0.991166 0.995760 0.994926
0.991166 0.995760 0.995077
0.993284 0.996014 0.995796
0.995947 0.995947 0.995947
0.995947 0.995947 0.995947
0.002361 0.004375 0.011337
0.039539 0.009197 0.021249
0.285768 0.021513 0.021360
0.593706 0.048470 0.043529
0.857413 0.184257 0.065632
0.984163 0.490116 0.273751
0.999857 0.763766 0.662639
0.999947 0.908778 0.913702
0.998553 0.952470 0.997103
0.005283 0.037063 0.023393
0.042274 0.045490 0.038498
0.333749 0.025629 0.024895
0.603245 0.049641 0.044287
0.857734 0.185002 0.066194
0.984177 0.490303 0.275850
0.999857 0.763800 0.663062
0.999947 0.908782 0.913748
0.998553 0.952473 0.997104
0.005761 0.265743 0.005213
0.006112 0.287255 0.005443
0.367859 0.337406 0.004708
0.698023 0.165432 0.046736
0.876921 0.220601 0.068017
0.984771 0.494498 0.282815
0.999858 0.763927 0.664667
0.999947 0.908800 0.913922
0.998553 0.952485 0.997106
0.020344 0.538199 0.010288
0.020547 0.539257 0.010320
0.038587 0.599456 0.011756
0.680713 0.623387 0.008207
0.909917 0.490546 0.050338
0.990065 0.535982 0.296837
0.999865 0.768337 0.669903
0.999946 0.908869 0.914585
0.998550 0.952531 0.997114
0.339669 0.794105 0.026849
0.340170 0.794362 0.026925
0.360707 0.803128 0.029773
0.459257 0.843531 0.049857
0.897374 0.851303 0.039582
0.991885 0.781685 0.275025
0.999884 0.799333 0.681944
0.999941 0.911556 0.916688
0.998541 0.952705 0.997145
0.780892 0.940103 0.347502
0.780997 0.940125 0.347764
0.781392 0.940211 0.348755
0.798393 0.944372 0.372280
0.852967 0.957745 0.452858
0.981684 0.962958 0.498761
0.999309 0.935331 0.684728
0.999846 0.929037 0.922699
0.998310 0.956823 0.997553
0.957162 0.985830 0.715294
0.957168 0.985832 0.715340
0.957192 0.985839 0.715513
0.957282 0.985865 0.716169
0.960961 0.986940 0.732838
0.972207 0.990468 0.787149
0.997285 0.992174 0.825658
0.997779 0.986053 0.922234
0.996825 0.981705 0.996825
0.990774 0.996404 0.915459
0.990775 0.996404 0.915464
0.990776 0.996404 0.915485
0.990781 0.996405 0.915564
0.990801 0.996406 0.915864
0.991644 0.996586 0.923046
0.994204 0.996840 0.944601
0.996592 0.996592 0.956611
0.995951 0.995952 0.995693
0.991167 0.995760 0.994880
0.991167 0.995760 0.994881
0.991167 0.995760 0.994884
0.991167 0.995760 0.994894
0.991166 0.995760 0.994934
0.991166 0.995760 0.995085
0.993283 0.996014 0.995798
0.995947 0.995947 0.995947
0.995947 0.995947 0.995947
0.010229 0.020624 0.112695
0.018218 0.029129 0.164122
0.321803 0.031841 0.227694
0.630434 0.066740 0.163087
0.873071 0.213725 0.136133
0.984670 0.496540 0.338341
0.999865 0.764984 0.676581
0.999946 0.908938 0.915245
0.998548 0.952577 0.997122
0.019373 0.040008 0.219851
0.023646 0.047305 0.264947
0.363953 0.043343 0.281175
0.649628 0.074534 0.181491
0.873842 0.215038 0.139834
0.984680 0.496700 0.340100
0.999865 0.765017 0.676986
0.999946 0.908942 0.915291
0.998548 0.952580 0.997123
0.004113 0.299667 0.256756
0.004321 0.314145 0.277742
0.345146 0.351457 0.340376
0.725075 0.206557 0.240932
0.894085 0.252022 0.151537
0.985397 0.501577 0.345884
0.999866 0.765138 0.678528
0.999946 0.908960 0.915463
0.998547 0.952592 0.997125
0.025676 0.579123 0.059154
0.025854 0.580997 0.063933
0.047779 0.635232 0.120603
0.702432 0.646965 0.070208
0.923613 0.505384 0.136328
0.990613 0.541895 0.357156
0.999873 0.769698 0.683575
0.999945 0.909028 0.916119
0.998545 0.952638 0.997133
0.363333 0.805471 0.039041
0.363810 0.805750 0.039638
0.384430 0.814509 0.043916
0.479911 0.852463 0.077866
0.903634 0.857865 0.069746
0.992099 0.783723 0.350009
0.999890 0.800307 0.694184
0.999940 0.911742 0.918202
0.998536 0.952811 0.997164
0.785714 0.941165 0.358920
0.785801 0.941186 0.359157
0.786133 0.941262 0.360055
0.802224 0.945376 0.381390
0.855332 0.958343 0.458699
0.981883 0.963283 0.502643
0.999316 0.935443 0.696516
0.999844 0.929213 0.924194
0.998304 0.956910 0.997574
0.957468 0.985920 0.717360
0.957474 0.985922 0.717404
0.957497 0.985928 0.717573
0.957585 0.985953 0.718207
0.961178 0.987001 0.734496
0.972330 0.990502 0.788142
0.997291 0.992198 0.826174
0.997763 0.986053 0.923328
0.996824 0.981718 0.996824
0.990790 0.996405 0.915694
0.990790 0.996405 0.915699
0.990792 0.996405 0.915720
0.990797 0.996406 0.915799
0.990816 0.996407 0.916096
0.991655 0.996588 0.923208
0.994209 0.996836 0.944851
0.996587 0.996587 0.956879
0.995951 0.995951 0.995701
0.991167 0.995760 0.994912
0.991167 0.995760 0.994912
0.991167 0.995760 0.994915
0.991167 0.995760 0.994926
0.991166 0.995760 0.994965
0.991165 0.995760 0.995116
0.993281 0.996014 0.995805
0.995947 0.995947 0.995947
0.995947 0.995947 0.995947
0.038496 0.130901 0.467321
0.040521 0.152477 0.500066
0.268253 0.206302 0.568451
0.667303 0.245372 0.587189
0.888375 0.317943 0.530254
0.985027 0.522535 0.532460
0.999891 0.769267 0.721899
0.999941 0.909695 0.921466
0.998527 0.952980 0.997195
0.040903 0.160166 0.510030
0.042455 0.179659 0.538420
0.266355 0.228198 0.599356
0.679933 0.260048 0.605697
0.892533 0.325278 0.538163
0.985023 0.522699 0.533697
0.999891 0.769295 0.722225
0.999941 0.909703 0.921519
0.998527 0.952983 0.997195
0.034576 0.311950 0.585581
0.035709 0.322104 0.604303
0.147693 0.351505 0.663351
0.712192 0.315403 0.659884
0.904989 0.353168 0.566035
0.986238 0.530515 0.540090
0.999891 0.769399 0.723464
0.999941 0.909732 0.921721
0.998526 0.952995 0.997198
0.015612 0.595475 0.597700
0.016878 0.599512 0.604114
0.026717 0.630185 0.646905
0.670473 0.648371 0.687971
0.927838 0.538486 0.623646
0.990575 0.566554 0.560903
0.999898 0.774483 0.727619
0.999940 0.909842 0.922485
0.998524 0.953040 0.997206
0.412557 0.829858 0.469441
0.412581 0.829834 0.471400
0.431805 0.837082 0.486128
0.513025 0.864169 0.541013
0.910502 0.868253 0.547643
0.991880 0.789195 0.570191
0.999911 0.803842 0.737895
0.999932 0.912813 0.924677
0.998515 0.953212 0.997236
0.799805 0.944537 0.422810
0.799872 0.944552 0.423346
0.800128 0.944610 0.425378
0.815461 0.948682 0.446061
0.864188 0.960407 0.509069
0.982223 0.964101 0.562499
0.999363 0.935690 0.741900
0.999838 0.929874 0.929757
0.998284 0.957240 0.997633
0.958380 0.986153 0.724359
0.958384 0.986154 0.724394
0.958400 0.986158 0.724528
0.958458 0.986174 0.725032
0.961956 0.987217 0.740415
0.972776 0.990622 0.791719
0.997317 0.992272 0.828067
0.997705 0.986053 0.927417
0.996820 0.981786 0.996820
0.990838 0.996409 0.916574
0.990838 0.996409 0.916579
0.990839 0.996409 0.916599
0.990843 0.996409 0.916675
0.990856 0.996410 0.916964
0.991696 0.996594 0.923832
0.994229 0.996821 0.945790
0.996570 0.996570 0.957996
0.995951 0.995951 0.995735
0.991166 0.995760 0.995030
0.991166 0.995760 0.995031
0.991166 0.995760 0.995034
0.991166 0.995760 0.995044
0.991166 0.995760 0.995084
0.991165 0.995760 0.995233
0.993273 0.996014 0.995833
0.995947 0.995947 0.995947
0.995947 0.995947 0.995947
0.050871 0.405739 0.810083
0.050930 0.413230 0.816760
0.060526 0.437993 0.836890
0.599687 0.487402 0.869559
0.895672 0.540739 0.875819
0.983278 0.621735 0.848334
0.999847 0.788768 0.850304
0.999906 0.913247 0.941081
0.998448 0.954480 0.997464
0.050720 0.415055 0.817831
0.050696 0.422283 0.823748
0.057157 0.446241 0.843380
0.599941 0.494103 0.874271
0.897049 0.544596 0.878550
0.983578 0.623606 0.849640
0.999847 0.788801 0.850482
0.999906 0.913254 0.941117
0.998448 0.954483 0.997464
0.049527 0.449434 0.840107
0.049492 0.455513 0.845454
0.051139 0.476670 0.862404
0.596363 0.517323 0.889514
0.902150 0.559051 0.888133
0.984581 0.630151 0.854177
0.999847 0.789189 0.851212
0.999906 0.913279 0.941257
0.998448 0.954494 0.997466
0.048486 0.611697 0.871227
0.049545 0.615403 0.874742
0.053660 0.628213 0.887259
0.513547 0.651598 0.912570
0.914144 0.622492 0.911489
0.987120 0.655875 0.870378
0.999870 0.795416 0.854860
0.999905 0.913378 0.941788
0.998445 0.954537 0.997474
0.458600 0.834558 0.869870
0.461162 0.835477 0.871064
0.477003 0.841253 0.877980
0.529191 0.857501 0.897804
0.891284 0.865110 0.913166
0.988181 0.806254 0.894435
0.999915 0.819408 0.865918
0.999894 0.916623 0.943562
0.998437 0.954664 0.997506
0.823660 0.947837 0.784968
0.823664 0.947832 0.785291
0.823680 0.947815 0.786518
0.836435 0.950714 0.797723
0.872992 0.960333 0.833589
0.979912 0.963079 0.852298
0.999447 0.936391 0.868611
0.999747 0.932277 0.947657
0.998211 0.958466 0.997678
0.960925 0.986692 0.767047
0.960928 0.986692 0.767139
0.960939 0.986693 0.767485
0.960979 0.986697 0.768801
0.964405 0.987734 0.782555
0.974227 0.990874 0.822861
0.997175 0.992145 0.860721
0.997482 0.986014 0.942721
0.996804 0.982042 0.996804
0.990989 0.996429 0.919137
0.990989 0.996429 0.919140
0.990990 0.996429 0.919155
0.990993 0.996430 0.919208
0.991006 0.996432 0.919413
0.991838 0.996612 0.926452
0.994300 0.996766 0.949162
0.996505 0.996505 0.962080
0.995949 0.995949 0.995861
0.991160 0.995760 0.995428
0.991160 0.995760 0.995429
0.991160 0.995760 0.995429
0.991159 0.995760 0.995432
0.991158 0.995761 0.995441
0.991155 0.995762 0.995475
0.993248 0.996013 0.995936
0.995947 0.995947 0.995947
0.995947 0.995947 0.995947
0.061390 0.690148 0.968594
0.063268 0.692104 0.969243
0.072762 0.698725 0.971697
0.334407 0.720824 0.979760
0.846586 0.757223 0.982090
0.977412 0.801905 0.981549
0.999293 0.853713 0.973759
0.999702 0.925017 0.976545
0.998205 0.958534 0.997838
0.062025 0.692427 0.969239
0.063814 0.694268 0.969885
0.072927 0.700779 0.972314
0.327954 0.722730 0.980205
0.846526 0.758620 0.982360
0.977490 0.802556 0.981698
0.999300 0.854019 0.973836
0.999702 0.925023 0.976557
0.998205 0.958536 0.997838
0.063867 0.699901 0.971511
0.065623 0.701699 0.972155
0.073576 0.707997 0.974419
0.306187 0.729619 0.981750
0.846247 0.763551 0.983316
0.977847 0.805180 0.982279
0.999322 0.855055 0.974100
0.999701 0.925044 0.976600
0.998204 0.958543 0.997838
0.085605 0.730479 0.978064
0.087672 0.731935 0.978484
0.095847 0.737212 0.980047
0.231227 0.755194 0.986396
0.843997 0.781090 0.986414
0.978997 0.814768 0.984381
0.999355 0.859183 0.975070
0.999694 0.925399 0.976816
0.998202 0.958573 0.997839
0.479631 0.848382 0.983482
0.481184 0.848943 0.983670
0.486543 0.851034 0.984398
0.505897 0.858295 0.986989
0.809765 0.868413 0.988762
0.981077 0.855684 0.987930
0.999453 0.873567 0.978485
0.999628 0.928606 0.977917
0.998196 0.958684 0.997844
0.840899 0.949346 0.973429
0.841403 0.949489 0.973543
0.843310 0.950028 0.973980
0.850328 0.952010 0.975585
0.871229 0.958388 0.980568
0.973829 0.961440 0.984084
0.998509 0.942346 0.981205
0.999326 0.941213 0.980332
0.997957 0.962749 0.997834
0.963776 0.986172 0.946021
0.963775 0.986172 0.946051
0.963773 0.986170 0.946166
0.963814 0.986181 0.946642
0.966806 0.987223 0.950845
0.974421 0.989770 0.962104
0.995847 0.991001 0.968898
0.996857 0.986073 0.979727
0.996747 0.982974 0.996747
0.991321 0.996303 0.941720
0.991322 0.996303 0.941727
0.991322 0.996303 0.941755
0.991324 0.996303 0.941859
0.991331 0.996301 0.942257
0.992187 0.996511 0.946644
0.994513 0.996587 0.959969
0.996328 0.996328 0.973047
0.995947 0.995947 0.995947
0.991122 0.995776 0.995803
0.991122 0.995776 0.995804
0.991122 0.995776 0.995804
0.991122 0.995776 0.995806
0.991121 0.995776 0.995814
0.991118 0.995778 0.995846
0.993171 0.996013 0.996013
0.995947 0.995947 0.995947
0.995947 0.995947 0.995947
0.492775 0.893928 0.999383
0.494043 0.894173 0.999387
0.499527 0.895073 0.999400
0.524020 0.898263 0.999447
0.705110 0.906521 0.999590
0.958811 0.920921 0.999450
0.996082 0.939952 0.998653
0.998362 0.955926 0.997562
0.997542 0.969781 0.997542
0.493525 0.894227 0.999387
0.494794 0.894471 0.999390
0.500100 0.895366 0.999404
0.524177 0.898551 0.999450
0.704257 0.906756 0.999592
0.958808 0.921105 0.999452
0.996086 0.940012 0.998652
0.998361 0.955952 0.997565
0.997542 0.969782 0.997542
0.496320 0.895338 0.999400
0.497592 0.895583 0.999404
0.502231 0.896458 0.999417
0.524969 0.899630 0.999461
0.701290 0.907638 0.999598
0.958799 0.921789 0.999461
0.996101 0.940242 0.998650
0.998355 0.956047 0.997575
0.997542 0.969787 0.997542
0.506126 0.899252 0.999447
0.507411 0.899501 0.999450
0.511803 0.900379 0.999461
0.532429 0.903511 0.999502
0.693202 0.910798 0.999617
0.958783 0.923758 0.999504
0.996167 0.941173 0.998640
0.998330 0.956458 0.997622
0.997541 0.969803 0.997541
0.564180 0.913515 0.999543
0.564855 0.913675 0.999544
0.567115 0.914277 0.999551
0.577192 0.916414 0.999573
0.666024 0.922846 0.999667
0.958226 0.930585 0.999621
0.996371 0.944493 0.998604
0.998242 0.957956 0.997644
0.997515 0.970242 0.997515
0.829581 0.957063 0.999261
0.829745 0.957123 0.999263
0.830300 0.957351 0.999271
0.832523 0.958215 0.999302
0.840641 0.960639 0.999416
0.949998 0.962667 0.998847
0.996529 0.959180 0.998199
0.997916 0.963521 0.997581
0.997309 0.973694 0.997309
0.965345 0.987168 0.995882
0.965382 0.987177 0.995887
0.965495 0.987214 0.995906
0.965889 0.987353 0.995979
0.967352 0.987868 0.996254
0.972090 0.989559 0.996571
0.994528 0.990636 0.996321
0.996496 0.987080 0.996496
0.996628 0.984924 0.996628
0.991188 0.995772 0.992364
0.991188 0.995772 0.992366
0.991188 0.995772 0.992372
0.991188 0.995772 0.992393
0.991211 0.995778 0.992472
0.992024 0.996017 0.993167
0.994024 0.996007 0.995203
0.995949 0.995949 0.995832
0.995947 0.995947 0.995947
0.990976 0.995834 0.996080
0.990976 0.995834 0.996080
0.990976 0.995834 0.996080
0.990975 0.995834 0.996080
0.990973 0.995834 0.996080
0.990966 0.995835 0.996080
0.992866 0.996020 0.996020
0.995947 0.995947 0.995947
0.995947 0.995947 0.995947
0.801613 0.971999 0.999463
0.801787 0.972014 0.999463
0.802434 0.972073 0.999461
0.805536 0.972283 0.999454
0.819344 0.973004 0.999428
0.909167 0.974251 0.999005
0.991285 0.978566 0.997160
0.996752 0.982896 0.996752
0.996799 0.982138 0.996799
0.801721 0.972019 0.999463
0.801895 0.972035 0.999462
0.802542 0.972094 0.999461
0.805617 0.972303 0.999454
0.819364 0.973025 0.999428
0.909072 0.974274 0.999005
0.991285 0.978579 0.997159
0.996752 0.982903 0.996752
0.996798 0.982145 0.996798
0.802129 0.972098 0.999461
0.802303 0.972114 0.999460
0.802951 0.972173 0.999459
0.805927 0.972382 0.999452
0.819441 0.973106 0.999426
0.908713 0.974359 0.999006
0.991284 0.978627 0.997156
0.996750 0.982928 0.996750
0.996796 0.982172 0.996796
0.803650 0.972391 0.999454
0.803824 0.972406 0.999453
0.804474 0.972466 0.999452
0.807078 0.972674 0.999445
0.819725 0.973405 0.999420
0.907474 0.974676 0.999008
0.991283 0.978808 0.997145
0.996744 0.983024 0.996745
0.996790 0.982273 0.996790
0.808985 0.973420 0.999428
0.809161 0.973436 0.999428
0.809819 0.973496 0.999426
0.812128 0.973706 0.999420
0.823706 0.974438 0.999396
0.904172 0.975806 0.999002
0.991275 0.979444 0.997105
0.996724 0.983360 0.996724
0.996769 0.982614 0.996769
0.842801 0.977599 0.999280
0.842880 0.977614 0.999280
0.843171 0.977670 0.999278
0.844192 0.977865 0.999271
0.849020 0.978461 0.999240
0.892596 0.979579 0.998965
0.991182 0.981678 0.996969
0.996650 0.984569 0.996650
0.996692 0.983889 0.996692
0.959758 0.989467 0.997246
0.959771 0.989471 0.997246
0.959820 0.989485 0.997244
0.960003 0.989546 0.997235
0.960736 0.989774 0.997204
0.963310 0.990541 0.997095
0.989925 0.991175 0.996403
0.996277 0.990641 0.996277
0.996334 0.989716 0.996334
0.990599 0.995881 0.996086
0.990601 0.995882 0.996086
0.990612 0.995885 0.996086
0.990650 0.995897 0.996084
0.990802 0.995944 0.996077
0.991348 0.996056 0.996056
0.992937 0.996019 0.996019
0.995947 0.995947 0.995947
0.995947 0.995947 0.995947
0.990570 0.995872 0.996088
0.990570 0.995872 0.996088
0.990570 0.995872 0.996088
0.990570 0.995872 0.996088
0.990570 0.995872 0.996088
0.990639 0.995894 0.996084
0.992517 0.996029 0.996029
0.995947 0.995947 0.995947
0.995947 0.995947 0.995947
0.967298 0.991139 0.996961
0.967306 0.991142 0.996961
0.967337 0.991151 0.996959
0.967450 0.991184 0.996955
0.968121 0.991306 0.996931
0.972388 0.991681 0.996803
0.994257 0.991810 0.996254
0.996243 0.991183 0.996243
0.996298 0.990302 0.996298
0.967339 0.991146 0.996960
0.967347 0.991148 0.996959
0.967377 0.991157 0.996958
0.967491 0.991190 0.996953
0.968159 0.991312 0.996929
0.972403 0.991688 0.996803
0.994257 0.991818 0.996253
0.996243 0.991190 0.996243
0.996297 0.990310 0.996297
0.967492 0.991170 0.996954
0.967501 0.991172 0.996954
0.967531 0.991181 0.996953
0.967644 0.991214 0.996948
0.968305 0.991337 0.996924
0.972460 0.991715 0.996800
0.994254 0.991848 0.996251
0.996241 0.991218 0.996241
0.996295 0.990340 0.996295
0.968074 0.991262 0.996934
0.968082 0.991264 0.996934
0.968113 0.991273 0.996933
0.968226 0.991306 0.996928
0.968856 0.991429 0.996905
0.972674 0.991817 0.996788
0.994244 0.991959 0.996245
0.996235 0.991321 0.996235
0.996288 0.990452 0.996288
0.970240 0.991605 0.996860
0.970249 0.991607 0.996860
0.970279 0.991616 0.996859
0.970393 0.991649 0.996854
0.970908 0.991772 0.996834
0.973471 0.992196 0.996745
0.994199 0.992373 0.996219
0.996211 0.991707 0.996211
0.996263 0.990868 0.996263
0.975792 0.992760 0.996652
0.975798 0.992762 0.996652
0.975822 0.992771 0.996651
0.975910 0.992806 0.996646
0.976232 0.992922 0.996631
0.977899 0.993243 0.996570
0.993962 0.993450 0.996157
0.996129 0.993024 0.996129
0.996170 0.992366 0.996170
0.986565 0.995145 0.996234
0.986568 0.995146 0.996234
0.986582 0.995149 0.996234
0.986632 0.995161 0.996232
0.986807 0.995202 0.996225
0.987484 0.995357 0.996198
0.993408 0.995631 0.996032
0.995969 0.995591 0.995969
0.995982 0.995395 0.995982
0.991383 0.996055 0.996055
0.991385 0.996055 0.996055
0.991394 0.996055 0.996055
0.991436 0.996054 0.996054
0.991583 0.996051 0.996051
0.992084 0.996039 0.996039
0.993439 0.996007 0.996007
0.995947 0.995947 0.995947
0.995947 0.995947 0.995947
0.990682 0.995907 0.996082
0.990684 0.995908 0.996082
0.990695 0.995911 0.996082
0.990735 0.995924 0.996080
0.990885 0.995970 0.996073
0.991423 0.996054 0.996054
0.992994 0.996017 0.996017
0.995947 0.995947 0.995947
0.995947 0.995947 0.995947
