Assets/Data/Textures/70 CGC LUTs/LUTs_AgX_Filmic_ViewTransforms/ARRILogC4AWG4-to-OpenDRT-sRGB.cube
#  Baked from the PixelManager OCIO config by Joe Genco
#  https://github.com/Joegenco/PixelManager
#  Input Gamma: Arri LogC4
#  Input Color Space: Arri Wide Gamut 4
#  floating point data (range 0.0 - 1.0)   
#       
#  Output Gamma: Gamma 2.2 (Display)
#  Output Color Space: Rec.709
#  floating point data (range 0.0 - 1.0)
LUT_3D_SIZE 33
0.000000 0.000000 0.000000
0.000000 0.000000 0.000000
0.000000 0.000000 0.000000
0.000000 0.000000 0.000000
0.000000 0.000000 0.000000
0.081660 0.000000 0.000000
0.194194 0.000000 0.000000
0.294991 0.000000 0.000000
0.388493 0.000000 0.000000
0.483170 0.000000 0.000000
0.580063 0.000000 0.000000
0.673873 0.043679 0.000000
0.761047 0.094102 0.000000
0.837493 0.154021 0.000000
0.899210 0.229746 0.064820
0.944174 0.320591 0.183617
0.973819 0.419593 0.293175
0.990576 0.520891 0.405947
0.997913 0.617886 0.517282
0.999582 0.704997 0.620755
0.998743 0.778699 0.711206
0.997529 0.837136 0.785212
0.996859 0.882236 0.843385
0.996804 0.916225 0.887859
0.997175 0.941406 0.921172
0.997745 0.959848 0.945767
0.997868 0.963199 0.950238
0.997868 0.963199 0.950238
0.997868 0.963199 0.950238
0.997868 0.963199 0.950238
0.997868 0.963199 0.950238
0.997868 0.963199 0.950238
0.997868 0.963199 0.950238
0.000000 0.000000 0.000000
0.000000 0.000000 0.000000
0.000000 0.000000 0.000000
0.000000 0.000000 0.000000
0.000000 0.000000 0.000000
0.077660 0.000000 0.000000
0.191656 0.000000 0.000000
0.293595 0.000000 0.000000
0.387585 0.000000 0.000000
0.482387 0.000000 0.000000
0.579538 0.000000 0.000000
0.673524 0.043510 0.000000
0.760821 0.093977 0.000000
0.837353 0.153918 0.000000
0.899141 0.229604 0.064514
0.944139 0.320486 0.183494
0.973803 0.419519 0.293092
0.990570 0.520839 0.405890
0.997912 0.617852 0.517243
0.999582 0.704976 0.620730
0.998743 0.778687 0.711191
0.997529 0.837129 0.785204
0.996859 0.882232 0.843380
0.996804 0.916223 0.887857
0.997175 0.941405 0.921171
0.997745 0.959847 0.945766
0.997868 0.963199 0.950238
0.997868 0.963199 0.950238
0.997868 0.963199 0.950238
0.997868 0.963199 0.950238
0.997868 0.963199 0.950238
0.997868 0.963199 0.950238
0.997868 0.963199 0.950238
0.000000 0.000000 0.000000
0.000000 0.000000 0.000000
0.000000 0.000000 0.000000
0.000000 0.000000 0.000000
0.012471 0.000000 0.000000
0.095058 0.000000 0.000000
0.193652 0.000000 0.000000
0.291619 0.000000 0.000000
0.386307 0.000000 0.000000
0.481286 0.000000 0.000000
0.578802 0.000000 0.000000
0.673034 0.043271 0.000000
0.760505 0.093802 0.000000
0.837156 0.153774 0.000000
0.899045 0.229404 0.064083
0.944091 0.320340 0.183322
0.973781 0.419414 0.292976
0.990562 0.520768 0.405809
0.997909 0.617805 0.517189
0.999582 0.704946 0.620694
0.998743 0.778670 0.711170
0.997529 0.837120 0.785192
0.996859 0.882227 0.843374
0.996804 0.916220 0.887853
0.997175 0.941403 0.921169
0.997745 0.959846 0.945765
0.997868 0.963199 0.950238
0.997868 0.963199 0.950238
0.997868 0.963199 0.950238
0.997868 0.963199 0.950238
0.997868 0.963199 0.950238
0.997868 0.963199 0.950238
0.997868 0.963199 0.950238
0.000000 0.000000 0.000000
0.000000 0.000000 0.000000
0.000000 0.000000 0.000000
0.000000 0.000000 0.000000
0.034141 0.012823 0.000000
0.115213 0.018630 0.000000
0.202036 0.000000 0.000000
0.292686 0.000000 0.000000
0.384620 0.000000 0.000000
0.479737 0.000000 0.000000
0.577768 0.000000 0.000000
0.672349 0.042934 0.000000
0.760062 0.093557 0.000000
0.836881 0.153573 0.000000
0.898911 0.229124 0.063474
0.944024 0.320136 0.183081
0.973751 0.419268 0.292814
0.990550 0.520667 0.405697
0.997906 0.617739 0.517113
0.999582 0.704904 0.620645
0.998744 0.778647 0.711141
0.997529 0.837107 0.785175
0.996859 0.882220 0.843364
0.996804 0.916216 0.887848
0.997175 0.941401 0.921166
0.997745 0.959845 0.945763
0.997868 0.963199 0.950238
0.997868 0.963199 0.950238
0.997868 0.963199 0.950238
0.997868 0.963199 0.950238
0.997868 0.963199 0.950238
0.997868 0.963199 0.950238
0.997868 0.963199 0.950238
0.000000 0.000000 0.000000
0.000000 0.000000 0.000000
0.000000 0.000000 0.000000
0.000000 0.026020 0.000000
0.053073 0.056209 0.007063
0.127966 0.072138 0.002927
0.207590 0.071058 0.000000
0.292806 0.047681 0.000000
0.382491 0.000000 0.000000
0.476133 0.000000 0.000000
0.575807 0.000000 0.000000
0.671386 0.042457 0.000000
0.759441 0.093212 0.000000
0.836496 0.153291 0.000000
0.898722 0.228732 0.062610
0.943929 0.319850 0.182744
0.973708 0.419065 0.292587
0.990534 0.520527 0.405540
0.997901 0.617646 0.517006
0.999581 0.704845 0.620576
0.998744 0.778615 0.711100
0.997530 0.837089 0.785152
0.996859 0.882210 0.843351
0.996804 0.916211 0.887840
0.997175 0.941398 0.921162
0.997745 0.959844 0.945761
0.997868 0.963199 0.950238
0.997868 0.963199 0.950238
0.997868 0.963199 0.950238
0.997868 0.963199 0.950238
0.997868 0.963199 0.950238
0.997868 0.963199 0.950238
0.997868 0.963199 0.950238
0.000000 0.052399 0.000000
0.000000 0.051642 0.000000
0.005505 0.072842 0.005505
0.008654 0.096384 0.008654
0.042274 0.117141 0.012445
0.127660 0.130810 0.019438
0.207077 0.136477 0.003740
0.290047 0.131243 0.000000
0.378765 0.114040 0.000000
0.470769 0.069290 0.000000
0.569795 0.019400 0.000000
0.668110 0.044040 0.000000
0.758570 0.092726 0.000000
0.835957 0.152895 0.000000
0.898459 0.228182 0.061378
0.943797 0.319449 0.182271
0.973649 0.418779 0.292270
0.990511 0.520331 0.405321
0.997894 0.617517 0.516858
0.999580 0.704764 0.620479
0.998745 0.778570 0.711042
0.997530 0.837064 0.785119
0.996860 0.882196 0.843333
0.996804 0.916203 0.887830
0.997175 0.941394 0.921156
0.997745 0.959841 0.945758
0.997868 0.963199 0.950238
0.997868 0.963199 0.950238
0.997868 0.963199 0.950238
0.997868 0.963199 0.950238
0.997868 0.963199 0.950238
0.997868 0.963199 0.950238
0.997868 0.963199 0.950238
0.012531 0.163411 0.012531
0.012431 0.162053 0.012431
0.012481 0.161391 0.012288
0.014273 0.172880 0.013722
0.015996 0.183774 0.015473
0.104690 0.192218 0.019439
0.196062 0.197246 0.025116
0.280773 0.196780 0.000000
0.371425 0.189944 0.000000
0.464362 0.169885 0.000000
0.562518 0.130853 0.000000
0.659884 0.079711 0.000000
0.753266 0.097481 0.000000
0.835200 0.152338 0.000000
0.898090 0.227409 0.059600
0.943613 0.318888 0.181607
0.973566 0.418380 0.291826
0.990479 0.520057 0.405014
0.997885 0.617336 0.516651
0.999579 0.704649 0.620344
0.998746 0.778507 0.710962
0.997531 0.837029 0.785073
0.996860 0.882177 0.843308
0.996804 0.916192 0.887816
0.997175 0.941388 0.921149
0.997745 0.959838 0.945754
0.997868 0.963199 0.950238
0.997868 0.963199 0.950238
0.997868 0.963199 0.950238
0.997868 0.963199 0.950238
0.997868 0.963199 0.950238
0.997868 0.963199 0.950238
0.997868 0.963199 0.950238
0.017578 0.247493 0.016596
0.017565 0.246432 0.016624
0.017513 0.245162 0.016606
0.017419 0.247767 0.016534
0.018276 0.253571 0.016352
0.031987 0.258768 0.014916
0.162939 0.263157 0.020976
0.259965 0.264699 0.026741
0.357281 0.260889 0.000000
0.453952 0.247873 0.000000
0.553732 0.223694 0.000000
0.651980 0.184916 0.000000
0.743484 0.141368 0.000000
0.827556 0.159841 0.000000
0.897573 0.226322 0.056997
0.943354 0.318101 0.180672
0.973449 0.417821 0.291203
0.990434 0.519673 0.404584
0.997872 0.617083 0.516361
0.999578 0.704489 0.620156
0.998748 0.778420 0.710849
0.997532 0.836979 0.785010
0.996860 0.882150 0.843272
0.996804 0.916178 0.887797
0.997174 0.941380 0.921138
0.997745 0.959834 0.945748
0.997868 0.963199 0.950238
0.997868 0.963199 0.950238
0.997868 0.963199 0.950238
0.997868 0.963199 0.950238
0.997868 0.963199 0.950238
0.997868 0.963199 0.950238
0.997868 0.963199 0.950238
0.017781 0.332139 0.011816
0.017799 0.331473 0.011903
0.017824 0.330537 0.012023
0.017859 0.329218 0.012190
0.017646 0.331177 0.011432
0.016626 0.332970 0.005641
0.078018 0.334032 0.000000
0.221312 0.335245 0.013072
0.331345 0.332162 0.022651
0.436062 0.325113 0.000000
0.540145 0.308138 0.000000
0.642539 0.278067 0.000000
0.735735 0.240096 0.000000
0.817156 0.208535 0.000000
0.887780 0.236086 0.058363
0.942992 0.316993 0.179353
0.973286 0.417036 0.290329
0.990371 0.519135 0.403981
0.997854 0.616730 0.515955
0.999576 0.704266 0.619892
0.998751 0.778297 0.710692
0.997533 0.836911 0.784920
0.996860 0.882111 0.843222
0.996804 0.916157 0.887769
0.997174 0.941369 0.921123
0.997744 0.959828 0.945740
0.997868 0.963199 0.950238
0.997868 0.963199 0.950238
0.997868 0.963199 0.950238
0.997868 0.963199 0.950238
0.997868 0.963199 0.950238
0.997868 0.963199 0.950238
0.997868 0.963199 0.950238
0.013087 0.415538 0.000000
0.013131 0.415087 0.000000
0.013192 0.414456 0.000000
0.013278 0.413568 0.000000
0.013397 0.412587 0.000000
0.012054 0.412678 0.000000
0.010383 0.411852 0.000000
0.125057 0.410889 0.000000
0.278530 0.411803 0.000000
0.402884 0.406555 0.012097
0.517307 0.393574 0.000000
0.628459 0.368285 0.000000
0.726688 0.334341 0.000000
0.810029 0.298419 0.000000
0.877788 0.282199 0.073668
0.931561 0.328864 0.184786
0.973058 0.415933 0.289098
0.990284 0.518382 0.403136
0.997829 0.616234 0.515386
0.999574 0.703953 0.619523
0.998754 0.778126 0.710473
0.997534 0.836814 0.784796
0.996861 0.882058 0.843153
0.996804 0.916128 0.887731
0.997174 0.941353 0.921102
0.997744 0.959819 0.945728
0.997868 0.963199 0.950238
0.997868 0.963199 0.950238
0.997868 0.963199 0.950238
0.997868 0.963199 0.950238
0.997868 0.963199 0.950238
0.997868 0.963199 0.950238
0.997868 0.963199 0.950238
0.007027 0.499004 0.000000
0.007053 0.498693 0.000000
0.007089 0.498258 0.000000
0.007139 0.497648 0.000000
0.007209 0.496791 0.000000
0.008713 0.495457 0.000000
0.011620 0.493232 0.000000
0.017750 0.489596 0.000000
0.171429 0.488296 0.000000
0.342241 0.490543 0.000000
0.477129 0.483304 0.022757
0.603795 0.465094 0.000000
0.713424 0.431634 0.000000
0.802116 0.392796 0.000000
0.871605 0.365252 0.102887
0.922313 0.370655 0.197724
0.960745 0.428748 0.297094
0.990161 0.517323 0.401948
0.997794 0.615540 0.514588
0.999570 0.703515 0.619006
0.998759 0.777886 0.710165
0.997537 0.836680 0.784622
0.996861 0.881984 0.843055
0.996803 0.916087 0.887677
0.997173 0.941331 0.921072
0.997744 0.959807 0.945713
0.997868 0.963199 0.950238
0.997868 0.963199 0.950238
0.997868 0.963199 0.950238
0.997868 0.963199 0.950238
0.997868 0.963199 0.950238
0.997868 0.963199 0.950238
0.997868 0.963199 0.950238
0.030636 0.582605 0.000000
0.030494 0.582364 0.000000
0.030297 0.582026 0.000000
0.030030 0.581551 0.000000
0.029652 0.580885 0.000000
0.029113 0.579951 0.000000
0.031865 0.577170 0.000000
0.037247 0.572279 0.000000
0.049287 0.565603 0.000000
0.220838 0.565435 0.000000
0.406802 0.570900 0.019372
0.554787 0.561634 0.060364
0.688742 0.537097 0.053965
0.791089 0.496422 0.077618
0.865206 0.455693 0.135637
0.917321 0.441891 0.218482
0.952571 0.465555 0.311526
0.977836 0.530114 0.411659
0.997744 0.614565 0.513468
0.999565 0.702901 0.618281
0.998766 0.777542 0.709730
0.997540 0.836492 0.784378
0.996862 0.881880 0.842919
0.996803 0.916030 0.887602
0.997173 0.941300 0.921031
0.997743 0.959790 0.945690
0.997868 0.963199 0.950238
0.997868 0.963199 0.950238
0.997868 0.963199 0.950238
0.997868 0.963199 0.950238
0.997868 0.963199 0.950238
0.997868 0.963199 0.950238
0.997868 0.963199 0.950238
0.069680 0.661971 0.000000
0.069577 0.661817 0.000000
0.069432 0.661601 0.000000
0.069228 0.661299 0.000000
0.068942 0.660875 0.000000
0.068540 0.660283 0.000000
0.067970 0.659451 0.000000
0.072577 0.654889 0.000398
0.081140 0.647599 0.019783
0.097932 0.638283 0.029158
0.275528 0.640859 0.043115
0.471170 0.650891 0.081911
0.634764 0.639221 0.121389
0.768060 0.607989 0.136551
0.857295 0.560888 0.178978
0.912986 0.524999 0.246932
0.948354 0.525313 0.332928
0.970953 0.561317 0.426534
0.986361 0.626470 0.523620
0.999558 0.702040 0.617265
0.998774 0.777019 0.709097
0.997544 0.836228 0.784037
0.996863 0.881734 0.842729
0.996802 0.915950 0.887497
0.997172 0.941257 0.920974
0.997742 0.959767 0.945659
0.997868 0.963199 0.950238
0.997868 0.963199 0.950238
0.997868 0.963199 0.950238
0.997868 0.963199 0.950238
0.997868 0.963199 0.950238
0.997868 0.963199 0.950238
0.997868 0.963199 0.950238
0.122506 0.733158 0.062455
0.122416 0.733063 0.062348
0.122291 0.732930 0.062198
0.122116 0.732744 0.061988
0.121871 0.732485 0.061692
0.121527 0.732121 0.061275
0.121043 0.731612 0.060686
0.120360 0.730898 0.059848
0.127757 0.724331 0.066776
0.139783 0.714930 0.081443
0.160309 0.703758 0.099042
0.333057 0.709941 0.125382
0.535193 0.726305 0.159123
0.708823 0.714584 0.204001
0.837371 0.675633 0.231276
0.908776 0.624761 0.285061
0.945242 0.598066 0.362204
0.967443 0.610283 0.447928
0.980767 0.651999 0.537997
0.989774 0.712353 0.626917
0.998724 0.776348 0.708278
0.997551 0.835860 0.783559
0.996864 0.881531 0.842463
0.996801 0.915839 0.887350
0.997170 0.941197 0.920894
0.997741 0.959734 0.945615
0.997868 0.963199 0.950238
0.997868 0.963199 0.950238
0.997868 0.963199 0.950238
0.997868 0.963199 0.950238
0.997868 0.963199 0.950238
0.997868 0.963199 0.950238
0.997868 0.963199 0.950238
0.191322 0.793934 0.138816
0.191248 0.793877 0.138740
0.191144 0.793796 0.138632
0.190999 0.793684 0.138482
0.190796 0.793528 0.138273
0.190512 0.793309 0.137978
0.190113 0.793002 0.137565
0.189553 0.792573 0.136984
0.188764 0.791970 0.136164
0.199475 0.783657 0.147438
0.214103 0.772972 0.162560
0.238205 0.760796 0.182761
0.398264 0.770407 0.212564
0.601334 0.793476 0.251589
0.775276 0.782237 0.300538
0.893078 0.738890 0.338435
0.943440 0.687889 0.399640
0.965315 0.671123 0.476631
0.978024 0.690873 0.558245
0.985501 0.732364 0.639889
0.990907 0.784665 0.716679
0.997467 0.835448 0.783005
0.996866 0.881246 0.842090
0.996800 0.915684 0.887145
0.997168 0.941112 0.920782
0.997739 0.959689 0.945555
0.997868 0.963199 0.950238
0.997868 0.963199 0.950238
0.997868 0.963199 0.950238
0.997868 0.963199 0.950238
0.997868 0.963199 0.950238
0.997868 0.963199 0.950238
0.997868 0.963199 0.950238
0.275312 0.843488 0.226265
0.275252 0.843455 0.226205
0.275168 0.843408 0.226120
0.275051 0.843343 0.226002
0.274887 0.843251 0.225837
0.274658 0.843124 0.225607
0.274337 0.842945 0.225283
0.273886 0.842695 0.224830
0.273255 0.842345 0.224193
0.272655 0.841694 0.223585
0.285656 0.832505 0.236929
0.303402 0.821238 0.255149
0.331092 0.809072 0.279464
0.472195 0.821169 0.311549
0.664678 0.848911 0.354673
0.831896 0.839020 0.405668
0.933436 0.793530 0.450356
0.965251 0.747708 0.512800
0.976697 0.739775 0.584374
0.983542 0.762260 0.657609
0.987829 0.799805 0.727538
0.991475 0.841983 0.789939
0.996770 0.880960 0.841695
0.996798 0.915466 0.886857
0.997166 0.940994 0.920625
0.997737 0.959625 0.945469
0.997868 0.963199 0.950238
0.997868 0.963199 0.950238
0.997868 0.963199 0.950238
0.997868 0.963199 0.950238
0.997868 0.963199 0.950238
0.997868 0.963199 0.950238
0.997868 0.963199 0.950238
0.371427 0.882028 0.325435
0.371379 0.882009 0.325386
0.371312 0.881983 0.325319
0.371219 0.881946 0.325225
0.371089 0.881895 0.325093
0.370906 0.881824 0.324909
0.370655 0.881725 0.324655
0.370306 0.881585 0.324303
0.369816 0.881390 0.323810
0.369130 0.881116 0.323117
0.369016 0.880258 0.323016
0.383734 0.871103 0.338243
0.403280 0.860249 0.358474
0.432119 0.849098 0.384940
0.552756 0.862288 0.418908
0.724132 0.891710 0.462340
0.877452 0.883778 0.512394
0.959295 0.839612 0.559027
0.977757 0.801535 0.617030
0.982879 0.800453 0.680064
0.986596 0.822104 0.742105
0.989404 0.853342 0.798675
0.992306 0.885905 0.847162
0.996713 0.915261 0.886575
0.997162 0.940829 0.920405
0.997734 0.959536 0.945350
0.997868 0.963199 0.950238
0.997868 0.963199 0.950238
0.997868 0.963199 0.950238
0.997868 0.963199 0.950238
0.997868 0.963199 0.950238
0.997868 0.963199 0.950238
0.997868 0.963199 0.950238
0.476925 0.909989 0.435681
0.476882 0.909981 0.435635
0.476821 0.909970 0.435570
0.476736 0.909954 0.435480
0.476617 0.909933 0.435353
0.476451 0.909903 0.435177
0.476219 0.909861 0.434930
0.475894 0.909802 0.434585
0.475439 0.909720 0.434101
0.474801 0.909604 0.433424
0.473907 0.909443 0.432472
0.473905 0.908573 0.432432
0.488501 0.900346 0.447614
0.507709 0.890856 0.467638
0.535079 0.881571 0.493530
0.633778 0.894367 0.527019
0.778460 0.922835 0.567394
0.911327 0.917193 0.613774
0.974890 0.877722 0.656912
0.984554 0.847926 0.707502
0.986496 0.850660 0.760385
0.988771 0.869793 0.810271
0.990985 0.894237 0.853879
0.993456 0.918935 0.890773
0.997086 0.940684 0.920204
0.997729 0.959411 0.945183
0.997868 0.963199 0.950238
0.997868 0.963199 0.950238
0.997868 0.963199 0.950238
0.997868 0.963199 0.950238
0.997868 0.963199 0.950238
0.997868 0.963199 0.950238
0.997868 0.963199 0.950238
0.579205 0.930443 0.543522
0.579177 0.930438 0.543492
0.579138 0.930432 0.543451
0.579083 0.930424 0.543393
0.579007 0.930413 0.543311
0.578901 0.930396 0.543198
0.578751 0.930374 0.543039
0.578543 0.930342 0.542816
0.578251 0.930298 0.542506
0.577843 0.930236 0.542071
0.577271 0.930149 0.541461
0.576469 0.930028 0.540606
0.576786 0.929187 0.540929
0.590514 0.922250 0.555366
0.608370 0.914477 0.574204
0.633024 0.907239 0.598181
0.710831 0.918779 0.628317
0.826967 0.944458 0.663386
0.935225 0.941478 0.703276
0.983807 0.908462 0.740329
0.988421 0.886241 0.782216
0.989058 0.890560 0.824638
0.990747 0.906184 0.862717
0.992669 0.924965 0.895806
0.994766 0.943357 0.923349
0.997672 0.959306 0.945030
0.997868 0.963199 0.950238
0.997868 0.963199 0.950238
0.997868 0.963199 0.950238
0.997868 0.963199 0.950238
0.997868 0.963199 0.950238
0.997868 0.963199 0.950238
0.997868 0.963199 0.950238
0.671912 0.945671 0.642251
0.671895 0.945668 0.642233
0.671871 0.945665 0.642207
0.671837 0.945660 0.642170
0.671789 0.945654 0.642120
0.671723 0.945645 0.642049
0.671631 0.945632 0.641950
0.671501 0.945615 0.641811
0.671321 0.945590 0.641618
0.671068 0.945556 0.641347
0.670714 0.945508 0.640967
0.670219 0.945440 0.640436
0.669524 0.945346 0.639692
0.670003 0.944605 0.640192
0.682088 0.939178 0.653057
0.697668 0.933225 0.669656
0.718667 0.927998 0.690497
0.778527 0.937876 0.716055
0.868573 0.959446 0.745245
0.952955 0.958156 0.777430
0.988925 0.932713 0.808135
0.990975 0.916736 0.841422
0.991231 0.921112 0.873506
0.992668 0.933533 0.902386
0.994321 0.947665 0.927048
0.996051 0.961208 0.947345
0.997813 0.963282 0.950341
0.997868 0.963199 0.950238
0.997868 0.963199 0.950238
0.997868 0.963199 0.950238
0.997868 0.963199 0.950238
0.997868 0.963199 0.950238
0.997868 0.963199 0.950238
0.751259 0.957447 0.727558
0.751249 0.957445 0.727547
0.751234 0.957444 0.727531
0.751214 0.957441 0.727509
0.751185 0.957437 0.727479
0.751146 0.957432 0.727436
0.751090 0.957425 0.727376
0.751013 0.957414 0.727292
0.750904 0.957400 0.727175
0.750753 0.957380 0.727012
0.750541 0.957352 0.726783
0.750244 0.957313 0.726464
0.749829 0.957258 0.726016
0.749247 0.957181 0.725388
0.749756 0.956582 0.725931
0.759771 0.952635 0.736695
0.772633 0.948384 0.750526
0.789612 0.944878 0.767649
0.834675 0.952988 0.788272
0.901422 0.970068 0.811177
0.966154 0.969843 0.836235
0.992263 0.950677 0.860784
0.992990 0.940255 0.886426
0.993212 0.944111 0.910299
0.994447 0.953700 0.931835
0.995819 0.964208 0.949993
0.996287 0.965774 0.953290
0.997782 0.963318 0.950387
0.997868 0.963199 0.950238
0.997868 0.963199 0.950238
0.997868 0.963199 0.950238
0.997868 0.963199 0.950238
0.997868 0.963199 0.950238
0.815967 0.966928 0.797685
0.815961 0.966927 0.797678
0.815953 0.966926 0.797669
0.815941 0.966925 0.797656
0.815924 0.966922 0.797638
0.815901 0.966919 0.797613
0.815869 0.966915 0.797578
0.815823 0.966909 0.797529
0.815760 0.966900 0.797460
0.815672 0.966888 0.797364
0.815548 0.966871 0.797230
0.815375 0.966847 0.797043
0.815133 0.966814 0.796780
0.814795 0.966768 0.796413
0.814320 0.966704 0.795899
0.814758 0.966257 0.796371
0.822670 0.963548 0.804942
0.832763 0.960714 0.815884
0.845890 0.958527 0.829302
0.879291 0.964970 0.845400
0.927440 0.977964 0.862609
0.975871 0.978317 0.881604
0.994559 0.964184 0.900675
0.994704 0.957815 0.919809
0.994964 0.961166 0.937578
0.995986 0.968394 0.953415
0.996283 0.969540 0.956707
0.996257 0.966851 0.954276
0.997745 0.963366 0.950447
0.997868 0.963199 0.950238
0.997868 0.963199 0.950238
0.997868 0.963199 0.950238
0.997868 0.963199 0.950238
0.866673 0.974757 0.853007
0.866670 0.974756 0.853003
0.866665 0.974755 0.852998
0.866658 0.974754 0.852990
0.866649 0.974753 0.852980
0.866636 0.974751 0.852966
0.866617 0.974748 0.852946
0.866592 0.974744 0.852918
0.866556 0.974738 0.852879
0.866506 0.974731 0.852824
0.866436 0.974720 0.852748
0.866339 0.974705 0.852642
0.866202 0.974684 0.852493
0.866012 0.974654 0.852285
0.865745 0.974613 0.851994
0.865370 0.974555 0.851586
0.865712 0.974239 0.851956
0.871745 0.972461 0.858525
0.879378 0.970671 0.866849
0.889201 0.969404 0.876990
0.913401 0.974346 0.889162
0.947567 0.983965 0.901735
0.983056 0.984550 0.915859
0.996074 0.974738 0.930052
0.996140 0.970640 0.944354
0.996436 0.973676 0.957597
0.996605 0.974328 0.960910
0.996461 0.971990 0.958822
0.996314 0.968394 0.955616
0.997693 0.963438 0.950539
0.997868 0.963199 0.950238
0.997868 0.963199 0.950238
0.997868 0.963199 0.950238
0.904931 0.981136 0.894965
0.904929 0.981136 0.894963
0.904927 0.981136 0.894961
0.904924 0.981135 0.894957
0.904920 0.981134 0.894952
0.904914 0.981133 0.894946
0.904905 0.981132 0.894937
0.904894 0.981130 0.894924
0.904877 0.981127 0.894906
0.904855 0.981124 0.894881
0.904823 0.981118 0.894846
0.904779 0.981111 0.894797
0.904717 0.981101 0.894729
0.904631 0.981086 0.894634
0.904510 0.981066 0.894500
0.904340 0.981038 0.894314
0.904103 0.980999 0.894052
0.904440 0.980790 0.894414
0.908948 0.979691 0.899346
0.914567 0.978619 0.905491
0.921749 0.977940 0.912970
0.938543 0.981499 0.921792
0.962852 0.988554 0.930982
0.988355 0.989172 0.941340
0.997251 0.982611 0.951737
0.997319 0.980108 0.962353
0.997225 0.979903 0.965708
0.997025 0.978046 0.964083
0.996751 0.975112 0.961503
0.996462 0.970473 0.957391
0.997616 0.963540 0.950665
0.997868 0.963199 0.950238
0.997868 0.963199 0.950238
0.932950 0.986195 0.925820
0.932950 0.986194 0.925819
0.932948 0.986194 0.925818
0.932947 0.986194 0.925816
0.932945 0.986194 0.925813
0.932941 0.986193 0.925810
0.932937 0.986192 0.925805
0.932930 0.986191 0.925798
0.932922 0.986189 0.925788
0.932909 0.986187 0.925775
0.932892 0.986184 0.925756
0.932868 0.986180 0.925729
0.932835 0.986174 0.925692
0.932788 0.986166 0.925640
0.932722 0.986154 0.925568
0.932630 0.986137 0.925467
0.932502 0.986114 0.925325
0.932322 0.986082 0.925126
0.932574 0.985941 0.925399
0.935952 0.985269 0.929100
0.940177 0.984676 0.933730
0.945544 0.984403 0.939343
0.957241 0.987000 0.945819
0.974293 0.992054 0.952565
0.991820 0.992754 0.959870
0.998162 0.988418 0.967645
0.998267 0.986588 0.970974
0.998022 0.984949 0.969722
0.997694 0.982617 0.967836
0.997222 0.979002 0.964791
0.996695 0.973168 0.959687
0.997510 0.963677 0.950842
0.997868 0.963199 0.950238
0.953615 0.990187 0.948623
0.953614 0.990187 0.948623
0.953613 0.990187 0.948622
0.953613 0.990187 0.948621
0.953611 0.990186 0.948620
0.953610 0.990186 0.948618
0.953607 0.990186 0.948615
0.953604 0.990185 0.948612
0.953599 0.990184 0.948606
0.953592 0.990183 0.948599
0.953583 0.990181 0.948589
0.953570 0.990179 0.948574
0.953552 0.990175 0.948554
0.953527 0.990170 0.948526
0.953491 0.990164 0.948487
0.953442 0.990154 0.948432
0.953372 0.990141 0.948356
0.953275 0.990122 0.948249
0.953140 0.990097 0.948099
0.953325 0.990005 0.948299
0.955780 0.989616 0.950994
0.958890 0.989296 0.954403
0.962798 0.989231 0.958507
0.970983 0.991139 0.963160
0.982882 0.994720 0.968154
0.994445 0.995355 0.973469
0.998363 0.993555 0.976267
0.998449 0.992457 0.975399
0.998583 0.990793 0.974081
0.998592 0.988172 0.972028
0.997964 0.983777 0.968650
0.997074 0.976676 0.962651
0.997353 0.963874 0.951086
0.963359 0.992065 0.959385
0.963359 0.992065 0.959385
0.963359 0.992065 0.959385
0.963359 0.992065 0.959385
0.963359 0.992065 0.959385
0.963359 0.992065 0.959385
0.963359 0.992065 0.959384
0.963359 0.992065 0.959384
0.963359 0.992065 0.959384
0.963358 0.992065 0.959384
0.963358 0.992065 0.959384
0.963358 0.992065 0.959383
0.963357 0.992065 0.959383
0.963356 0.992065 0.959382
0.963355 0.992066 0.959380
0.963354 0.992066 0.959379
0.963352 0.992067 0.959376
0.963349 0.992067 0.959373
