Assets/Data/Textures/70 CGC LUTs/LUTs_AgX_Filmic_ViewTransforms/ARRILogC4AWG4-to-JP2499DRT-ClassicCinemaNegative-sRGB.cube
#  Baked from the PixelManager OCIO config by Joe Genco
#  https://github.com/Joegenco/PixelManager
#  Input Gamma: Arri LogC4
#  Input Color Space: Arri Wide Gamut 4
#  floating point data (range 0.0 - 1.0)   
#       
#  Output Gamma: Gamma 2.2 (Display)
#  Output Color Space: Rec.709
#  floating point data (range 0.0 - 1.0)
LUT_3D_SIZE 9
0.005105 0.019901 0.031404
0.037416 0.020342 0.031115
0.253782 0.022240 0.021531
0.574455 0.053241 0.042704
0.840753 0.181686 0.069692
0.964305 0.496681 0.258246
0.990667 0.771231 0.607447
0.991864 0.905625 0.841145
0.988177 0.944345 0.961884
0.006135 0.042017 0.030430
0.052324 0.053104 0.028120
0.287007 0.025455 0.023469
0.581440 0.054472 0.043271
0.841163 0.182490 0.070533
0.964351 0.496902 0.260215
0.990665 0.771266 0.607830
0.991863 0.905629 0.841192
0.988177 0.944347 0.961886
0.005114 0.223389 0.005950
0.005109 0.240950 0.005683
0.334095 0.307589 0.005056
0.676841 0.164640 0.045891
0.858906 0.217152 0.071786
0.965065 0.501020 0.266490
0.990656 0.771399 0.609285
0.991861 0.905645 0.841367
0.988176 0.944356 0.961895
0.025014 0.531876 0.011701
0.025168 0.533215 0.011755
0.042846 0.598545 0.013874
0.664234 0.628018 0.008341
0.890003 0.495904 0.050455
0.970081 0.544500 0.276848
0.990743 0.775699 0.613891
0.991851 0.905705 0.842035
0.988174 0.944391 0.961930
0.328431 0.800074 0.034494
0.329055 0.800329 0.034676
0.350115 0.808707 0.037678
0.449059 0.846587 0.059322
0.877918 0.853936 0.041140
0.972273 0.790355 0.243171
0.991066 0.804719 0.623379
0.991866 0.908052 0.844187
0.988164 0.944520 0.962061
0.765895 0.934205 0.327559
0.765995 0.934225 0.327801
0.766374 0.934297 0.328718
0.783440 0.937710 0.351382
0.836458 0.950067 0.424703
0.962689 0.954077 0.465768
0.987903 0.929439 0.625868
0.991778 0.924147 0.850478
0.988333 0.948120 0.964014
0.937297 0.976193 0.657536
0.937303 0.976195 0.657576
0.937325 0.976202 0.657728
0.937409 0.976227 0.658302
0.941691 0.977499 0.672874
0.953310 0.981443 0.721692
0.983257 0.983411 0.755296
0.989354 0.977131 0.851375
0.987842 0.971774 0.968829
0.974668 0.989383 0.843748
0.974669 0.989383 0.843753
0.974671 0.989383 0.843774
0.974677 0.989385 0.843853
0.974702 0.989392 0.844150
0.976079 0.989828 0.852852
0.979325 0.991361 0.877554
0.987809 0.991974 0.893177
0.986698 0.990872 0.965581
0.975376 0.988854 0.960209
0.975376 0.988854 0.960211
0.975375 0.988854 0.960220
0.975375 0.988853 0.960256
0.975373 0.988852 0.960390
0.975366 0.988849 0.960900
0.977836 0.990176 0.966187
0.986622 0.990797 0.970206
0.986474 0.990650 0.979117
0.005632 0.021304 0.039702
0.052338 0.023542 0.051217
0.290437 0.025951 0.027740
0.590191 0.056705 0.046908
0.844548 0.188813 0.076822
0.964544 0.498640 0.274940
0.990649 0.771569 0.610815
0.991858 0.905662 0.841556
0.988176 0.944366 0.961905
0.002965 0.058557 0.054580
0.055297 0.069080 0.072621
0.336273 0.029406 0.032977
0.599583 0.058249 0.047791
0.844905 0.189495 0.077627
0.964558 0.498835 0.276781
0.990647 0.771604 0.611194
0.991857 0.905666 0.841601
0.988175 0.944368 0.961907
0.005685 0.266942 0.006168
0.006371 0.287958 0.006531
0.367364 0.337579 0.005803
0.690163 0.172171 0.049608
0.862615 0.224111 0.079823
0.965272 0.503146 0.282798
0.990639 0.771736 0.612633
0.991855 0.905681 0.841777
0.988175 0.944377 0.961916
0.026931 0.548066 0.012468
0.027074 0.549181 0.012536
0.046784 0.611515 0.014554
0.671736 0.635392 0.008530
0.892728 0.499821 0.057718
0.970231 0.546289 0.293306
0.990725 0.776074 0.617006
0.991845 0.905741 0.842443
0.988172 0.944412 0.961951
0.335941 0.803140 0.036580
0.336458 0.803363 0.036738
0.356951 0.811566 0.039471
0.454389 0.848466 0.062245
0.878900 0.855106 0.042098
0.972584 0.791132 0.263103
0.991048 0.804976 0.626411
0.991860 0.908093 0.844589
0.988162 0.944541 0.962082
0.767163 0.934449 0.330434
0.767260 0.934467 0.330668
0.767626 0.934537 0.331555
0.784626 0.937940 0.353956
0.837031 0.950197 0.426269
0.962748 0.954165 0.466686
0.987889 0.929465 0.628759
0.991770 0.924184 0.850982
0.988331 0.948143 0.964036
0.937372 0.976216 0.658017
0.937378 0.976218 0.658056
0.937400 0.976224 0.658207
0.937483 0.976249 0.658777
0.941762 0.977519 0.673263
0.953348 0.981454 0.721954
0.983261 0.983418 0.755432
0.989349 0.977130 0.851739
0.987842 0.971777 0.968846
0.974674 0.989384 0.843810
0.974674 0.989384 0.843815
0.974676 0.989385 0.843836
0.974682 0.989386 0.843914
0.974707 0.989393 0.844211
0.976084 0.989830 0.852906
0.979327 0.991362 0.877637
0.987808 0.991974 0.893190
0.986698 0.990872 0.965600
0.975375 0.988853 0.960236
0.975375 0.988853 0.960239
0.975375 0.988853 0.960248
0.975375 0.988853 0.960283
0.975373 0.988852 0.960418
0.975366 0.988848 0.960927
0.977835 0.990176 0.966202
0.986622 0.990796 0.970221
0.986474 0.990650 0.979122
0.012884 0.040323 0.149004
0.023405 0.050286 0.190923
0.324060 0.057235 0.243817
0.625785 0.080684 0.189688
0.859348 0.216930 0.156280
0.965095 0.505289 0.332048
0.990569 0.772828 0.622817
0.991835 0.905801 0.843107
0.988170 0.944446 0.961986
0.019869 0.066195 0.236670
0.023297 0.075775 0.275475
0.364447 0.072562 0.289722
0.644185 0.086552 0.203921
0.859946 0.218182 0.159972
0.965106 0.505455 0.333612
0.990566 0.772861 0.623161
0.991834 0.905805 0.843152
0.988169 0.944448 0.961988
0.003784 0.299224 0.267555
0.003959 0.313402 0.285665
0.345015 0.351188 0.340573
0.715826 0.209379 0.252940
0.877200 0.254745 0.174121
0.965898 0.510512 0.338663
0.990556 0.772987 0.624468
0.991832 0.905821 0.843326
0.988169 0.944457 0.961997
0.036336 0.590807 0.091857
0.036654 0.592416 0.101745
0.060698 0.646921 0.142416
0.693045 0.659350 0.090641
0.905357 0.514672 0.150700
0.970691 0.552552 0.348022
0.990630 0.777472 0.628589
0.991822 0.905880 0.843985
0.988166 0.944491 0.962031
0.359359 0.813576 0.047229
0.359826 0.813825 0.047699
0.380116 0.822092 0.054602
0.474524 0.856491 0.085795
0.884375 0.861128 0.074567
0.972979 0.793176 0.332257
0.990967 0.805936 0.637639
0.991839 0.908255 0.846111
0.988157 0.944621 0.962162
0.771631 0.935316 0.340654
0.771713 0.935332 0.340866
0.772020 0.935395 0.341669
0.788733 0.938767 0.363221
0.839096 0.950668 0.431898
0.962966 0.954486 0.470048
0.987836 0.929566 0.639435
0.991741 0.924329 0.852880
0.988326 0.948227 0.964119
0.937654 0.976301 0.659813
0.937660 0.976302 0.659851
0.937681 0.976309 0.659997
0.937762 0.976332 0.660549
0.942026 0.977594 0.674735
0.953491 0.981494 0.722845
0.983277 0.983446 0.755946
0.989330 0.977126 0.853117
0.987840 0.971790 0.968908
0.974693 0.989389 0.844043
0.974693 0.989389 0.844048
0.974695 0.989390 0.844069
0.974702 0.989392 0.844147
0.974726 0.989398 0.844441
0.976102 0.989835 0.853110
0.979335 0.991364 0.877952
0.987803 0.991969 0.893526
0.986697 0.990871 0.965668
0.975374 0.988853 0.960342
0.975374 0.988853 0.960344
0.975374 0.988853 0.960353
0.975373 0.988852 0.960389
0.975371 0.988851 0.960523
0.975365 0.988848 0.961031
0.977831 0.990174 0.966258
0.986621 0.990795 0.970277
0.986474 0.990649 0.979141
0.036049 0.148662 0.454666
0.037935 0.165856 0.483405
0.272954 0.211952 0.543398
0.659937 0.248116 0.558509
0.871305 0.321102 0.506950
0.965450 0.532964 0.505487
0.990218 0.777224 0.663400
0.991735 0.906462 0.849362
0.988147 0.944748 0.962291
0.038259 0.172083 0.492300
0.039509 0.188585 0.517266
0.271573 0.232226 0.570481
0.672104 0.262530 0.574482
0.874916 0.328660 0.513821
0.965445 0.533141 0.506577
0.990215 0.777252 0.663686
0.991734 0.906469 0.849415
0.988147 0.944750 0.962293
0.031640 0.312428 0.558026
0.032448 0.322897 0.574287
0.165253 0.353162 0.625340
0.703272 0.317891 0.620901
0.887610 0.357138 0.537917
0.966552 0.541306 0.512042
0.990206 0.777360 0.664774
0.991730 0.906494 0.849618
0.988146 0.944759 0.962302
0.022799 0.606328 0.565559
0.023680 0.610520 0.571047
0.034772 0.642244 0.607491
0.661839 0.660899 0.641360
0.908704 0.549690 0.585647
0.970873 0.578288 0.529587
0.990284 0.782350 0.668283
0.991717 0.906590 0.850387
0.988144 0.944792 0.962336
0.407655 0.835900 0.446284
0.407682 0.835880 0.448081
0.426679 0.842731 0.461036
0.507186 0.866986 0.509420
0.890794 0.870608 0.512820
0.972790 0.798067 0.533301
0.990646 0.809459 0.676626
0.991721 0.909186 0.853036
0.988134 0.944921 0.962466
0.786188 0.938070 0.400123
0.786261 0.938082 0.400601
0.786536 0.938128 0.402413
0.800854 0.941383 0.420768
0.846830 0.952272 0.477203
0.963488 0.955363 0.524073
0.987589 0.929820 0.679796
0.991632 0.924872 0.859942
0.988305 0.948546 0.964429
0.938660 0.976584 0.665784
0.938665 0.976586 0.665816
0.938684 0.976591 0.665934
0.938756 0.976611 0.666382
0.942975 0.977864 0.679990
0.954009 0.981639 0.725976
0.983337 0.983549 0.757831
0.989260 0.977113 0.858269
0.987832 0.971865 0.969130
0.974765 0.989409 0.844915
0.974766 0.989409 0.844920
0.974768 0.989410 0.844940
0.974774 0.989411 0.845015
0.974798 0.989418 0.845301
0.976171 0.989854 0.853893
0.979367 0.991374 0.879135
0.987783 0.991949 0.894925
0.986693 0.990867 0.965929
0.975368 0.988850 0.960741
0.975368 0.988850 0.960743
0.975368 0.988850 0.960753
0.975368 0.988849 0.960788
0.975366 0.988848 0.960921
0.975359 0.988845 0.961425
0.977817 0.990169 0.966470
0.986617 0.990792 0.970493
0.986473 0.990648 0.979212
0.043458 0.410701 0.750589
0.043604 0.418500 0.756457
0.059613 0.444491 0.775097
0.594657 0.496866 0.803243
0.878549 0.553854 0.808015
0.963690 0.636160 0.780558
0.988657 0.795934 0.779527
0.991309 0.909539 0.872043
0.988064 0.945869 0.963424
0.043126 0.420368 0.757452
0.043256 0.427833 0.763110
0.054958 0.453189 0.780576
0.594903 0.503828 0.807801
0.880004 0.557834 0.810311
0.963962 0.638068 0.781826
0.988654 0.795962 0.779706
0.991308 0.909545 0.872079
0.988063 0.945871 0.963426
0.041665 0.456284 0.777262
0.041620 0.462686 0.781869
0.045043 0.484962 0.797045
0.591435 0.528093 0.821279
0.885335 0.572504 0.818733
0.964879 0.644735 0.786231
0.988650 0.796283 0.780435
0.991306 0.909568 0.872218
0.988063 0.945880 0.963435
0.042988 0.624653 0.804810
0.043825 0.628481 0.808198
0.046796 0.641477 0.818775
0.509756 0.665214 0.842874
0.895143 0.637030 0.841387
0.967894 0.670867 0.801364
0.988795 0.801973 0.783984
0.991295 0.909654 0.872747
0.988061 0.945912 0.963468
0.455237 0.841071 0.800883
0.457779 0.841918 0.801894
0.473858 0.846675 0.807780
0.524982 0.861474 0.827060
0.874082 0.868261 0.842428
0.969498 0.814648 0.823102
0.989186 0.824846 0.793850
0.991318 0.912494 0.874807
0.988051 0.946035 0.963592
0.808582 0.940880 0.720685
0.808586 0.940876 0.721002
0.808601 0.940861 0.722203
0.821145 0.943841 0.732842
0.855960 0.952153 0.764494
0.961764 0.954919 0.782098
0.986599 0.930554 0.796304
0.991286 0.926853 0.880421
0.988228 0.949734 0.965540
0.941871 0.977366 0.703379
0.941874 0.977367 0.703457
0.941889 0.977370 0.703754
0.941942 0.977380 0.704878
0.945393 0.978638 0.717506
0.955777 0.982026 0.753145
0.983274 0.983632 0.788527
0.989017 0.977049 0.875237
0.987800 0.972144 0.969958
0.975023 0.989479 0.848010
0.975023 0.989479 0.848015
0.975025 0.989480 0.848032
0.975031 0.989481 0.848100
0.975052 0.989487 0.848357
0.976414 0.989917 0.857186
0.979478 0.991409 0.883374
0.987708 0.991875 0.900042
0.986677 0.990851 0.966903
0.975346 0.988840 0.962116
0.975346 0.988840 0.962118
0.975346 0.988840 0.962124
0.975345 0.988840 0.962149
0.975343 0.988840 0.962242
0.975334 0.988838 0.962595
0.977771 0.990155 0.967260
0.986604 0.990779 0.971299
0.986468 0.990644 0.979483
0.055494 0.703383 0.904457
0.057142 0.705198 0.905244
0.066071 0.711756 0.908142
0.334614 0.733707 0.917830
0.830787 0.768713 0.922437
0.957742 0.810447 0.924055
0.984800 0.856888 0.913256
0.990146 0.920201 0.919699
0.987773 0.949784 0.967228
0.055927 0.705491 0.905260
0.057572 0.707301 0.906045
0.066168 0.713799 0.908874
0.328432 0.735597 0.918399
0.830727 0.770069 0.922883
0.957834 0.811060 0.924303
0.984811 0.857166 0.913383
0.990146 0.920207 0.919717
0.987773 0.949786 0.967230
0.057468 0.712903 0.908032
0.059094 0.714693 0.908776
0.066532 0.720975 0.911449
0.307183 0.742440 0.920380
0.830444 0.774851 0.924460
0.958251 0.813532 0.925270
0.984847 0.858109 0.913821
0.990144 0.920229 0.919785
0.987773 0.949793 0.967237
0.080880 0.743342 0.916781
0.082935 0.744790 0.917293
0.091218 0.749924 0.919203
0.232976 0.766337 0.926518
0.828067 0.791719 0.929597
0.959598 0.822561 0.928809
0.984992 0.861833 0.915442
0.990144 0.920604 0.920135
0.987771 0.949822 0.967265
0.476251 0.852970 0.924265
0.477755 0.853482 0.924581
0.482936 0.855386 0.925803
0.501715 0.862000 0.930152
0.795826 0.870954 0.935295
0.962279 0.859374 0.935529
0.985500 0.874411 0.921189
0.990194 0.923609 0.922002
0.987763 0.949930 0.967368
0.826264 0.942682 0.914225
0.826798 0.942826 0.914411
0.828641 0.943371 0.915124
0.834696 0.945273 0.917767
0.854214 0.950221 0.926177
0.955344 0.953195 0.933316
0.984462 0.935555 0.927991
0.990305 0.934220 0.926461
0.987965 0.953890 0.968973
0.944858 0.977438 0.879558
0.944858 0.977437 0.879596
0.944855 0.977435 0.879740
0.944891 0.977448 0.880340
0.947750 0.978403 0.885647
0.956191 0.981116 0.900483
0.981864 0.982661 0.910193
0.988231 0.976855 0.926967
0.987686 0.973162 0.972864
0.975733 0.989531 0.874103
0.975733 0.989531 0.874112
0.975734 0.989531 0.874147
0.975738 0.989531 0.874279
0.975752 0.989532 0.874780
0.976849 0.989999 0.880299
0.979775 0.991498 0.897600
0.987468 0.991637 0.916419
0.986622 0.990796 0.970236
0.975250 0.988821 0.965861
0.975250 0.988821 0.965862
0.975250 0.988821 0.965866
0.975249 0.988821 0.965883
0.975247 0.988821 0.965947
0.975240 0.988821 0.966187
0.977617 0.990110 0.969962
0.986558 0.990733 0.974106
0.986452 0.990628 0.980428
0.467849 0.891452 0.964304
0.469148 0.891668 0.964362
0.474819 0.892462 0.964568
0.500401 0.895273 0.965265
0.687651 0.902826 0.965835
0.938580 0.915958 0.965111
0.980570 0.932756 0.965973
0.988193 0.947266 0.963950
0.986994 0.960141 0.974606
0.468578 0.891716 0.964373
0.469878 0.891931 0.964431
0.475356 0.892720 0.964637
0.500490 0.895527 0.965336
0.686777 0.903068 0.965898
0.938577 0.916107 0.965154
0.980576 0.932816 0.965996
0.988195 0.947291 0.963962
0.986994 0.960142 0.974607
0.471293 0.892697 0.964631
0.472596 0.892913 0.964690
0.477356 0.893685 0.964895
0.501044 0.896477 0.965599
0.683735 0.903927 0.966132
0.938567 0.916662 0.965317
0.980602 0.933050 0.966086
0.988200 0.947384 0.964008
0.986994 0.960146 0.974610
0.480821 0.896151 0.965540
0.482139 0.896370 0.965599
0.486633 0.897141 0.965807
0.508073 0.899788 0.966516
0.675293 0.906600 0.966918
0.938516 0.918615 0.965889
0.980715 0.933991 0.966440
0.988220 0.947784 0.964225
0.986992 0.960161 0.974621
0.541198 0.908994 0.967719
0.541872 0.909131 0.967756
0.544105 0.909641 0.967902
0.554207 0.911455 0.968385
0.645615 0.916918 0.969352
0.937873 0.925058 0.967763
0.981067 0.937351 0.967708
0.988298 0.949242 0.964923
0.987027 0.960572 0.974829
0.811586 0.948481 0.965898
0.811758 0.948525 0.965928
0.812334 0.948690 0.966051
0.814652 0.949318 0.966509
0.823095 0.951518 0.968141
0.930110 0.954021 0.969751
0.981609 0.950490 0.970268
0.988530 0.954664 0.967227
0.987313 0.963800 0.976287
0.945769 0.977939 0.961105
0.945800 0.977949 0.961125
0.945919 0.977989 0.961202
0.946362 0.978137 0.961490
0.948004 0.978689 0.962566
0.953311 0.980488 0.966039
0.979550 0.981867 0.969234
0.987477 0.977544 0.969240
0.987451 0.975266 0.978826
0.975464 0.988902 0.953557
0.975464 0.988902 0.953561
0.975464 0.988902 0.953576
0.975463 0.988901 0.953631
0.975485 0.988913 0.953842
0.976318 0.989376 0.955680
0.978886 0.990738 0.961401
0.986680 0.990854 0.966678
0.986493 0.990669 0.977979
0.974952 0.988802 0.974105
0.974952 0.988803 0.974106
0.974951 0.988802 0.974108
0.974950 0.988802 0.974117
0.974947 0.988802 0.974152
0.974936 0.988801 0.974284
0.977068 0.989971 0.976785
0.986469 0.990645 0.979420
0.986420 0.990596 0.982332
0.783761 0.961972 0.982204
0.783925 0.961988 0.982208
0.784535 0.962047 0.982221
0.787457 0.962257 0.982262
0.800449 0.962990 0.982359
0.889918 0.964447 0.981678
0.974973 0.968771 0.981576
0.986543 0.972945 0.981826
0.986417 0.972088 0.981418
0.783863 0.961993 0.982209
0.784027 0.962008 0.982213
0.784637 0.962067 0.982227
0.787535 0.962277 0.982267
0.800469 0.963011 0.982365
0.889819 0.964468 0.981686
0.974974 0.968783 0.981581
0.986544 0.972952 0.981830
0.986419 0.972096 0.981422
0.784250 0.962069 0.982230
0.784414 0.962085 0.982233
0.785024 0.962144 0.982247
0.787828 0.962354 0.982289
0.800544 0.963088 0.982388
0.889442 0.964549 0.981716
0.974974 0.968826 0.981601
0.986548 0.972982 0.981843
0.986423 0.972127 0.981437
0.785687 0.962355 0.982305
0.785852 0.962371 0.982309
0.786464 0.962430 0.982323
0.788919 0.962638 0.982368
0.800821 0.963377 0.982473
0.888143 0.964849 0.981829
0.974977 0.968989 0.981674
0.986564 0.973090 0.981895
0.986440 0.972241 0.981491
0.790732 0.963360 0.982558
0.790899 0.963376 0.982561
0.791518 0.963436 0.982574
0.793695 0.963645 0.982618
0.804594 0.964382 0.982734
0.884688 0.965923 0.982209
0.974986 0.969560 0.981932
0.986618 0.973469 0.982075
0.986497 0.972626 0.981675
0.825205 0.967457 0.982991
0.825276 0.967472 0.982995
0.825541 0.967527 0.983012
0.826466 0.967712 0.983073
0.830821 0.968371 0.983275
0.872773 0.969829 0.983441
0.974909 0.971664 0.982739
0.986804 0.974839 0.982555
0.986702 0.974069 0.982303
0.940236 0.980119 0.981486
0.940248 0.980123 0.981490
0.940293 0.980139 0.981503
0.940461 0.980206 0.981560
0.941131 0.980455 0.981770
0.943484 0.981315 0.982512
0.973164 0.982273 0.983201
0.986957 0.981518 0.982903
0.987001 0.980203 0.982986
0.974345 0.988799 0.979421
0.974349 0.988801 0.979424
0.974366 0.988807 0.979434
0.974426 0.988829 0.979472
0.974644 0.988917 0.979621
0.975231 0.989231 0.980153
0.977066 0.990196 0.981698
0.986420 0.990596 0.982332
0.986420 0.990596 0.982332
0.974300 0.988782 0.979393
0.974300 0.988782 0.979393
0.974300 0.988782 0.979393
0.974300 0.988782 0.979393
0.974300 0.988782 0.979393
0.974409 0.988823 0.979461
0.976490 0.989906 0.981313
0.986420 0.990596 0.982332
0.986420 0.990596 0.982332
0.947588 0.982201 0.982552
0.947597 0.982204 0.982555
0.947632 0.982217 0.982566
0.947759 0.982263 0.982602
0.948513 0.982434 0.982720
0.953336 0.982839 0.983080
0.978987 0.982906 0.983017
0.986941 0.982112 0.982866
0.986972 0.981046 0.982933
0.947634 0.982210 0.982551
0.947643 0.982213 0.982554
0.947677 0.982226 0.982565
0.947804 0.982272 0.982601
0.948556 0.982444 0.982718
0.953353 0.982847 0.983080
0.978986 0.982914 0.983016
0.986941 0.982119 0.982865
0.986972 0.981057 0.982932
0.947807 0.982245 0.982546
0.947816 0.982248 0.982549
0.947851 0.982261 0.982561
0.947978 0.982307 0.982596
0.948720 0.982478 0.982713
0.953417 0.982875 0.983077
0.978983 0.982945 0.983014
0.986940 0.982148 0.982864
0.986970 0.981098 0.982930
0.948464 0.982377 0.982530
0.948473 0.982380 0.982533
0.948507 0.982392 0.982544
0.948634 0.982438 0.982578
0.949343 0.982589 0.982695
0.953660 0.982980 0.983069
0.978972 0.983061 0.983007
0.986938 0.982256 0.982857
0.986965 0.981254 0.982920
0.950915 0.982774 0.982473
0.950924 0.982776 0.982476
0.950959 0.982785 0.982485
0.951088 0.982819 0.982516
0.951669 0.982944 0.982632
0.954449 0.983377 0.983041
0.978920 0.983493 0.982981
0.986916 0.982658 0.982832
0.986949 0.981784 0.982887
0.956885 0.983979 0.982175
0.956892 0.983981 0.982178
0.956917 0.983990 0.982190
0.957010 0.984026 0.982235
0.957348 0.984153 0.982354
0.959098 0.984610 0.982772
0.978616 0.984921 0.982897
0.986818 0.984232 0.982733
0.986873 0.983345 0.982789
0.969055 0.987315 0.981306
0.969059 0.987316 0.981309
0.969077 0.987322 0.981319
0.969141 0.987344 0.981359
0.969366 0.987422 0.981498
0.970205 0.987720 0.981945
0.977811 0.988311 0.982699
0.986574 0.988145 0.982487
0.986597 0.987772 0.982511
0.975266 0.989249 0.980185
0.975268 0.989251 0.980187
0.975277 0.989255 0.980195
0.975320 0.989278 0.980234
0.975468 0.989358 0.980370
0.975975 0.989630 0.980836
0.977761 0.990468 0.982073
0.986420 0.990596 0.982332
0.986420 0.990596 0.982332
0.974475 0.988847 0.979503
0.974479 0.988849 0.979506
0.974496 0.988855 0.979516
0.974557 0.988878 0.979555
0.974741 0.988966 0.979704
0.975307 0.989271 0.980222
0.977145 0.990230 0.981740
0.986420 0.990596 0.982332
0.986420 0.990596 0.982332
