Assets/Data/Textures/70 CGC LUTs/LUTs_AgX_Filmic_ViewTransforms/ARRILogC4AWG4-to-JP2499DRT-sRGB.cube
#  Baked from the PixelManager OCIO config by Joe Genco
#  https://github.com/Joegenco/PixelManager
#  Input Gamma: Arri LogC4
#  Input Color Space: Arri Wide Gamut 4
#  floating point data (range 0.0 - 1.0)   
#       
#  Output Gamma: Gamma 2.2 (Display)
#  Output Color Space: Rec.709
#  floating point data (range 0.0 - 1.0)
LUT_3D_SIZE 5
0.001953 0.001953 0.001953
0.272237 0.021476 0.019754
0.819839 0.205344 0.074098
0.997297 0.750262 0.606974
0.997814 0.944268 0.982202
0.007036 0.237731 0.004850
0.345575 0.315980 0.004731
0.839352 0.237086 0.077195
0.997293 0.750426 0.608799
0.997813 0.944282 0.982212
0.342343 0.782965 0.048113
0.360130 0.792794 0.051413
0.863022 0.842501 0.062185
0.997860 0.785708 0.623286
0.997799 0.944485 0.982366
0.931277 0.981735 0.654914
0.931311 0.981744 0.655113
0.936664 0.983102 0.670924
0.991571 0.989491 0.758234
0.997304 0.976695 0.987324
0.981966 0.994535 0.980270
0.981966 0.994535 0.980281
0.981964 0.994534 0.980441
0.985592 0.995599 0.984928
0.995978 0.995978 0.994136
0.014737 0.037417 0.170132
0.338117 0.068889 0.266301
0.837765 0.237154 0.191434
0.997275 0.751817 0.622382
0.997806 0.944393 0.982296
0.004847 0.309568 0.287861
0.356251 0.356217 0.356242
0.858218 0.270500 0.207631
0.997267 0.751973 0.624025
0.997805 0.944407 0.982306
0.368197 0.798289 0.076745
0.386139 0.807337 0.088107
0.870247 0.849620 0.110765
0.997865 0.787122 0.637314
0.997791 0.944609 0.982459
0.931717 0.981842 0.657268
0.931750 0.981850 0.657459
0.937076 0.983202 0.672845
0.991597 0.989530 0.758955
0.997301 0.976712 0.987384
0.981965 0.994534 0.980395
0.981965 0.994534 0.980406
0.981963 0.994533 0.980565
0.985585 0.995598 0.984997
0.995978 0.995978 0.994150
0.045133 0.409166 0.750794
0.074920 0.439792 0.777487
0.858990 0.537822 0.814264
0.996255 0.775235 0.785420
0.997685 0.946150 0.983615
0.044376 0.450069 0.779438
0.052604 0.476106 0.801484
0.865912 0.555339 0.826351
0.996254 0.775640 0.786422
0.997684 0.946164 0.983622
0.449488 0.823350 0.807315
0.465629 0.829780 0.814980
0.854794 0.854775 0.854791
0.997429 0.806458 0.800727
0.997672 0.946357 0.983729
0.936936 0.982968 0.702794
0.936958 0.982972 0.703194
0.942082 0.984287 0.717840
0.991662 0.989595 0.794309
0.997264 0.977092 0.988182
0.981944 0.994527 0.981788
0.981944 0.994527 0.981794
0.981941 0.994527 0.981881
0.985507 0.995581 0.985958
0.995974 0.995974 0.994363
0.456674 0.881130 0.985762
0.462982 0.882223 0.985999
0.661143 0.894006 0.987197
0.988392 0.930523 0.985885
0.996516 0.963321 0.991882
0.459801 0.882470 0.986054
0.465235 0.883537 0.986290
0.657136 0.895269 0.987444
0.988443 0.930871 0.985962
0.996516 0.963327 0.991884
0.522815 0.901398 0.988651
0.525572 0.902304 0.988806
0.620235 0.911170 0.990204
0.989191 0.935975 0.987050
0.996542 0.963876 0.991998
0.943024 0.983626 0.981387
0.943221 0.983681 0.981477
0.945953 0.984452 0.982675
0.987533 0.987531 0.987533
0.996946 0.980487 0.994311
0.981524 0.994528 0.990919
0.981524 0.994528 0.990921
0.981519 0.994528 0.990948
0.984613 0.995453 0.992829
0.995947 0.995947 0.995947
0.945683 0.988183 0.996838
0.945740 0.988196 0.996844
0.946896 0.988378 0.996923
0.986987 0.988798 0.996627
0.996455 0.986803 0.996515
0.945969 0.988219 0.996830
0.946026 0.988232 0.996836
0.947167 0.988415 0.996916
0.986982 0.988843 0.996624
0.996454 0.986848 0.996512
0.950024 0.988732 0.996721
0.950081 0.988745 0.996727
0.951009 0.988929 0.996806
0.986908 0.989480 0.996586
0.996443 0.987488 0.996472
0.974257 0.993171 0.995651
0.974283 0.993178 0.995657
0.974623 0.993274 0.995736
0.985696 0.994069 0.996325
0.996099 0.993503 0.996099
0.981012 0.994598 0.994577
0.981031 0.994605 0.994585
0.981317 0.994712 0.994696
0.984809 0.995660 0.995695
0.995947 0.995947 0.995947
