Assets/Data/Textures/70 CGC LUTs/LUTs_AgX_Filmic_ViewTransforms/ARRILogC4AWG4-to-AgX-BlenderPunchy-sRGB.cube
#  Baked from the PixelManager OCIO config by Joe Genco
#  https://github.com/Joegenco/PixelManager
#  Input Gamma: Arri LogC4
#  Input Color Space: Arri Wide Gamut 4
#  floating point data (range 0.0 - 1.0)   
#       
#  Output Gamma: Gamma 2.2 (Display)
#  Output Color Space: Rec.709
#  floating point data (range 0.0 - 1.0)
LUT_3D_SIZE 33
0.015538 0.015538 0.015538
0.015538 0.015538 0.015538
0.015538 0.015538 0.015538
0.015538 0.015538 0.015538
0.052314 0.000000 0.007717
0.108448 0.000000 0.022380
0.178538 0.000000 0.015929
0.252852 0.001289 0.002238
0.330126 0.000000 0.029314
0.413698 0.000000 0.043110
0.501615 0.000000 0.070476
0.594021 0.000000 0.110493
0.687983 0.000000 0.143946
0.781171 0.000000 0.172596
0.877350 0.000000 0.204651
0.954314 0.148604 0.271849
0.991706 0.303699 0.373690
0.999959 0.416874 0.468351
1.000000 0.511233 0.552090
1.000000 0.591404 0.625404
1.000000 0.660536 0.689335
1.000000 0.720280 0.744973
1.000000 0.771575 0.792691
1.000000 0.815956 0.834043
1.000000 0.854603 0.870206
1.000000 0.888355 0.901906
1.000000 0.917850 0.929764
1.000000 0.943747 0.954312
1.000000 0.966619 0.976035
1.000000 0.986891 0.995325
1.000000 0.998904 1.000000
1.000000 1.000000 1.000000
1.000000 1.000000 1.000000
0.015538 0.015538 0.015538
0.015538 0.015538 0.015538
0.015538 0.015538 0.015538
0.015538 0.015538 0.015538
0.051638 0.000000 0.007564
0.107718 0.000000 0.022402
0.177967 0.000000 0.016011
0.252426 0.001321 0.002197
0.329795 0.000000 0.029191
0.413442 0.000000 0.043150
0.501199 0.000000 0.071470
0.593558 0.000000 0.111732
0.687741 0.000000 0.144429
0.780981 0.000000 0.173243
0.877326 0.000000 0.205072
0.954257 0.148726 0.272211
0.991694 0.303786 0.373915
0.999960 0.416927 0.468489
1.000000 0.511263 0.552173
1.000000 0.591422 0.625455
1.000000 0.660547 0.689367
1.000000 0.720287 0.744993
1.000000 0.771579 0.792701
1.000000 0.815957 0.834049
1.000000 0.854604 0.870210
1.000000 0.888356 0.901909
1.000000 0.917850 0.929765
1.000000 0.943747 0.954312
1.000000 0.966619 0.976036
1.000000 0.986891 0.995325
1.000000 0.998904 1.000000
1.000000 1.000000 1.000000
1.000000 1.000000 1.000000
0.015538 0.015538 0.015538
0.015538 0.015538 0.015538
0.015538 0.015538 0.015538
0.015538 0.015538 0.015538
0.050691 0.000000 0.007360
0.106687 0.000000 0.022431
0.177163 0.000000 0.016125
0.251828 0.001367 0.002145
0.329330 0.000000 0.029017
0.413082 0.000000 0.043204
0.500568 0.000000 0.073066
0.592975 0.000000 0.113408
0.687412 0.000000 0.145064
0.780715 0.000000 0.174142
0.877291 0.000000 0.205659
0.954176 0.148896 0.272716
0.991678 0.303907 0.374229
0.999963 0.417001 0.468681
1.000000 0.511304 0.552288
1.000000 0.591447 0.625527
1.000000 0.660563 0.689411
1.000000 0.720297 0.745021
1.000000 0.771583 0.792715
1.000000 0.815960 0.834058
1.000000 0.854606 0.870216
1.000000 0.888357 0.901912
1.000000 0.917851 0.929767
1.000000 0.943748 0.954314
1.000000 0.966620 0.976037
1.000000 0.986891 0.995326
1.000000 0.998904 1.000000
1.000000 1.000000 1.000000
1.000000 1.000000 1.000000
0.015538 0.015538 0.015538
0.015538 0.015538 0.015538
0.015538 0.015538 0.015538
0.015538 0.015538 0.015538
0.049326 0.000656 0.007678
0.105226 0.000000 0.022470
0.176032 0.000000 0.016283
0.250989 0.001430 0.002079
0.328679 0.000000 0.028774
0.412579 0.000000 0.043284
0.499511 0.000000 0.076508
0.592144 0.000000 0.115248
0.686992 0.000000 0.145807
0.780418 0.000000 0.175305
0.877243 0.000000 0.206475
0.954064 0.149131 0.273419
0.991656 0.304076 0.374667
0.999965 0.417103 0.468948
1.000000 0.511361 0.552449
1.000000 0.591482 0.625626
1.000000 0.660585 0.689473
1.000000 0.720310 0.745060
1.000000 0.771589 0.792735
1.000000 0.815964 0.834070
1.000000 0.854608 0.870224
1.000000 0.888358 0.901917
1.000000 0.917852 0.929770
1.000000 0.943748 0.954316
1.000000 0.966620 0.976038
1.000000 0.986891 0.995327
1.000000 0.998903 1.000000
1.000000 1.000000 1.000000
1.000000 1.000000 1.000000
0.000000 0.044711 0.023538
0.000000 0.044429 0.023399
0.000000 0.044034 0.023204
0.000000 0.043482 0.022933
0.047034 0.045295 0.000000
0.114033 0.047916 0.000000
0.182622 0.051580 0.000000
0.255302 0.057652 0.000000
0.333472 0.063597 0.000000
0.417376 0.068573 0.000000
0.507081 0.004469 0.028104
0.595338 0.000000 0.106936
0.686397 0.000000 0.146862
0.780005 0.000000 0.176909
0.877174 0.000000 0.207607
0.953909 0.149458 0.274396
0.991625 0.304311 0.375277
0.999969 0.417246 0.469321
1.000000 0.511440 0.552674
1.000000 0.591531 0.625766
1.000000 0.660615 0.689560
1.000000 0.720329 0.745114
1.000000 0.771598 0.792763
1.000000 0.815970 0.834088
1.000000 0.854612 0.870235
1.000000 0.888361 0.901924
1.000000 0.917853 0.929775
1.000000 0.943749 0.954318
1.000000 0.966621 0.976040
1.000000 0.986891 0.995328
1.000000 0.998903 1.000000
1.000000 1.000000 1.000000
1.000000 1.000000 1.000000
0.000000 0.100864 0.054343
0.000000 0.100600 0.054197
0.000000 0.100229 0.053993
0.000000 0.099709 0.053709
0.010629 0.102331 0.014346
0.111998 0.106882 0.000000
0.185231 0.114190 0.000000
0.259146 0.121661 0.000000
0.337143 0.128817 0.000000
0.419641 0.134148 0.000000
0.509996 0.118207 0.000000
0.610938 0.064509 0.000000
0.702895 0.000000 0.089674
0.785556 0.000000 0.154756
0.878075 0.000000 0.201844
0.953691 0.149909 0.275752
0.991582 0.304637 0.376124
0.999975 0.417445 0.469840
1.000000 0.511551 0.552987
1.000000 0.591600 0.625960
1.000000 0.660658 0.689681
1.000000 0.720356 0.745190
1.000000 0.771610 0.792802
1.000000 0.815978 0.834113
1.000000 0.854617 0.870251
1.000000 0.888364 0.901934
1.000000 0.917854 0.929781
1.000000 0.943750 0.954323
1.000000 0.966621 0.976042
1.000000 0.986892 0.995329
1.000000 0.998903 1.000000
1.000000 1.000000 1.000000
1.000000 1.000000 1.000000
0.000000 0.164051 0.083746
0.000000 0.163848 0.083649
0.000000 0.163565 0.083514
0.000000 0.163167 0.083325
0.000000 0.165025 0.069932
0.099801 0.168882 0.000000
0.181212 0.173003 0.000000
0.258483 0.179628 0.000000
0.337762 0.186633 0.000000
0.419631 0.190349 0.000000
0.509018 0.182901 0.000000
0.608467 0.162057 0.000000
0.709750 0.113879 0.000000
0.804013 0.009146 0.072565
0.884283 0.000000 0.166416
0.955516 0.144328 0.256992
0.991817 0.303934 0.373480
0.999982 0.417721 0.470562
1.000000 0.511705 0.553423
1.000000 0.591695 0.626232
1.000000 0.660717 0.689850
1.000000 0.720393 0.745296
1.000000 0.771627 0.792856
1.000000 0.815988 0.834146
1.000000 0.854624 0.870272
1.000000 0.888368 0.901948
1.000000 0.917857 0.929789
1.000000 0.943752 0.954328
1.000000 0.966622 0.976046
1.000000 0.986892 0.995331
1.000000 0.998903 1.000000
1.000000 1.000000 1.000000
1.000000 1.000000 1.000000
0.000000 0.230730 0.116039
0.000000 0.230578 0.115963
0.000000 0.230367 0.115858
0.000000 0.230070 0.115711
0.000000 0.231037 0.107360
0.046952 0.234860 0.004421
0.170445 0.237688 0.000000
0.252214 0.241034 0.000000
0.334229 0.246675 0.000000
0.416256 0.248453 0.000000
0.505442 0.244446 0.000000
0.604245 0.230272 0.000000
0.704273 0.203477 0.000000
0.804891 0.149011 0.000000
0.891302 0.080260 0.121660
0.957499 0.161962 0.223728
0.992935 0.297451 0.350163
1.000000 0.415335 0.462794
1.000000 0.511918 0.554029
1.000000 0.591829 0.626612
1.000000 0.660801 0.690087
1.000000 0.720445 0.745442
1.000000 0.771651 0.792931
1.000000 0.816003 0.834194
1.000000 0.854633 0.870303
1.000000 0.888374 0.901967
1.000000 0.917860 0.929801
1.000000 0.943754 0.954335
1.000000 0.966623 0.976051
1.000000 0.986893 0.995334
1.000000 0.998903 1.000000
1.000000 1.000000 1.000000
1.000000 1.000000 1.000000
0.000000 0.301127 0.151708
0.000000 0.301008 0.151646
0.000000 0.300842 0.151560
0.000000 0.300609 0.151439
0.000000 0.301096 0.144225
0.000000 0.304446 0.083192
0.144520 0.307273 0.000000
0.239551 0.309068 0.000000
0.324735 0.310828 0.000000
0.407829 0.311029 0.000000
0.498461 0.307394 0.000000
0.596999 0.296612 0.000000
0.696314 0.275173 0.000000
0.796381 0.240034 0.000000
0.885078 0.215245 0.089375
0.950502 0.238138 0.223035
0.994115 0.304289 0.326335
1.000000 0.409089 0.442597
1.000000 0.508562 0.543827
1.000000 0.591792 0.626542
1.000000 0.660919 0.690422
1.000000 0.720518 0.745652
1.000000 0.771684 0.793036
1.000000 0.816024 0.834261
1.000000 0.854647 0.870345
1.000000 0.888383 0.901994
1.000000 0.917864 0.929817
1.000000 0.943757 0.954346
1.000000 0.966625 0.976057
1.000000 0.986894 0.995339
1.000000 0.998903 1.000000
1.000000 1.000000 1.000000
1.000000 1.000000 1.000000
0.000000 0.373455 0.184222
0.000000 0.373372 0.184186
0.000000 0.373257 0.184135
0.000000 0.373095 0.184063
0.000000 0.373086 0.181524
0.000000 0.375554 0.143037
0.070681 0.379187 0.021444
0.215494 0.379763 0.000000
0.306848 0.378521 0.000000
0.393154 0.376569 0.000000
0.486489 0.373695 0.000000
0.585579 0.364835 0.000000
0.684421 0.347716 0.000000
0.783803 0.321998 0.000000
0.873515 0.299232 0.101917
0.940355 0.312683 0.223540
0.992344 0.353779 0.325359
1.000000 0.416722 0.424177
1.000000 0.502343 0.525270
1.000000 0.587537 0.615192
1.000000 0.660363 0.688974
1.000000 0.720621 0.745944
1.000000 0.771730 0.793184
1.000000 0.816054 0.834354
1.000000 0.854665 0.870404
1.000000 0.888395 0.902031
1.000000 0.917870 0.929840
1.000000 0.943760 0.954360
1.000000 0.966628 0.976067
1.000000 0.986896 0.995345
1.000000 0.998903 1.000000
1.000000 1.000000 1.000000
1.000000 1.000000 1.000000
0.000000 0.448763 0.215921
0.000000 0.448699 0.215895
0.000000 0.448610 0.215859
0.000000 0.448486 0.215808
0.000000 0.448312 0.215736
0.000000 0.449886 0.191379
0.000000 0.452976 0.119941
0.155568 0.454441 0.000000
0.271542 0.453148 0.000000
0.368198 0.450969 0.000000
0.466937 0.447177 0.000000
0.569412 0.438760 0.000000
0.668881 0.422621 0.000000
0.766469 0.401162 0.000000
0.858603 0.380551 0.086084
0.927176 0.381819 0.230009
0.981475 0.407730 0.328779
0.999562 0.453317 0.424255
1.000000 0.510137 0.511738
1.000000 0.581571 0.597961
1.000000 0.656603 0.678902
1.000000 0.719807 0.743776
1.000000 0.771794 0.793390
1.000000 0.816095 0.834484
1.000000 0.854691 0.870486
1.000000 0.888412 0.902084
1.000000 0.917879 0.929872
1.000000 0.943765 0.954381
1.000000 0.966631 0.976080
1.000000 0.986898 0.995353
1.000000 0.998903 1.000000
1.000000 1.000000 1.000000
1.000000 1.000000 1.000000
0.000000 0.527713 0.253140
0.000000 0.527546 0.253559
0.000000 0.527329 0.254088
0.000000 0.527052 0.254737
0.000000 0.526593 0.256022
0.000000 0.526954 0.247024
0.000000 0.529205 0.209061
0.000649 0.533002 0.114908
0.198938 0.533289 0.000000
0.322612 0.530816 0.000000
0.432337 0.527052 0.000000
0.542825 0.520417 0.000000
0.646871 0.504407 0.000000
0.745898 0.481198 0.000000
0.836748 0.460323 0.074957
0.910079 0.454815 0.229871
0.967541 0.465319 0.337500
0.998883 0.495188 0.426558
1.000000 0.539022 0.512210
1.000000 0.589773 0.588618
1.000000 0.651181 0.663691
1.000000 0.716512 0.735057
1.000000 0.771259 0.791515
1.000000 0.816152 0.834666
1.000000 0.854728 0.870600
1.000000 0.888435 0.902157
1.000000 0.917891 0.929917
1.000000 0.943773 0.954409
1.000000 0.966636 0.976098
1.000000 0.986901 0.995365
1.000000 0.998902 1.000000
1.000000 1.000000 1.000000
1.000000 1.000000 1.000000
0.000000 0.601683 0.293067
0.000000 0.601556 0.293516
0.000000 0.601383 0.294128
0.000000 0.601147 0.294954
0.000000 0.600835 0.295995
0.000000 0.600425 0.297289
0.000000 0.602204 0.272139
0.000000 0.605058 0.225252
0.027419 0.609285 0.103098
0.243308 0.608306 0.000000
0.378356 0.604159 0.000000
0.497457 0.599075 0.000000
0.614222 0.589297 0.000000
0.717179 0.566614 0.000000
0.812704 0.540102 0.085030
0.890195 0.524724 0.218154
0.949894 0.528307 0.341415
0.997743 0.543866 0.435021
1.000000 0.573270 0.513592
1.000000 0.613454 0.589227
1.000000 0.658609 0.656177
1.000000 0.711986 0.721888
1.000000 0.768426 0.784001
1.000000 0.815639 0.832778
1.000000 0.854778 0.870762
1.000000 0.888467 0.902259
1.000000 0.917907 0.929978
1.000000 0.943784 0.954449
1.000000 0.966642 0.976123
1.000000 0.986905 0.995381
1.000000 0.998902 1.000000
1.000000 1.000000 1.000000
1.000000 1.000000 1.000000
0.000000 0.669624 0.329198
0.000000 0.669558 0.329400
0.000000 0.669466 0.329678
0.000000 0.669339 0.330059
0.000000 0.669161 0.330611
0.000000 0.668767 0.332459
0.000000 0.669127 0.325610
0.000000 0.671370 0.295698
0.000000 0.675283 0.238051
0.068819 0.680366 0.047708
0.292369 0.677083 0.000000
0.433100 0.671784 0.000000
0.559206 0.664806 0.000000
0.679892 0.652633 0.000000
0.780161 0.624338 0.075485
0.863446 0.600562 0.236150
0.929791 0.590161 0.342252
0.981102 0.596974 0.441216
1.000000 0.614447 0.521069
1.000000 0.642339 0.590695
1.000000 0.678281 0.656823
1.000000 0.718171 0.715295
1.000000 0.764956 0.772954
1.000000 0.813493 0.826665
1.000000 0.854262 0.868904
1.000000 0.888512 0.902402
1.000000 0.917930 0.930065
1.000000 0.943798 0.954504
1.000000 0.966652 0.976159
1.000000 0.986911 0.995404
1.000000 0.998901 1.000000
1.000000 1.000000 1.000000
1.000000 1.000000 1.000000
0.000000 0.731223 0.362526
0.000000 0.731152 0.362877
0.000000 0.731053 0.363358
0.000000 0.730921 0.363989
0.000000 0.730744 0.364742
0.000000 0.730502 0.365761
0.000000 0.730172 0.367150
0.000000 0.731708 0.349610
0.000000 0.735012 0.312445
0.000000 0.740199 0.235787
0.133263 0.744085 0.038392
0.346859 0.739371 0.000000
0.486004 0.732982 0.000000
0.616284 0.723963 0.026324
0.738222 0.709633 0.095446
0.829648 0.680078 0.261652
0.903247 0.658838 0.359071
0.961421 0.651465 0.445344
0.998491 0.660067 0.529042
1.000000 0.676610 0.596533
1.000000 0.702878 0.658262
1.000000 0.734683 0.715920
1.000000 0.769790 0.766900
1.000000 0.810895 0.817531
1.000000 0.852704 0.863954
1.000000 0.888017 0.900639
1.000000 0.917962 0.930186
1.000000 0.943818 0.954581
1.000000 0.966664 0.976208
1.000000 0.986919 0.995435
1.000000 0.998900 1.000000
1.000000 1.000000 1.000000
1.000000 1.000000 1.000000
0.000000 0.787157 0.390654
0.000000 0.787106 0.390889
0.000000 0.787035 0.391217
0.000000 0.786936 0.391672
0.000000 0.786799 0.392301
0.000000 0.786621 0.393173
0.000000 0.786405 0.394128
0.000000 0.786312 0.393518
0.000000 0.789295 0.365505
0.000000 0.793638 0.316635
0.000000 0.799837 0.215302
0.206461 0.801794 0.032625
0.402184 0.794898 0.060397
0.539823 0.786743 0.117147
0.670976 0.775554 0.208388
0.788400 0.760380 0.266904
0.870573 0.731412 0.381835
0.935979 0.712473 0.459518
0.986384 0.707302 0.533432
1.000000 0.716331 0.604866
1.000000 0.731534 0.662649
1.000000 0.755793 0.717271
1.000000 0.783762 0.767477
1.000000 0.814568 0.811917
1.000000 0.850822 0.856457
1.000000 0.886788 0.896388
1.000000 0.917446 0.928515
1.000000 0.943847 0.954689
1.000000 0.966683 0.976277
1.000000 0.986931 0.995480
1.000000 0.998899 1.000000
1.000000 1.000000 1.000000
1.000000 1.000000 1.000000
0.000000 0.838632 0.411259
0.000000 0.838600 0.411423
0.000000 0.838555 0.411651
0.000000 0.838493 0.411969
0.000000 0.838407 0.412411
0.000000 0.838288 0.413022
0.000000 0.838132 0.413750
0.000000 0.837921 0.414686
0.000000 0.838609 0.407219
0.000000 0.842158 0.374357
0.000000 0.847505 0.313451
0.102794 0.852832 0.219240
0.332829 0.848203 0.212162
0.478244 0.840286 0.234492
0.602780 0.831202 0.287070
0.723270 0.819845 0.347940
0.831465 0.805168 0.390194
0.905119 0.777732 0.480690
0.963077 0.761016 0.544960
0.998849 0.757368 0.609072
1.000000 0.766168 0.670875
1.000000 0.779863 0.720438
1.000000 0.801791 0.768702
1.000000 0.826519 0.812435
1.000000 0.853523 0.851212
1.000000 0.885558 0.890451
1.000000 0.916235 0.924603
1.000000 0.943364 0.953140
1.000000 0.966708 0.976373
1.000000 0.986947 0.995542
1.000000 0.998897 1.000000
1.000000 1.000000 1.000000
1.000000 1.000000 1.000000
0.000000 0.886314 0.428847
0.000000 0.886292 0.428955
0.000000 0.886261 0.429105
0.000000 0.886218 0.429314
0.000000 0.886158 0.429605
0.000000 0.886074 0.430009
0.000000 0.885959 0.430569
0.000000 0.885799 0.431343
0.000000 0.885578 0.432409
0.000000 0.887019 0.418733
0.000000 0.891168 0.379562
0.081806 0.895354 0.329137
0.289638 0.892538 0.328707
0.438782 0.885818 0.350195
0.554402 0.878091 0.369277
0.662495 0.869204 0.405499
0.770470 0.858355 0.454503
0.868794 0.844554 0.489937
0.934439 0.819190 0.564987
0.983246 0.804580 0.618848
1.000000 0.801927 0.674709
1.000000 0.810117 0.728289
1.000000 0.822414 0.771141
1.000000 0.842007 0.813527
1.000000 0.863976 0.851673
1.000000 0.887443 0.885493
1.000000 0.915534 0.919952
1.000000 0.942277 0.949600
1.000000 0.966259 0.974943
1.000000 0.986969 0.995627
1.000000 0.998895 1.000000
1.000000 1.000000 1.000000
1.000000 1.000000 1.000000
0.012793 0.929641 0.448658
0.012758 0.929626 0.448737
0.012709 0.929606 0.448849
0.012641 0.929577 0.449003
0.012546 0.929538 0.449219
0.012412 0.929483 0.449519
0.012228 0.929406 0.449935
0.011970 0.929300 0.450513
0.011618 0.929153 0.451314
0.011129 0.928950 0.452417
0.012532 0.930847 0.434444
0.054126 0.933817 0.401727
0.299925 0.929677 0.415673
0.425534 0.924137 0.436414
0.528390 0.917626 0.455321
0.623381 0.910284 0.472205
0.717130 0.901832 0.501167
0.812853 0.891754 0.543540
0.901235 0.879095 0.574338
0.959048 0.856212 0.637076
0.996209 0.843320 0.682974
1.000000 0.841375 0.731705
1.000000 0.848794 0.778226
1.000000 0.859737 0.815318
1.000000 0.877212 0.852635
1.000000 0.896651 0.885902
1.000000 0.916768 0.915201
1.000000 0.941889 0.945908
1.000000 0.965281 0.971738
1.000000 0.986554 0.994307
1.000000 0.998891 1.000000
1.000000 1.000000 1.000000
1.000000 1.000000 1.000000
0.125177 0.965567 0.485710
0.124250 0.965570 0.485699
0.122952 0.965573 0.485683
0.121144 0.965579 0.485661
0.118627 0.965586 0.485631
0.115121 0.965596 0.485588
0.110264 0.965610 0.485530
0.103538 0.965630 0.485447
0.094259 0.965657 0.485333
0.081540 0.965694 0.485175
0.064261 0.965746 0.484955
0.242565 0.963938 0.487255
0.344865 0.960649 0.493750
0.437384 0.956159 0.508461
0.523370 0.950817 0.526428
0.605333 0.944638 0.543166
0.684950 0.937774 0.558096
0.766374 0.929904 0.582579
0.850940 0.920616 0.619384
0.929164 0.909158 0.645738
0.979160 0.888522 0.699280
1.000000 0.877213 0.738548
1.000000 0.876026 0.781300
1.000000 0.882821 0.821617
1.000000 0.892687 0.854218
1.000000 0.908043 0.886757
1.000000 0.924936 0.915559
1.000000 0.942591 0.941365
1.000000 0.964952 0.968519
1.000000 0.985672 0.991404
1.000000 0.998930 1.000000
1.000000 1.000000 1.000000
1.000000 1.000000 1.000000
0.380623 0.987812 0.568752
0.380492 0.987815 0.568738
0.380311 0.987820 0.568720
0.380058 0.987827 0.568694
0.379704 0.987836 0.568658
0.379212 0.987849 0.568608
0.378524 0.987867 0.568538
0.377568 0.987892 0.568441
0.376237 0.987927 0.568306
0.374388 0.987976 0.568118
0.373339 0.988005 0.567920
0.371825 0.988033 0.567645
0.415214 0.986122 0.570847
0.472779 0.982981 0.576475
0.537586 0.978815 0.587914
0.603990 0.973783 0.603630
0.671677 0.968013 0.618561
0.739254 0.961679 0.631788
0.810070 0.954453 0.652497
0.884028 0.946029 0.684364
0.953605 0.935714 0.707277
0.994248 0.917200 0.753194
1.000000 0.907205 0.786846
1.000000 0.906462 0.824493
1.000000 0.912626 0.859395
1.000000 0.921638 0.888178
1.000000 0.934881 0.916312
1.000000 0.949842 0.941674
1.000000 0.965511 0.964469
1.000000 0.985204 0.988348
1.000000 0.998008 0.999197
1.000000 1.000000 1.000000
1.000000 1.000000 1.000000
0.502031 0.999988 0.640887
0.501967 0.999991 0.640879
0.501878 0.999994 0.640867
0.501754 0.999999 0.640851
0.501653 1.000000 0.640832
0.501536 1.000000 0.640808
0.501375 1.000000 0.640774
0.501150 1.000000 0.640727
0.500835 1.000000 0.640661
0.500397 1.000000 0.640569
0.499788 1.000000 0.640442
0.498743 1.000000 0.640264
0.495733 1.000000 0.639866
0.526438 0.998995 0.642763
0.568558 0.997359 0.647641
0.618406 0.994502 0.656502
0.672152 0.992155 0.670287
0.729091 0.988400 0.683618
0.787105 0.982609 0.695242
0.848356 0.976065 0.712691
0.913151 0.968475 0.740426
0.975168 0.959216 0.760488
1.000000 0.942663 0.799995
1.000000 0.933806 0.828907
1.000000 0.933387 0.862151
1.000000 0.938863 0.892456
1.000000 0.946959 0.917568
1.000000 0.958607 0.942339
1.000000 0.971916 0.964742
1.000000 0.985881 0.984942
1.000000 0.998175 0.999246
1.000000 1.000000 1.000000
1.000000 1.000000 1.000000
0.594675 1.000000 0.703291
0.594657 1.000000 0.703287
0.594631 1.000000 0.703282
0.594594 1.000000 0.703273
0.594544 1.000000 0.703262
0.594474 1.000000 0.703247
0.594376 1.000000 0.703225
0.594239 1.000000 0.703195
0.594042 1.000000 0.703152
0.593710 1.000000 0.703093
0.593249 1.000000 0.703011
0.592606 1.000000 0.702896
0.591714 1.000000 0.702738
0.587393 1.000000 0.702198
0.612658 1.000000 0.704867
0.645845 1.000000 0.709085
0.685504 1.000000 0.715846
0.730393 1.000000 0.727990
0.778896 0.998564 0.739891
0.829074 0.995654 0.750095
0.881716 0.993173 0.764693
0.939003 0.988358 0.789001
0.992763 0.980074 0.806608
1.000000 0.965312 0.840620
1.000000 0.957501 0.865897
1.000000 0.957241 0.895069
1.000000 0.961982 0.921174
1.000000 0.969270 0.943439
1.000000 0.979675 0.965331
1.000000 0.991406 0.985187
1.000000 0.997916 0.998129
1.000000 1.000000 1.000000
1.000000 1.000000 1.000000
0.669029 1.000000 0.757290
0.669015 1.000000 0.757288
0.668994 1.000000 0.757284
0.668968 1.000000 0.757279
0.668929 1.000000 0.757272
0.668875 1.000000 0.757262
0.668800 1.000000 0.757248
0.668696 1.000000 0.757228
0.668549 1.000000 0.757201
0.668346 1.000000 0.757163
0.668062 1.000000 0.757110
0.667666 1.000000 0.757036
0.667115 1.000000 0.756934
0.666349 1.000000 0.756791
0.661623 1.000000 0.756185
0.683027 1.000000 0.758605
0.710412 1.000000 0.762289
0.742358 1.000000 0.767495
0.780487 1.000000 0.778035
0.822228 1.000000 0.788565
0.865335 1.000000 0.797574
0.911390 1.000000 0.810277
0.962009 0.998239 0.831107
0.999282 0.996075 0.846691
1.000000 0.985478 0.876074
1.000000 0.978612 0.898398
1.000000 0.978346 0.923578
1.000000 0.982514 0.946487
1.000000 0.989081 0.966297
1.000000 0.996354 0.985711
1.000000 0.999321 0.998167
1.000000 1.000000 1.000000
1.000000 1.000000 1.000000
0.730531 1.000000 0.804096
0.730522 1.000000 0.804094
0.730510 1.000000 0.804092
0.730493 1.000000 0.804088
0.730469 1.000000 0.804084
0.730435 1.000000 0.804078
0.730388 1.000000 0.804069
0.730322 1.000000 0.804056
0.730231 1.000000 0.804039
0.730103 1.000000 0.804014
0.729925 1.000000 0.803980
0.729677 1.000000 0.803932
0.729330 1.000000 0.803866
0.728848 1.000000 0.803773
0.727725 1.000000 0.803590
0.724404 1.000000 0.803099
0.741846 1.000000 0.805192
0.765048 1.000000 0.808428
0.791452 1.000000 0.812863
0.823793 1.000000 0.821528
0.860011 1.000000 0.830773
0.897164 1.000000 0.838813
0.937664 1.000000 0.849901
0.982488 1.000000 0.867803
0.999814 1.000000 0.881633
1.000000 0.997513 0.907110
1.000000 0.996340 0.926609
1.000000 0.996140 0.948689
1.000000 0.997072 0.968874
1.000000 0.999562 0.986561
1.000000 1.000000 0.998302
1.000000 1.000000 1.000000
1.000000 1.000000 1.000000
0.782299 1.000000 0.844715
0.782294 1.000000 0.844714
0.782286 1.000000 0.844713
0.782276 1.000000 0.844710
0.782260 1.000000 0.844708
0.782240 1.000000 0.844704
0.782211 1.000000 0.844698
0.782170 1.000000 0.844690
0.782113 1.000000 0.844680
0.782034 1.000000 0.844665
0.781923 1.000000 0.844645
0.781768 1.000000 0.844616
0.781552 1.000000 0.844575
0.781251 1.000000 0.844519
0.780832 1.000000 0.844441
0.779504 1.000000 0.844239
0.777055 1.000000 0.843859
0.791756 1.000000 0.845675
0.811634 1.000000 0.848517
0.833739 1.000000 0.852301
0.861388 1.000000 0.859237
0.892630 1.000000 0.867547
0.925228 1.000000 0.874745
0.960963 1.000000 0.884451
0.994402 1.000000 0.899886
1.000000 1.000000 0.912194
1.000000 1.000000 0.934207
1.000000 0.999942 0.951424
1.000000 1.000000 0.970876
1.000000 1.000000 0.988739
1.000000 1.000000 0.998417
1.000000 1.000000 1.000000
1.000000 1.000000 1.000000
0.825520 1.000000 0.879579
0.825516 1.000000 0.879578
0.825512 1.000000 0.879577
0.825505 1.000000 0.879576
0.825495 1.000000 0.879574
0.825481 1.000000 0.879571
0.825463 1.000000 0.879568
0.825437 1.000000 0.879563
0.825400 1.000000 0.879556
0.825348 1.000000 0.879546
0.825277 1.000000 0.879533
0.825178 1.000000 0.879514
0.825038 1.000000 0.879488
0.824844 1.000000 0.879452
0.824573 1.000000 0.879401
0.824195 1.000000 0.879330
0.823198 1.000000 0.879156
0.820866 1.000000 0.878810
