Assets/Data/Textures/70 CGC LUTs/LUTs_AgX_Filmic_ViewTransforms/ARRILogC4AWG4-to-JP2499DRT-CrazyNegative-sRGB.cube
#  Baked from the PixelManager OCIO config by Joe Genco
#  https://github.com/Joegenco/PixelManager
#  Input Gamma: Arri LogC4
#  Input Color Space: Arri Wide Gamut 4
#  floating point data (range 0.0 - 1.0)   
#       
#  Output Gamma: Gamma 2.2 (Display)
#  Output Color Space: Rec.709
#  floating point data (range 0.0 - 1.0)
LUT_3D_SIZE 5
0.016499 0.017535 0.016136
0.217218 0.018732 0.016609
0.839242 0.153349 0.061430
0.999307 0.671292 0.632494
0.999904 0.856116 0.978901
0.005732 0.196255 0.004110
0.321576 0.307754 0.004123
0.857506 0.200304 0.061846
0.999309 0.671416 0.634106
0.999904 0.856137 0.978912
0.349524 0.696878 0.019732
0.372341 0.704222 0.022087
0.883910 0.743646 0.044332
0.999674 0.699184 0.648701
0.999903 0.856445 0.979083
0.946192 0.914290 0.675429
0.946226 0.914312 0.675592
0.950429 0.917887 0.689355
0.996208 0.936620 0.766169
0.999798 0.910975 0.984484
0.986746 0.959957 0.973981
0.986746 0.959957 0.973993
0.986743 0.959960 0.974176
0.989526 0.965187 0.979497
0.997752 0.968017 0.991781
0.013223 0.033845 0.104416
0.306471 0.037809 0.195270
0.855963 0.198888 0.104260
0.999322 0.672482 0.646419
0.999903 0.856305 0.979005
0.004963 0.294818 0.226311
0.333961 0.354463 0.329971
0.874921 0.250594 0.118765
0.999323 0.672600 0.647950
0.999903 0.856326 0.979017
0.382135 0.708485 0.028734
0.404200 0.715815 0.033698
0.891981 0.751259 0.084018
0.999685 0.700141 0.661865
0.999902 0.856633 0.979186
0.946614 0.914578 0.677363
0.946645 0.914599 0.677520
0.950729 0.918164 0.691099
0.996220 0.936731 0.766799
0.999797 0.911015 0.984575
0.986744 0.959959 0.974124
0.986744 0.959959 0.974137
0.986741 0.959961 0.974319
0.989521 0.965183 0.979577
0.997752 0.968017 0.991799
0.044615 0.408140 0.758673
0.050863 0.436067 0.781246
0.880804 0.511157 0.814618
0.999062 0.690120 0.792855
0.999894 0.858975 0.980476
0.043285 0.445231 0.784021
0.044947 0.467188 0.803457
0.887861 0.524028 0.825464
0.999065 0.690417 0.793749
0.999894 0.858995 0.980487
0.481416 0.731386 0.812692
0.499054 0.736590 0.819509
0.881333 0.755620 0.854080
0.999578 0.715280 0.806891
0.999893 0.859288 0.980648
0.950572 0.917985 0.718245
0.950588 0.918000 0.718600
0.954336 0.921475 0.731145
0.996221 0.937877 0.797734
0.999789 0.911898 0.985740
0.986712 0.959983 0.976035
0.986712 0.959983 0.976044
0.986708 0.959985 0.976178
0.989457 0.965151 0.980706
0.997748 0.968013 0.992049
0.495098 0.781392 0.980791
0.501808 0.782529 0.981075
0.702314 0.794214 0.982662
0.995540 0.835633 0.983102
0.999794 0.885228 0.990627
0.498432 0.782800 0.981140
0.504271 0.783912 0.981423
0.698621 0.795397 0.982969
0.995570 0.836060 0.983192
0.999794 0.885238 0.990630
0.564825 0.801722 0.984483
0.567574 0.802539 0.984682
0.663026 0.811757 0.986388
0.996000 0.842312 0.984486
0.999795 0.886154 0.990811
0.955152 0.924728 0.976281
0.955339 0.924874 0.976380
0.957894 0.926914 0.977767
0.992484 0.937159 0.984037
0.999694 0.919778 0.993594
0.986234 0.960328 0.987554
0.986234 0.960328 0.987557
0.986229 0.960329 0.987599
0.988737 0.964854 0.989847
0.997708 0.967970 0.994419
0.957111 0.937301 0.996081
0.957151 0.937348 0.996090
0.957988 0.938027 0.996219
0.991731 0.941281 0.996162
0.999274 0.935718 0.996300
0.957320 0.937438 0.996070
0.957360 0.937486 0.996079
0.958186 0.938164 0.996208
0.991722 0.941398 0.996156
0.999271 0.935867 0.996291
0.960281 0.939384 0.995915
0.960322 0.939432 0.995924
0.960987 0.940103 0.996048
0.991592 0.943055 0.996063
0.999227 0.937975 0.996171
0.980097 0.955080 0.994175
0.980121 0.955108 0.994184
0.980438 0.955481 0.994303
0.989769 0.959127 0.995156
0.998300 0.957749 0.995024
0.985688 0.960692 0.992507
0.985706 0.960720 0.992514
0.985970 0.961133 0.992630
0.988781 0.966068 0.994033
0.997708 0.967970 0.994419
