Assets/Data/Textures/70 CGC LUTs/LUTs_AgX_Filmic_ViewTransforms/ARRILogC4AWG4-to-JP2499DRT-sRGB.cube
#  Baked from the PixelManager OCIO config by Joe Genco
#  https://github.com/Joegenco/PixelManager
#  Input Gamma: Arri LogC4
#  Input Color Space: Arri Wide Gamut 4
#  floating point data (range 0.0 - 1.0)   
#       
#  Output Gamma: Gamma 2.2 (Display)
#  Output Color Space: Rec.709
#  floating point data (range 0.0 - 1.0)
LUT_3D_SIZE 9
0.001953 0.001953 0.001953
0.050272 0.005877 0.004070
0.272237 0.021476 0.019754
0.561075 0.057133 0.040634
0.819839 0.205344 0.074098
0.960177 0.485103 0.283608
0.997297 0.750262 0.606974
0.999710 0.899331 0.854309
0.997814 0.944268 0.982202
0.005647 0.038179 0.003572
0.070296 0.053499 0.003687
0.303118 0.024946 0.021867
0.567510 0.058495 0.041271
0.820261 0.206077 0.075082
0.960196 0.485289 0.285338
0.997296 0.750296 0.607355
0.999710 0.899337 0.854364
0.997814 0.944271 0.982204
0.007036 0.237731 0.004850
0.007531 0.254587 0.005095
0.345575 0.315980 0.004731
0.655136 0.189629 0.042517
0.839352 0.237086 0.077195
0.961040 0.489044 0.290921
0.997293 0.750426 0.608799
0.999710 0.899359 0.854572
0.997813 0.944282 0.982212
0.047117 0.521368 0.012265
0.047548 0.522617 0.012327
0.077069 0.583787 0.014984
0.643547 0.609476 0.009400
0.875200 0.486422 0.058352
0.968406 0.528918 0.301092
0.997377 0.754690 0.613446
0.999710 0.899435 0.855362
0.997811 0.944324 0.982244
0.342343 0.782965 0.048113
0.342837 0.783253 0.048317
0.360130 0.792794 0.051413
0.446532 0.833486 0.085980
0.863022 0.842501 0.062185
0.974458 0.769290 0.274034
0.997860 0.785708 0.623286
0.999734 0.902017 0.857961
0.997799 0.944485 0.982366
0.739854 0.931169 0.343317
0.739949 0.931197 0.343532
0.740307 0.931305 0.344345
0.756535 0.935626 0.364565
0.812278 0.950408 0.429787
0.963393 0.955424 0.465607
0.996066 0.926484 0.623519
0.999716 0.920347 0.865591
0.997932 0.948932 0.983962
0.931277 0.981735 0.654914
0.931284 0.981737 0.654955
0.931311 0.981744 0.655113
0.931414 0.981769 0.655707
0.936664 0.983102 0.670924
0.952205 0.987440 0.722167
0.991571 0.989491 0.758234
0.998496 0.982417 0.865211
0.997304 0.976695 0.987324
0.980811 0.995232 0.857016
0.980812 0.995232 0.857023
0.980814 0.995232 0.857047
0.980823 0.995234 0.857142
0.980855 0.995239 0.857499
0.982657 0.995633 0.866496
0.987187 0.996834 0.894719
0.997252 0.997252 0.911181
0.996143 0.996143 0.984302
0.981966 0.994535 0.980270
0.981966 0.994535 0.980272
0.981966 0.994535 0.980281
0.981966 0.994535 0.980314
0.981964 0.994534 0.980441
0.981959 0.994530 0.980920
0.985592 0.995599 0.984928
0.996079 0.996079 0.988098
0.995978 0.995978 0.994136
0.002768 0.006142 0.019862
0.070929 0.011585 0.041149
0.306217 0.025558 0.025384
0.575942 0.061350 0.045914
0.824180 0.212013 0.087763
0.960389 0.486864 0.298574
0.997291 0.750592 0.610319
0.999710 0.899382 0.854794
0.997813 0.944294 0.982221
0.003656 0.062256 0.047373
0.075552 0.075541 0.075549
0.347467 0.030030 0.029976
0.584748 0.064688 0.046999
0.824614 0.212665 0.089567
0.960407 0.487042 0.300228
0.997290 0.750625 0.610696
0.999710 0.899387 0.854849
0.997812 0.944297 0.982223
0.009547 0.278585 0.006006
0.010263 0.298633 0.006483
0.375067 0.343423 0.005501
0.667939 0.196643 0.048147
0.843925 0.243700 0.091700
0.961315 0.491003 0.305526
0.997287 0.750754 0.612124
0.999710 0.899409 0.855056
0.997812 0.944308 0.982232
0.052505 0.536505 0.013200
0.052914 0.537551 0.013287
0.087467 0.596028 0.016023
0.650554 0.616766 0.009841
0.878489 0.490145 0.067071
0.968580 0.530532 0.315194
0.997373 0.755057 0.616705
0.999711 0.899473 0.855845
0.997809 0.944350 0.982264
0.348342 0.786420 0.050387
0.348774 0.786673 0.050567
0.365861 0.796043 0.054569
0.451138 0.835681 0.088864
0.864242 0.843720 0.065191
0.974710 0.769988 0.290957
0.997861 0.786007 0.626259
0.999734 0.902060 0.858438
0.997798 0.944511 0.982385
0.741053 0.931532 0.345860
0.741145 0.931560 0.346068
0.741492 0.931664 0.346855
0.757665 0.935893 0.366910
0.812963 0.950565 0.431231
0.963472 0.955533 0.466465
0.996067 0.926517 0.626386
0.999717 0.920402 0.866133
0.997930 0.948960 0.983977
0.931370 0.981758 0.655411
0.931377 0.981759 0.655452
0.931404 0.981766 0.655608
0.931506 0.981791 0.656197
0.936750 0.983123 0.671326
0.952256 0.987452 0.722414
0.991577 0.989499 0.758385
0.998493 0.982418 0.865567
0.997303 0.976697 0.987337
0.980818 0.995233 0.857090
0.980819 0.995233 0.857097
0.980821 0.995233 0.857121
0.980829 0.995235 0.857215
0.980862 0.995240 0.857571
0.982663 0.995634 0.866549
0.987191 0.996834 0.894803
0.997252 0.997252 0.911198
0.996142 0.996143 0.984320
0.981966 0.994535 0.980296
0.981966 0.994535 0.980298
0.981966 0.994535 0.980307
0.981965 0.994535 0.980340
0.981964 0.994534 0.980467
0.981958 0.994530 0.980946
0.985590 0.995599 0.984943
0.996079 0.996079 0.988110
0.995978 0.995978 0.994139
0.014737 0.037417 0.170132
0.031564 0.052168 0.214362
0.338117 0.068889 0.266301
0.609620 0.097576 0.220675
0.837765 0.237154 0.191434
0.961107 0.492962 0.349404
0.997275 0.751817 0.622382
0.999711 0.899537 0.856633
0.997806 0.944393 0.982296
0.021388 0.074968 0.259079
0.024780 0.086942 0.295283
0.374379 0.091401 0.309722
0.626277 0.107562 0.234650
0.838325 0.238304 0.195391
0.961118 0.493110 0.350733
0.997273 0.751850 0.622724
0.999712 0.899541 0.856687
0.997806 0.944396 0.982298
0.004847 0.309568 0.287861
0.005307 0.322344 0.305738
0.356251 0.356217 0.356242
0.691505 0.231625 0.279193
0.858218 0.270500 0.207631
0.962221 0.497748 0.355077
0.997267 0.751973 0.624025
0.999712 0.899557 0.856893
0.997805 0.944407 0.982306
0.061982 0.577857 0.144835
0.062322 0.579296 0.153772
0.104238 0.629261 0.194662
0.671285 0.640801 0.150505
0.891828 0.503734 0.186623
0.969137 0.536215 0.363348
0.997369 0.756419 0.628176
0.999713 0.899620 0.857673
0.997802 0.944449 0.982338
0.368197 0.798289 0.076745
0.368606 0.798571 0.078118
0.386139 0.807337 0.088107
0.468332 0.844079 0.128036
0.870247 0.849620 0.110765
0.974985 0.771861 0.350600
0.997865 0.787122 0.637314
0.999737 0.902233 0.860243
0.997791 0.944609 0.982459
0.745280 0.932827 0.354904
0.745357 0.932852 0.355092
0.745647 0.932943 0.355808
0.761570 0.936842 0.374248
0.815435 0.951130 0.436419
0.963763 0.955932 0.469615
0.996069 0.926640 0.637090
0.999717 0.920617 0.867974
0.997924 0.949064 0.984033
0.931717 0.981842 0.657268
0.931724 0.981843 0.657308
0.931750 0.981850 0.657459
0.931849 0.981874 0.658030
0.937076 0.983202 0.672845
0.952446 0.987497 0.723342
0.991597 0.989530 0.758955
0.998484 0.982418 0.866917
0.997301 0.976712 0.987384
0.980843 0.995237 0.857370
0.980844 0.995237 0.857376
0.980846 0.995238 0.857401
0.980855 0.995239 0.857494
0.980887 0.995245 0.857847
0.982687 0.995639 0.866749
0.987205 0.996835 0.895119
0.997246 0.997246 0.911634
0.996141 0.996141 0.984387
0.981965 0.994534 0.980395
0.981965 0.994534 0.980397
0.981965 0.994534 0.980406
0.981964 0.994534 0.980439
0.981963 0.994533 0.980565
0.981957 0.994530 0.981020
0.985585 0.995598 0.984997
0.996078 0.996078 0.988153
0.995978 0.995978 0.994150
0.035361 0.168143 0.460932
0.037237 0.185312 0.487662
0.291838 0.229043 0.543837
0.638871 0.264913 0.558447
0.850099 0.328918 0.509773
0.962300 0.518219 0.507757
0.997150 0.756054 0.662877
0.999712 0.900235 0.864056
0.997780 0.944765 0.982578
0.037034 0.191751 0.495823
0.038229 0.207268 0.519147
0.290589 0.248006 0.569416
0.650496 0.277526 0.573821
0.854417 0.335468 0.516202
0.962300 0.518382 0.508786
0.997149 0.756081 0.663171
0.999712 0.900242 0.864119
0.997780 0.944768 0.982580
0.031511 0.321100 0.557627
0.032543 0.330465 0.573210
0.197436 0.357934 0.622780
0.679252 0.326957 0.618922
0.867935 0.360696 0.538908
0.964168 0.525812 0.513895
0.997146 0.756186 0.664289
0.999711 0.900269 0.864360
0.997779 0.944779 0.982588
0.040391 0.589835 0.566755
0.043450 0.593755 0.572102
0.065362 0.623532 0.607627
0.640666 0.640632 0.640657
0.893725 0.534543 0.585192
0.969975 0.560358 0.530384
0.997267 0.761135 0.667973
0.999710 0.900370 0.865274
0.997776 0.944821 0.982620
0.409041 0.818118 0.453499
0.409065 0.818098 0.455117
0.425814 0.825093 0.467122
0.496408 0.853043 0.511724
0.875263 0.857245 0.514820
0.975194 0.777399 0.534227
0.997790 0.791225 0.676877
0.999736 0.903227 0.868209
0.997765 0.944979 0.982740
0.759148 0.936069 0.407960
0.759217 0.936084 0.408396
0.759478 0.936139 0.410049
0.775064 0.939969 0.426683
0.824718 0.953091 0.478485
0.964563 0.957093 0.521756
0.995959 0.926956 0.678774
0.999719 0.921423 0.874825
0.997901 0.949460 0.984246
0.932955 0.982140 0.663624
0.932961 0.982142 0.663656
0.932984 0.982148 0.663778
0.933072 0.982169 0.664241
0.938242 0.983487 0.678267
0.953130 0.987656 0.726682
0.991673 0.989615 0.761052
0.998450 0.982422 0.871961
0.997294 0.976792 0.987553
0.980938 0.995253 0.858415
0.980938 0.995253 0.858421
0.980941 0.995254 0.858445
0.980949 0.995255 0.858535
0.980980 0.995260 0.858878
0.982772 0.995656 0.867520
0.987256 0.996840 0.896304
0.997224 0.997224 0.913451
0.996137 0.996137 0.984641
0.981960 0.994531 0.980771
0.981960 0.994531 0.980773
0.981960 0.994531 0.980781
0.981960 0.994531 0.980814
0.981958 0.994530 0.980940
0.981955 0.994529 0.981298
0.985566 0.995594 0.985205
0.996076 0.996076 0.988318
0.995977 0.995977 0.994195
0.045133 0.409166 0.750794
0.045706 0.416152 0.757115
0.074920 0.439792 0.777487
0.577936 0.486413 0.808181
0.858990 0.537822 0.814264
0.962086 0.614742 0.785200
0.996255 0.775235 0.785420
0.999708 0.903525 0.888357
0.997685 0.946150 0.983615
0.045046 0.417826 0.758178
0.045484 0.424512 0.764263
0.066170 0.447528 0.783319
0.578131 0.492772 0.813272
0.860464 0.541512 0.816835
0.962440 0.616633 0.786618
0.996252 0.775267 0.785617
0.999708 0.903531 0.888402
0.997685 0.946153 0.983616
0.044376 0.450069 0.779438
0.044666 0.455859 0.784407
0.052604 0.476106 0.801484
0.574812 0.514923 0.827690
0.865912 0.555339 0.826351
0.963652 0.623245 0.791547
0.996254 0.775640 0.786422
0.999708 0.903555 0.888574
0.997684 0.946164 0.983622
0.062371 0.605704 0.811396
0.064273 0.609290 0.814720
0.071688 0.621733 0.826580
0.500381 0.643932 0.853308
0.878790 0.616168 0.852076
0.967923 0.647933 0.807779
0.996492 0.782277 0.790376
0.999708 0.903646 0.889227
0.997682 0.946204 0.983644
0.449488 0.823350 0.807315
0.451715 0.824232 0.808443
0.465629 0.829780 0.814980
0.510679 0.847237 0.837150
0.854794 0.854775 0.854791
0.971903 0.796016 0.833679
0.997429 0.806458 0.800727
0.999741 0.906772 0.891837
0.997672 0.946357 0.983729
0.783979 0.939816 0.721944
0.783983 0.939812 0.722282
0.784001 0.939796 0.723564
0.796524 0.943382 0.734787
0.835049 0.953468 0.768942
0.963021 0.957006 0.787389
0.995386 0.927809 0.803297
0.999716 0.923944 0.898532
0.997816 0.950932 0.985037
0.936936 0.982968 0.702794
0.936941 0.982969 0.702877
0.936958 0.982972 0.703194
0.937026 0.982982 0.704395
0.942082 0.984287 0.717840
0.955504 0.988091 0.756026
0.991662 0.989595 0.794309
0.998318 0.982367 0.892401
0.997264 0.977092 0.988182
0.981278 0.995315 0.861729
0.981278 0.995315 0.861734
0.981280 0.995315 0.861751
0.981288 0.995317 0.861818
0.981316 0.995322 0.862070
0.983003 0.995717 0.870759
0.987392 0.996855 0.900561
0.997146 0.997146 0.919414
0.996121 0.996121 0.985592
0.981944 0.994527 0.981788
0.981944 0.994527 0.981789
0.981944 0.994527 0.981794
0.981943 0.994527 0.981812
0.981941 0.994527 0.981881
0.981932 0.994526 0.982143
0.985507 0.995581 0.985958
0.996065 0.996065 0.988935
0.995974 0.995974 0.994363
0.076922 0.681406 0.923100
0.078659 0.683276 0.923889
0.097458 0.690069 0.926883
0.344356 0.710875 0.936273
0.807320 0.747683 0.943429
0.956845 0.791537 0.945281
0.992843 0.841963 0.933676
0.999434 0.915290 0.940642
0.997367 0.951002 0.986291
0.077350 0.683593 0.923913
0.079188 0.685459 0.924700
0.098131 0.692196 0.927667
0.338782 0.712696 0.937027
0.807258 0.749023 0.943917
0.956974 0.792157 0.945550
0.992865 0.842252 0.933814
0.999434 0.915297 0.940661
0.997367 0.951005 0.986292
0.080288 0.691292 0.926783
0.084040 0.693152 0.927577
0.100045 0.699361 0.930428
0.320293 0.719304 0.939695
0.806969 0.753749 0.945640
0.957554 0.794654 0.946600
0.992937 0.843231 0.934289
0.999434 0.915322 0.940734
0.997366 0.951014 0.986297
0.111586 0.720963 0.936506
0.113426 0.722350 0.937161
0.120916 0.727360 0.939586
0.256648 0.744493 0.946663
0.804569 0.770516 0.951260
0.959451 0.803786 0.950225
0.993223 0.847140 0.936046
0.999439 0.915749 0.941108
0.997364 0.951049 0.986316
0.466046 0.837609 0.944807
0.467402 0.838242 0.945150
0.471901 0.840591 0.946469
0.488551 0.847525 0.951213
0.769927 0.857470 0.957347
0.963214 0.844708 0.957619
0.994164 0.862053 0.942185
0.999461 0.919617 0.942879
0.997355 0.951183 0.986390
0.800896 0.942179 0.934815
0.801417 0.942351 0.935016
0.803384 0.943002 0.935783
0.810622 0.945306 0.938610
0.832832 0.951321 0.947365
0.955106 0.955099 0.955105
0.993112 0.933715 0.949157
0.999564 0.932308 0.947595
0.997532 0.955758 0.987820
0.941731 0.982901 0.896940
0.941730 0.982901 0.896978
0.941728 0.982899 0.897124
0.941773 0.982912 0.897726
0.945321 0.984115 0.903046
0.956199 0.987046 0.919960
0.990118 0.988329 0.930054
0.997632 0.982220 0.947941
0.997157 0.978185 0.990388
0.982242 0.995308 0.891093
0.982242 0.995308 0.891104
0.982243 0.995308 0.891147
0.982248 0.995308 0.891312
0.982267 0.995308 0.891912
0.983620 0.995741 0.897452
0.987720 0.996850 0.916861
0.996897 0.996897 0.936832
0.996079 0.996079 0.988121
0.981848 0.994520 0.984622
0.981848 0.994520 0.984623
0.981848 0.994520 0.984627
0.981847 0.994520 0.984643
0.981845 0.994520 0.984706
0.981837 0.994519 0.984940
0.985317 0.995548 0.988007
0.996035 0.996035 0.990711
0.995966 0.995966 0.994823
0.456674 0.881130 0.985762
0.457897 0.881364 0.985815
0.462982 0.882223 0.985999
0.485874 0.885269 0.986630
0.661143 0.894006 0.987197
0.933226 0.910512 0.985981
0.988392 0.930523 0.985885
0.997801 0.947878 0.983943
0.996516 0.963321 0.991882
0.457372 0.881414 0.985824
0.458547 0.881648 0.985876
0.463459 0.882501 0.986061
0.485958 0.885542 0.986692
0.660251 0.894272 0.987250
0.933223 0.910682 0.986021
0.988402 0.930594 0.985901
0.997803 0.947909 0.983951
0.996516 0.963322 0.991882
0.459801 0.882470 0.986054
0.460969 0.882704 0.986106
0.465235 0.883537 0.986290
0.486467 0.886561 0.986924
0.657136 0.895269 0.987444
0.933212 0.911316 0.986168
0.988443 0.930871 0.985962
0.997807 0.948023 0.983981
0.996516 0.963327 0.991884
0.468291 0.886185 0.986861
0.469472 0.886422 0.986913
0.473500 0.887254 0.987099
0.492724 0.890219 0.987732
0.648345 0.898871 0.988114
0.933162 0.913548 0.986688
0.988622 0.931989 0.986199
0.997824 0.948519 0.984122
0.996515 0.963347 0.991890
0.522815 0.901398 0.988651
0.523454 0.901589 0.988682
0.525572 0.902304 0.988806
0.535013 0.904853 0.989222
0.620235 0.911170 0.990204
0.932383 0.921634 0.987948
0.989191 0.935975 0.987050
0.997888 0.950321 0.984592
0.996542 0.963876 0.991998
0.786207 0.949169 0.986724
0.786375 0.949224 0.986751
0.786936 0.949430 0.986864
0.789197 0.950216 0.987284
0.797444 0.952978 0.988473
0.923193 0.956299 0.988946
0.989857 0.951886 0.988989
0.998098 0.956491 0.986178
0.996818 0.967558 0.992829
0.943024 0.983626 0.981387
0.943065 0.983637 0.981406
0.943221 0.983681 0.981477
0.943801 0.983844 0.981742
0.945953 0.984452 0.982675
0.952919 0.986444 0.985112
0.987533 0.987531 0.987533
0.996907 0.983057 0.987525
0.996946 0.980487 0.994311
0.982038 0.994581 0.974096
0.982038 0.994581 0.974100
0.982038 0.994581 0.974113
0.982038 0.994580 0.974152
0.982072 0.994592 0.974331
0.983289 0.995029 0.975998
0.986824 0.996022 0.981214
0.996125 0.996125 0.985372
0.995990 0.995990 0.993428
0.981524 0.994528 0.990919
0.981524 0.994528 0.990920
0.981524 0.994528 0.990921
0.981523 0.994528 0.990927
0.981519 0.994528 0.990948
0.981506 0.994528 0.991027
0.984613 0.995453 0.992829
0.995975 0.995975 0.994324
0.995947 0.995947 0.995947
0.757632 0.965413 0.998083
0.757816 0.965434 0.998085
0.758500 0.965511 0.998094
0.761761 0.965791 0.998111
0.776221 0.966772 0.998131
0.873648 0.968869 0.997600
0.981472 0.973352 0.996346
0.996011 0.978018 0.996084
0.995883 0.977105 0.995918
0.757748 0.965439 0.998086
0.757932 0.965460 0.998088
0.758617 0.965538 0.998097
0.761849 0.965817 0.998112
0.776246 0.966799 0.998132
0.873547 0.968890 0.997604
0.981473 0.973367 0.996348
0.996012 0.978026 0.996085
0.995884 0.977113 0.995920
0.758188 0.965540 0.998097
0.758372 0.965561 0.998099
0.759057 0.965638 0.998107
0.762184 0.965917 0.998117
0.776340 0.966899 0.998138
0.873162 0.968970 0.997619
0.981474 0.973426 0.996355
0.996017 0.978057 0.996091
0.995889 0.977146 0.995926
0.759819 0.965914 0.998122
0.760003 0.965934 0.998123
0.760688 0.966012 0.998126
0.763430 0.966288 0.998136
0.776687 0.967274 0.998160
0.871837 0.969271 0.997671
0.981479 0.973646 0.996382
0.996032 0.978173 0.996112
0.995906 0.977268 0.995948
0.765534 0.967227 0.998183
0.765720 0.967248 0.998183
0.766413 0.967326 0.998187
0.768849 0.967603 0.998197
0.780830 0.968585 0.998227
0.868330 0.970342 0.997848
0.981492 0.974416 0.996477
0.996088 0.978577 0.996185
0.995964 0.977679 0.996022
0.800890 0.972066 0.998307
0.800976 0.972080 0.998309
0.801296 0.972133 0.998315
0.802416 0.972318 0.998336
0.807636 0.972986 0.998408
0.854778 0.974623 0.998419
0.981430 0.976722 0.996814
0.996276 0.980034 0.996441
0.996173 0.979215 0.996299
0.935992 0.986181 0.996519
0.936011 0.986186 0.996521
0.936082 0.986203 0.996525
0.936347 0.986276 0.996546
0.937409 0.986548 0.996622
0.940453 0.987465 0.996907
0.979347 0.988083 0.996859
0.996448 0.987214 0.996489
0.996467 0.986091 0.996559
0.980886 0.994551 0.994528
0.980890 0.994553 0.994530
0.980906 0.994559 0.994536
0.980964 0.994580 0.994559
0.981192 0.994665 0.994647
0.982011 0.994928 0.994924
0.984695 0.995636 0.995669
0.995947 0.995947 0.995947
0.995947 0.995947 0.995947
0.980843 0.994535 0.994511
0.980843 0.994535 0.994511
0.980843 0.994535 0.994511
0.980843 0.994535 0.994511
0.980843 0.994535 0.994511
0.980947 0.994574 0.994552
0.983855 0.995425 0.995446
0.995947 0.995947 0.995947
0.995947 0.995947 0.995947
0.945683 0.988183 0.996838
0.945695 0.988186 0.996839
0.945740 0.988196 0.996844
0.945907 0.988235 0.996861
0.946896 0.988378 0.996923
0.953182 0.988806 0.997074
0.986987 0.988798 0.996627
0.996436 0.987869 0.996448
0.996455 0.986803 0.996515
0.945743 0.988191 0.996837
0.945754 0.988193 0.996838
0.945799 0.988204 0.996842
0.945967 0.988243 0.996859
0.946952 0.988386 0.996922
0.953204 0.988815 0.997073
0.986986 0.988807 0.996626
0.996436 0.987878 0.996447
0.996455 0.986812 0.996514
0.945969 0.988219 0.996830
0.945981 0.988222 0.996832
0.946026 0.988232 0.996836
0.946193 0.988271 0.996853
0.947167 0.988415 0.996916
0.953288 0.988847 0.997070
0.986982 0.988843 0.996624
0.996436 0.987911 0.996445
0.996454 0.986848 0.996512
0.946827 0.988328 0.996807
0.946839 0.988330 0.996808
0.946884 0.988341 0.996813
0.947052 0.988380 0.996830
0.947980 0.988523 0.996892
0.953563 0.988970 0.997059
0.986969 0.988978 0.996616
0.996433 0.988037 0.996437
0.996452 0.986984 0.996503
0.950024 0.988732 0.996721
0.950036 0.988734 0.996722
0.950081 0.988745 0.996727
0.950250 0.988784 0.996744
0.951009 0.988929 0.996806
0.954461 0.989431 0.997019
0.986908 0.989480 0.996586
0.996409 0.988504 0.996409
0.996443 0.987488 0.996472
0.957732 0.990113 0.996416
0.957742 0.990115 0.996417
0.957777 0.990126 0.996422
0.957909 0.990167 0.996440
0.958388 0.990315 0.996504
0.960869 0.990763 0.996734
0.986564 0.990868 0.996506
0.996305 0.990183 0.996305
0.996360 0.989302 0.996360
0.974257 0.993171 0.995651
0.974263 0.993172 0.995653
0.974283 0.993178 0.995657
0.974359 0.993199 0.995675
0.974623 0.993274 0.995736
0.975641 0.993559 0.995970
0.985696 0.994069 0.996325
0.996077 0.993862 0.996077
0.996099 0.993503 0.996099
0.982062 0.994942 0.994939
0.982065 0.994943 0.994939
0.982078 0.994946 0.994943
0.982141 0.994963 0.994961
0.982358 0.995022 0.995022
0.983101 0.995221 0.995231
0.985701 0.995849 0.995896
0.995947 0.995947 0.995947
0.995947 0.995947 0.995947
0.981012 0.994598 0.994577
0.981015 0.994599 0.994578
0.981031 0.994605 0.994585
0.981091 0.994628 0.994608
0.981317 0.994712 0.994696
0.982122 0.994958 0.994955
0.984809 0.995660 0.995695
0.995947 0.995947 0.995947
0.995947 0.995947 0.995947
