Assets/Data/Textures/70 CGC LUTs/LUTs_AgX_Filmic_ViewTransforms/ARRILogC4AWG4-to-JP2499DRT-CrazyNegative-sRGB.cube
#  Baked from the PixelManager OCIO config by Joe Genco
#  https://github.com/Joegenco/PixelManager
#  Input Gamma: Arri LogC4
#  Input Color Space: Arri Wide Gamut 4
#  floating point data (range 0.0 - 1.0)   
#       
#  Output Gamma: Gamma 2.2 (Display)
#  Output Color Space: Rec.709
#  floating point data (range 0.0 - 1.0)
LUT_3D_SIZE 33
0.016499 0.017535 0.016136
0.016499 0.017535 0.016136
0.016499 0.017535 0.016136
0.016885 0.017557 0.016162
0.037524 0.018030 0.015874
0.063219 0.017360 0.014165
0.097827 0.014536 0.011205
0.145759 0.014100 0.012794
0.217218 0.018732 0.016609
0.309909 0.024871 0.022843
0.404795 0.031902 0.029568
0.497874 0.039122 0.036157
0.581684 0.047173 0.042284
0.657355 0.056288 0.047925
0.725069 0.069456 0.052773
0.785592 0.094907 0.057398
0.839242 0.153349 0.061430
0.882191 0.252440 0.065565
0.916277 0.337660 0.077879
0.945971 0.408591 0.119578
0.969392 0.471189 0.243080
0.983348 0.526501 0.368497
0.992394 0.577785 0.469199
0.997280 0.626422 0.556378
0.999307 0.671292 0.632494
0.999829 0.712876 0.699067
0.999945 0.751159 0.756260
0.999978 0.785491 0.804848
0.999980 0.801175 0.855464
0.999969 0.810369 0.907616
0.999953 0.823636 0.943451
0.999934 0.839360 0.965734
0.999904 0.856116 0.978901
0.016499 0.017535 0.016136
0.016499 0.017535 0.016136
0.016499 0.017535 0.016136
0.016735 0.017549 0.016152
0.037334 0.018031 0.015882
0.063070 0.017374 0.014186
0.097678 0.014554 0.011193
0.145622 0.014087 0.012782
0.217048 0.018719 0.016599
0.309786 0.024860 0.022835
0.405491 0.031952 0.029619
0.498289 0.039166 0.036189
0.581943 0.047200 0.042313
0.657499 0.056316 0.047945
0.725154 0.069492 0.052787
0.785664 0.094987 0.057423
0.839293 0.153464 0.061473
0.882227 0.252562 0.065649
0.916310 0.337731 0.078024
0.946004 0.408634 0.119834
0.969400 0.471212 0.243460
0.983349 0.526514 0.368711
0.992393 0.577793 0.469328
0.997280 0.626428 0.556456
0.999307 0.671296 0.632541
0.999829 0.712878 0.699097
0.999945 0.751161 0.756278
0.999978 0.785492 0.804860
0.999980 0.801175 0.855471
0.999969 0.810370 0.907620
0.999953 0.823637 0.943453
0.999934 0.839361 0.965734
0.999904 0.856117 0.978901
0.016499 0.017535 0.016136
0.016499 0.017535 0.016136
0.016499 0.017535 0.016136
0.016499 0.017535 0.016136
0.037065 0.018032 0.015894
0.062859 0.017393 0.014216
0.097470 0.014580 0.011178
0.145431 0.014069 0.012765
0.216811 0.018699 0.016586
0.309613 0.024846 0.022823
0.406345 0.032014 0.029681
0.498846 0.039229 0.036232
0.582300 0.047239 0.042358
0.657697 0.056356 0.047974
0.725272 0.069542 0.052806
0.785763 0.095100 0.057458
0.839363 0.153632 0.061537
0.882278 0.252731 0.065767
0.916356 0.337831 0.078227
0.946051 0.408693 0.120191
0.969412 0.471243 0.243989
0.983349 0.526531 0.369009
0.992393 0.577805 0.469508
0.997280 0.626436 0.556564
0.999307 0.671301 0.632608
0.999829 0.712881 0.699139
0.999945 0.751163 0.756304
0.999978 0.785493 0.804876
0.999980 0.801176 0.855480
0.999969 0.810371 0.907625
0.999953 0.823638 0.943456
0.999933 0.839362 0.965735
0.999904 0.856117 0.978901
0.016499 0.017535 0.016136
0.016499 0.017535 0.016136
0.016499 0.017535 0.016136
0.016499 0.017535 0.016136
0.036685 0.018033 0.015911
0.062564 0.017419 0.014258
0.097178 0.014619 0.011223
0.145164 0.014044 0.012742
0.216513 0.018675 0.016569
0.309371 0.024827 0.022806
0.407483 0.032096 0.029764
0.499581 0.039312 0.036289
0.582786 0.047292 0.042420
0.657968 0.056410 0.048013
0.725434 0.069611 0.052832
0.785901 0.095256 0.057507
0.839464 0.153865 0.061638
0.882349 0.252966 0.065931
0.916419 0.337970 0.078510
0.946116 0.408776 0.120689
0.969428 0.471287 0.244727
0.983350 0.526556 0.369425
0.992393 0.577821 0.469759
0.997280 0.626447 0.556716
0.999307 0.671308 0.632700
0.999829 0.712886 0.699198
0.999945 0.751166 0.756341
0.999978 0.785495 0.804898
0.999980 0.801178 0.855493
0.999969 0.810373 0.907632
0.999953 0.823640 0.943460
0.999933 0.839363 0.965737
0.999904 0.856119 0.978902
0.016713 0.033902 0.015537
0.016716 0.033837 0.015543
0.016721 0.033744 0.015553
0.016728 0.033615 0.015566
0.046158 0.041658 0.014235
0.090601 0.031533 0.011293
0.136112 0.020940 0.011760
0.190379 0.018889 0.014982
0.261290 0.021961 0.019487
0.339070 0.027317 0.024882
0.428466 0.033638 0.031217
0.511273 0.040554 0.037106
0.588424 0.047837 0.042832
0.659837 0.056701 0.048161
0.725657 0.069706 0.052868
0.786095 0.095471 0.057586
0.839603 0.154189 0.061778
0.882448 0.253293 0.066159
0.916508 0.338164 0.078904
0.946207 0.408891 0.121383
0.969451 0.471349 0.245757
0.983351 0.526590 0.370006
0.992393 0.577843 0.470110
0.997280 0.626462 0.556928
0.999307 0.671318 0.632830
0.999829 0.712892 0.699280
0.999945 0.751170 0.756391
0.999978 0.785498 0.804929
0.999980 0.801180 0.855511
0.999969 0.810376 0.907643
0.999953 0.823643 0.943466
0.999933 0.839365 0.965739
0.999904 0.856120 0.978903
0.013936 0.056929 0.011696
0.013960 0.056868 0.011723
0.013993 0.056782 0.011761
0.014040 0.056661 0.011814
0.009560 0.080757 0.006971
0.083264 0.076637 0.004641
0.153227 0.062794 0.010193
0.232151 0.041114 0.016776
0.313812 0.029959 0.022867
0.389042 0.031940 0.028357
0.465698 0.037023 0.033803
0.537811 0.043332 0.038966
0.606916 0.049799 0.044146
0.672291 0.058647 0.048985
0.733220 0.072068 0.053321
0.789644 0.097997 0.057821
0.840549 0.155807 0.061966
0.882585 0.253747 0.066475
0.916631 0.338433 0.079451
0.946333 0.409052 0.122369
0.969482 0.471434 0.247192
0.983352 0.526638 0.370815
0.992393 0.577874 0.470600
0.997279 0.626484 0.557223
0.999307 0.671332 0.633011
0.999829 0.712902 0.699395
0.999945 0.751176 0.756462
0.999978 0.785503 0.804972
0.999980 0.801183 0.855536
0.999969 0.810379 0.907657
0.999953 0.823646 0.943474
0.999934 0.839368 0.965742
0.999904 0.856123 0.978904
0.006798 0.088049 0.005935
0.006806 0.087993 0.005943
0.006816 0.087914 0.005954
0.006830 0.087803 0.005970
0.004799 0.112834 0.003796
0.036867 0.133892 0.003533
0.135989 0.126802 0.003282
0.240593 0.108439 0.013328
0.341383 0.074795 0.023179
0.427952 0.050456 0.030394
0.502662 0.045104 0.036191
0.568494 0.047842 0.041046
0.629889 0.054147 0.045670
0.688459 0.061919 0.050045
0.744420 0.076101 0.053982
0.797003 0.103341 0.058224
0.845318 0.164320 0.062138
0.884565 0.259958 0.066617
0.917028 0.339631 0.080117
0.946498 0.409280 0.124736
0.969526 0.471553 0.249188
0.983354 0.526706 0.371944
0.992393 0.577917 0.471284
0.997279 0.626513 0.557631
0.999308 0.671351 0.633263
0.999829 0.712914 0.699555
0.999945 0.751184 0.756562
0.999978 0.785508 0.805033
0.999980 0.801187 0.855571
0.999969 0.810384 0.907677
0.999953 0.823651 0.943485
0.999934 0.839372 0.965746
0.999904 0.856126 0.978906
0.006000 0.131323 0.003632
0.005996 0.131260 0.003632
0.005991 0.131172 0.003633
0.005985 0.131048 0.003635
0.005079 0.155976 0.003419
0.006326 0.196757 0.003909
0.077895 0.213287 0.004194
0.211942 0.202177 0.003244
0.347180 0.177979 0.016576
0.451808 0.141253 0.028246
0.532652 0.094151 0.036450
0.598140 0.068350 0.042305
0.655171 0.063519 0.047063
0.707888 0.069870 0.051112
0.758209 0.082596 0.054769
0.806551 0.112343 0.058620
0.850772 0.179246 0.062051
0.887554 0.270197 0.066654
0.918801 0.345199 0.080556
0.947218 0.411358 0.127411
0.969587 0.471719 0.251964
0.983357 0.526799 0.373515
0.992392 0.577977 0.472236
0.997279 0.626553 0.558197
0.999308 0.671378 0.633615
0.999830 0.712932 0.699778
0.999945 0.751195 0.756700
0.999978 0.785517 0.805117
0.999980 0.801192 0.855621
0.999969 0.810391 0.907705
0.999953 0.823659 0.943500
0.999934 0.839378 0.965751
0.999904 0.856131 0.978909
0.005732 0.196255 0.004110
0.005733 0.196188 0.004107
0.005735 0.196095 0.004103
0.005737 0.195964 0.004097
0.005366 0.218837 0.004022
0.005548 0.259275 0.004461
0.008558 0.303806 0.005880
0.137854 0.316469 0.005429
0.321576 0.307754 0.004123
0.451852 0.283086 0.016540
0.547077 0.243724 0.029171
0.622103 0.187141 0.039318
0.681930 0.122009 0.046784
0.730524 0.096637 0.051645
0.774921 0.102171 0.055292
0.817925 0.135764 0.058619
0.857506 0.200304 0.061846
0.891503 0.282145 0.066742
0.921208 0.352426 0.081130
0.948679 0.416004 0.130388
0.970254 0.474368 0.254848
0.983389 0.527079 0.375656
0.992392 0.578061 0.473562
0.997279 0.626610 0.558973
0.999309 0.671416 0.634106
0.999830 0.712957 0.700091
0.999945 0.751211 0.756893
0.999978 0.785528 0.805235
0.999980 0.801200 0.855690
0.999969 0.810400 0.907744
0.999953 0.823669 0.943522
0.999934 0.839386 0.965759
0.999904 0.856137 0.978912
0.006717 0.284055 0.005632
0.006723 0.284768 0.005637
0.006722 0.285678 0.005637
0.006720 0.287039 0.005638
0.006694 0.304596 0.005648
0.006731 0.332970 0.005700
0.008324 0.367985 0.006871
0.013979 0.396621 0.007757
0.243476 0.400043 0.005948
0.424654 0.390727 0.005525
0.543142 0.372930 0.016548
0.630359 0.341448 0.028175
0.697782 0.297712 0.038416
0.752134 0.229544 0.047706
0.795324 0.178214 0.053927
0.832345 0.185398 0.057734
0.866460 0.235011 0.061136
0.896753 0.299934 0.066537
0.924371 0.362560 0.081751
0.950616 0.422466 0.134102
0.971315 0.478678 0.258503
0.983904 0.529923 0.377878
0.992455 0.578670 0.475308
0.997281 0.626688 0.560034
0.999309 0.671469 0.634791
0.999830 0.712991 0.700526
0.999945 0.751233 0.757163
0.999978 0.785544 0.805399
0.999979 0.801211 0.855786
0.999969 0.810414 0.907798
0.999953 0.823683 0.943552
0.999933 0.839397 0.965770
0.999904 0.856146 0.978917
0.008574 0.373393 0.007072
0.008588 0.373668 0.007082
0.008608 0.374037 0.007096
0.008639 0.374662 0.007119
0.008957 0.380922 0.007350
0.009576 0.398539 0.007755
0.010062 0.421158 0.007950
0.010757 0.445475 0.008209
0.036902 0.467688 0.008663
0.354014 0.467634 0.005193
0.516721 0.458289 0.007369
0.625020 0.441247 0.018028
0.702841 0.415904 0.028087
0.761516 0.378851 0.037453
0.808058 0.330116 0.046336
0.845634 0.290575 0.053448
0.876205 0.291750 0.058877
0.903193 0.328121 0.065288
0.928489 0.377834 0.081591
0.953256 0.431871 0.138609
0.972707 0.484622 0.263019
0.984605 0.533899 0.380786
0.992774 0.581322 0.477208
0.997322 0.627534 0.561406
0.999310 0.671543 0.635744
0.999831 0.713039 0.701132
0.999945 0.751263 0.757539
0.999978 0.785566 0.805629
0.999979 0.801225 0.855920
0.999969 0.810432 0.907874
0.999953 0.823703 0.943594
0.999933 0.839412 0.965785
0.999904 0.856159 0.978924
0.010629 0.441427 0.008168
0.010634 0.441601 0.008170
0.010641 0.441839 0.008173
0.010651 0.442162 0.008177
0.010711 0.444208 0.008199
0.011317 0.456002 0.008436
0.012395 0.471359 0.008842
0.013933 0.489091 0.009352
0.017098 0.509936 0.010142
0.141601 0.529111 0.009784
0.451004 0.525923 0.005709
0.599336 0.516298 0.009662
0.697383 0.500804 0.019495
0.764810 0.478204 0.028328
0.814368 0.446163 0.036740
0.853426 0.406303 0.045108
0.884807 0.373235 0.053633
0.910596 0.372230 0.062804
0.933518 0.402001 0.080392
0.956614 0.445762 0.142664
0.974523 0.493291 0.268746
0.985552 0.539499 0.384587
0.993213 0.585059 0.479576
0.997472 0.630007 0.563016
0.999325 0.672481 0.636927
0.999831 0.713106 0.701978
0.999945 0.751306 0.758063
0.999978 0.785597 0.805949
0.999979 0.801246 0.856107
0.999969 0.810458 0.907980
0.999952 0.823731 0.943653
0.999933 0.839434 0.965806
0.999904 0.856176 0.978934
0.015056 0.501221 0.009788
0.015068 0.501358 0.009793
0.015085 0.501548 0.009801
0.015109 0.501810 0.009811
0.015144 0.502171 0.009827
0.015789 0.509071 0.010089
0.016750 0.519511 0.010400
0.019191 0.532216 0.010632
0.022847 0.548309 0.010972
0.044289 0.567966 0.011489
0.281655 0.581685 0.010282
0.539813 0.577318 0.005659
0.673643 0.568450 0.012133
0.759089 0.554386 0.020774
0.816747 0.533968 0.028549
0.857889 0.505803 0.036000
0.890120 0.470418 0.045052
0.916180 0.442159 0.056722
0.938870 0.440710 0.077289
0.960661 0.467441 0.145335
0.976822 0.506001 0.275044
0.986830 0.547594 0.389247
0.993815 0.590380 0.482650
0.997677 0.633454 0.565132
0.999366 0.674912 0.638364
0.999836 0.714061 0.702994
0.999945 0.751365 0.758793
0.999978 0.785640 0.806395
0.999979 0.801276 0.856368
0.999969 0.810494 0.908128
0.999952 0.823769 0.943735
0.999933 0.839464 0.965836
0.999903 0.856201 0.978948
0.024838 0.555761 0.011164
0.024863 0.555845 0.011167
0.024896 0.555961 0.011170
0.024942 0.556121 0.011175
0.025006 0.556343 0.011181
0.025838 0.559387 0.011257
0.028967 0.566527 0.011445
0.035923 0.575716 0.011720
0.046055 0.587645 0.012071
0.063551 0.603124 0.012794
0.159563 0.620767 0.013146
0.394682 0.629400 0.010926
0.621012 0.624439 0.005292
0.739191 0.616131 0.014639
0.811300 0.603550 0.022153
0.859323 0.585254 0.029245
0.893020 0.560349 0.036376
0.919646 0.528606 0.047815
0.942355 0.504276 0.069655
0.964318 0.503799 0.144354
0.979628 0.525676 0.280069
0.988472 0.559611 0.394120
0.994615 0.597984 0.486381
0.997966 0.638439 0.567899
0.999418 0.678257 0.640197
0.999845 0.716249 0.704216
0.999947 0.752271 0.759651
0.999978 0.785701 0.807017
0.999979 0.801316 0.856732
0.999969 0.810545 0.908334
0.999952 0.823823 0.943850
0.999933 0.839506 0.965877
0.999903 0.856236 0.978967
0.072563 0.607280 0.012960
0.072686 0.607334 0.012963
0.072858 0.607410 0.012966
0.073096 0.607514 0.012972
0.073427 0.607658 0.012979
0.074526 0.608158 0.013000
0.085310 0.613188 0.013215
0.099891 0.619810 0.013503
0.123607 0.628569 0.013851
0.161997 0.639414 0.014326
0.211733 0.652575 0.014951
0.307760 0.666444 0.015567
0.497466 0.673047 0.012499
0.694494 0.667883 0.009477
0.795475 0.660375 0.017925
0.854676 0.649251 0.024170
0.893953 0.633498 0.031523
0.921547 0.611280 0.040639
0.944555 0.583691 0.061728
0.966738 0.563400 0.136137
0.981807 0.560509 0.280904
0.990224 0.577952 0.397846
0.995651 0.609124 0.490316
0.998343 0.645495 0.571214
0.999492 0.683151 0.642649
0.999857 0.719271 0.705763
0.999950 0.754180 0.760684
0.999979 0.786630 0.807714
0.999979 0.801373 0.857239
0.999969 0.810615 0.908621
0.999952 0.823898 0.944009
0.999933 0.839565 0.965935
0.999903 0.856284 0.978994
0.217827 0.654271 0.015085
0.217950 0.654302 0.015088
0.218122 0.654345 0.015093
0.218360 0.654404 0.015099
0.218691 0.654487 0.015108
0.219151 0.654602 0.015119
0.225732 0.656567 0.015325
0.239696 0.660906 0.015774
0.257749 0.666633 0.016361
0.281405 0.674379 0.017126
0.312117 0.684276 0.017913
0.348731 0.696428 0.019586
0.429664 0.708920 0.022146
0.593410 0.713990 0.017999
0.759572 0.708933 0.016772
0.842856 0.702395 0.024592
0.890623 0.692792 0.029798
0.922548 0.679636 0.038997
0.946168 0.660516 0.058994
0.968153 0.637850 0.127550
0.983264 0.616348 0.277634
0.991330 0.610802 0.399338
0.996320 0.627088 0.493897
0.998787 0.655776 0.574759
0.999592 0.689853 0.645589
0.999874 0.723617 0.707835
0.999955 0.756815 0.761984
0.999980 0.788494 0.808557
0.999980 0.802353 0.857840
0.999969 0.810713 0.909021
0.999952 0.824003 0.944231
0.999933 0.839646 0.966016
0.999903 0.856351 0.979031
0.349524 0.696878 0.019732
0.349614 0.696908 0.019748
0.349738 0.696951 0.019770
0.349912 0.697010 0.019801
0.350153 0.697091 0.019844
0.350488 0.697205 0.019903
0.350953 0.697363 0.019985
0.359784 0.700205 0.020894
0.372341 0.704222 0.022087
0.388849 0.709502 0.023563
0.410995 0.716660 0.025591
0.438378 0.725853 0.028740
0.473994 0.737581 0.037524
0.545316 0.750013 0.045412
0.683720 0.754195 0.045081
0.817726 0.749332 0.041212
0.883910 0.743646 0.044332
0.921615 0.735183 0.048214
0.948699 0.724732 0.078971
0.969049 0.709110 0.147617
0.983584 0.686244 0.278652
0.992007 0.663331 0.397109
0.996769 0.657592 0.495087
0.998886 0.672529 0.577642
0.999674 0.699184 0.648701
0.999892 0.729748 0.710270
0.999962 0.760627 0.763728
0.999981 0.791093 0.809597
0.999981 0.804222 0.858578
0.999970 0.812023 0.909708
0.999952 0.824150 0.944539
0.999933 0.839760 0.966128
0.999903 0.856445 0.979083
0.472688 0.737351 0.037514
0.472751 0.737373 0.037544
0.472839 0.737404 0.037585
0.472962 0.737448 0.037643
0.473133 0.737508 0.037723
0.473372 0.737593 0.037835
0.473703 0.737710 0.037990
0.475960 0.738480 0.038765
0.484843 0.741483 0.041546
0.496372 0.745582 0.045222
0.512007 0.751056 0.049498
0.533050 0.757850 0.065428
0.560267 0.766530 0.090011
0.593059 0.777312 0.118814
0.653530 0.787292 0.162352
0.764586 0.791287 0.171162
0.868944 0.787919 0.153325
0.920240 0.783392 0.142522
0.949724 0.776486 0.143274
0.969977 0.766918 0.211652
0.983093 0.751167 0.300247
0.991730 0.727788 0.400454
0.996737 0.706894 0.493575
0.998955 0.701388 0.578489
0.999689 0.714382 0.651157
0.999894 0.738845 0.712753
0.999965 0.766007 0.765726
0.999983 0.794559 0.810995
0.999982 0.806955 0.859491
0.999971 0.814465 0.910711
0.999953 0.825878 0.945359
0.999933 0.839919 0.966284
0.999902 0.856576 0.979155
0.590910 0.776682 0.117441
0.590948 0.776695 0.117550
0.591001 0.776713 0.117702
0.591075 0.776737 0.117914
0.591178 0.776772 0.118210
0.591323 0.776820 0.118622
0.591523 0.776887 0.119195
0.591802 0.776980 0.119991
0.595142 0.778004 0.125148
0.603053 0.780425 0.136603
0.613546 0.783636 0.151743
0.628145 0.788111 0.172067
0.646103 0.794003 0.199113
0.668672 0.801179 0.231687
0.696509 0.809020 0.268622
0.745048 0.816881 0.302393
0.829039 0.820244 0.313621
0.906283 0.818582 0.304476
0.945121 0.815972 0.295907
0.967653 0.810755 0.300015
0.981642 0.801642 0.352659
0.990728 0.786758 0.416623
0.996314 0.765604 0.497089
0.998813 0.747107 0.576665
0.999650 0.741543 0.651329
0.999896 0.752776 0.714664
0.999964 0.774062 0.767770
0.999984 0.799198 0.812605
0.999983 0.810693 0.860895
0.999972 0.817942 0.911972
0.999954 0.829019 0.946706
0.999935 0.841807 0.966955
0.999902 0.856758 0.979255
0.693792 0.808262 0.266793
0.693814 0.808268 0.266849
0.693846 0.808277 0.266927
0.693890 0.808290 0.267036
0.693952 0.808308 0.267188
0.694038 0.808332 0.267399
0.694158 0.808366 0.267693
0.694322 0.808414 0.268104
0.694549 0.808481 0.268674
0.698056 0.809528 0.273462
0.704480 0.811451 0.281990
0.712969 0.814002 0.293347
0.724655 0.817521 0.308749
0.739764 0.822087 0.326751
0.757858 0.828002 0.349733
0.779390 0.835504 0.377360
0.816007 0.843202 0.402878
0.878685 0.846250 0.415133
0.933616 0.845542 0.412920
0.961965 0.843954 0.409708
0.978889 0.839987 0.415857
0.989178 0.831735 0.457336
0.995364 0.818198 0.511281
0.998523 0.800057 0.579863
0.999611 0.782552 0.649455
0.999895 0.776839 0.714760
0.999960 0.787265 0.769188
0.999986 0.806151 0.814278
0.999983 0.816303 0.862838
0.999973 0.822740 0.913567
0.999955 0.833394 0.948254
0.999937 0.845186 0.968091
0.999902 0.859142 0.979921
0.776530 0.834595 0.375546
0.776543 0.834599 0.375576
0.776562 0.834606 0.375618
0.776588 0.834614 0.375676
0.776624 0.834627 0.375757
0.776675 0.834644 0.375871
0.776746 0.834668 0.376028
0.776845 0.834701 0.376249
0.776983 0.834747 0.376555
0.777174 0.834812 0.376981
0.780603 0.836016 0.381121
0.785976 0.837907 0.387575
0.793138 0.840444 0.395879
0.802150 0.843697 0.407188
0.813067 0.847529 0.422326
0.827051 0.852505 0.441756
0.843844 0.858833 0.465023
0.870206 0.865565 0.488061
0.913731 0.869228 0.501378
0.953293 0.869336 0.502415
0.974302 0.868313 0.501563
0.986860 0.864782 0.509230
0.994008 0.857698 0.543989
0.997798 0.846450 0.592212
0.999368 0.830351 0.652235
0.999835 0.814143 0.712818
0.999955 0.808827 0.769083
0.999987 0.817529 0.815394
0.999984 0.824869 0.864996
0.999973 0.829881 0.915322
0.999957 0.838655 0.949961
0.999939 0.849830 0.969507
0.999902 0.863304 0.981043
0.841628 0.857962 0.463069
0.841634 0.857965 0.463088
0.841643 0.857968 0.463115
0.841656 0.857974 0.463152
0.841673 0.857981 0.463205
0.841698 0.857992 0.463277
0.841732 0.858006 0.463379
0.841780 0.858026 0.463521
0.841847 0.858054 0.463719
0.841939 0.858093 0.463994
0.842068 0.858148 0.464376
0.844649 0.859278 0.468364
0.848263 0.860869 0.473951
0.853147 0.863039 0.481461
0.859762 0.865978 0.491637
0.868368 0.869845 0.504961
0.878788 0.874880 0.522168
0.890045 0.880321 0.542910
0.909032 0.885952 0.564355
0.939324 0.889273 0.577943
0.967707 0.889730 0.580672
0.983176 0.889172 0.581103
0.992204 0.886488 0.589158
0.996863 0.880827 0.619836
0.998907 0.871617 0.662721
0.999694 0.856417 0.715154
0.999927 0.842497 0.767155
0.999976 0.837721 0.814935
0.999985 0.838665 0.866595
0.999975 0.840461 0.917022
0.999959 0.846791 0.951846
0.999942 0.856422 0.971351
0.999903 0.868772 0.982175
0.888251 0.879540 0.540956
0.888254 0.879541 0.540968
0.888259 0.879544 0.540984
0.888266 0.879547 0.541007
0.888275 0.879551 0.541039
0.888288 0.879557 0.541084
0.888307 0.879566 0.541147
0.888333 0.879577 0.541235
0.888369 0.879594 0.541357
0.888419 0.879617 0.541527
0.888489 0.879649 0.541764
0.888648 0.879722 0.542200
0.890696 0.880685 0.545945
0.893467 0.881993 0.551030
0.897236 0.883792 0.557885
0.902305 0.886217 0.567156
0.908257 0.889431 0.579346
0.915012 0.893636 0.595031
0.923481 0.898974 0.613453
0.936270 0.904524 0.633047
0.957838 0.907369 0.646270
0.978061 0.907976 0.649872
0.989352 0.907710 0.651081
0.995560 0.905718 0.659051
0.998331 0.901254 0.686289
0.999439 0.892176 0.724119
0.999852 0.879535 0.769036
0.999954 0.867150 0.813115
0.999986 0.860832 0.867163
0.999974 0.860034 0.917539
0.999960 0.861779 0.953537
0.999944 0.867326 0.973132
0.999910 0.875360 0.983452
0.922155 0.898122 0.611499
0.922157 0.898123 0.611506
0.922160 0.898125 0.611517
0.922163 0.898127 0.611531
0.922168 0.898130 0.611552
0.922176 0.898135 0.611580
0.922185 0.898141 0.611621
0.922199 0.898150 0.611677
0.922218 0.898161 0.611754
0.922245 0.898178 0.611863
0.922282 0.898201 0.612015
0.922333 0.898234 0.612225
0.922523 0.898354 0.612759
0.924055 0.899330 0.616116
0.926133 0.900660 0.620677
0.928973 0.902498 0.626863
0.931986 0.904687 0.635335
0.935891 0.907295 0.646469
0.940921 0.910691 0.660567
0.947246 0.915004 0.677264
0.955750 0.919780 0.694931
0.971043 0.922891 0.707173
0.985368 0.923791 0.710951
0.993523 0.923736 0.712538
0.997491 0.921936 0.720424
0.999116 0.917591 0.744283
0.999713 0.910236 0.776822
0.999890 0.899753 0.814603
0.999953 0.893104 0.866042
0.999964 0.890858 0.915433
0.999938 0.888439 0.953468
0.999918 0.886404 0.973865
0.999900 0.887629 0.984537
0.946192 0.914290 0.675429
0.946193 0.914290 0.675434
0.946195 0.914291 0.675441
0.946197 0.914292 0.675450
0.946199 0.914294 0.675463
0.946203 0.914297 0.675481
0.946208 0.914300 0.675507
0.946215 0.914305 0.675542
0.946226 0.914312 0.675592
0.946240 0.914322 0.675662
0.946259 0.914335 0.675758
0.946286 0.914354 0.675893
0.946324 0.914380 0.676081
0.946502 0.914502 0.676650
0.947601 0.915293 0.679657
0.948788 0.916381 0.683769
0.950429 0.917887 0.689355
0.952610 0.919903 0.696898
0.955469 0.922560 0.706766
0.959164 0.925990 0.719190
0.963269 0.929427 0.734153
0.969483 0.933218 0.749692
0.980389 0.935742 0.760602
0.990486 0.936558 0.764357
0.996208 0.936620 0.766169
0.998626 0.935289 0.773435
0.999524 0.931878 0.793934
0.999768 0.925948 0.821126
0.999848 0.921966 0.862655
0.999914 0.920188 0.911288
0.999871 0.917927 0.950777
0.999818 0.914763 0.972959
0.999798 0.910975 0.984484
0.962647 0.928842 0.732489
0.962648 0.928842 0.732492
0.962648 0.928842 0.732496
0.962649 0.928843 0.732502
0.962650 0.928844 0.732510
0.962651 0.928846 0.732522
0.962654 0.928848 0.732537
0.962656 0.928850 0.732560
0.962661 0.928854 0.732591
0.962666 0.928860 0.732633
0.962674 0.928867 0.732694
0.962686 0.928878 0.732778
0.962701 0.928893 0.732895
0.962722 0.928914 0.733059
0.962837 0.929027 0.733619
0.963475 0.929656 0.736257
0.964346 0.930516 0.739859
0.965556 0.931711 0.744760
0.967158 0.933303 0.751358
0.969263 0.935405 0.759918
0.971989 0.938140 0.770835
0.974532 0.941648 0.783960
0.979095 0.945052 0.797229
0.986799 0.947053 0.806695
0.993952 0.947748 0.810177
0.997794 0.947876 0.812042
0.999236 0.946898 0.818489
0.999592 0.944175 0.835524
0.999649 0.942103 0.860183
0.999697 0.941259 0.905930
0.999692 0.939812 0.945504
0.999515 0.937805 0.971041
0.999445 0.935128 0.983398
0.974076 0.941042 0.782515
0.974076 0.941043 0.782517
0.974076 0.941043 0.782519
0.974077 0.941044 0.782523
0.974077 0.941044 0.782528
0.974078 0.941046 0.782535
0.974079 0.941047 0.782544
0.974080 0.941049 0.782558
0.974082 0.941052 0.782577
0.974085 0.941056 0.782603
0.974089 0.941061 0.782639
0.974095 0.941069 0.782690
0.974103 0.941080 0.782762
0.974114 0.941095 0.782861
0.974129 0.941116 0.782999
0.974219 0.941241 0.783507
0.974679 0.941880 0.785742
0.975309 0.942755 0.788797
