Assets/Data/Textures/70 CGC LUTs/LUTs_AgX_Filmic_ViewTransforms/ARRILogC4AWG4-to-JP2499DRT-CrazyInstantFilm-sRGB.cube
#  Baked from the PixelManager OCIO config by Joe Genco
#  https://github.com/Joegenco/PixelManager
#  Input Gamma: Arri LogC4
#  Input Color Space: Arri Wide Gamut 4
#  floating point data (range 0.0 - 1.0)   
#       
#  Output Gamma: Gamma 2.2 (Display)
#  Output Color Space: Rec.709
#  floating point data (range 0.0 - 1.0)
LUT_3D_SIZE 5
0.012820 0.049048 0.048764
0.249622 0.049105 0.028555
0.789275 0.197484 0.075898
0.964730 0.653587 0.582073
0.967966 0.850552 0.967618
0.008175 0.234280 0.016875
0.316685 0.296548 0.007255
0.808056 0.223041 0.079546
0.964720 0.653736 0.583926
0.967965 0.850572 0.967627
0.324716 0.688973 0.056467
0.342563 0.697641 0.062355
0.833355 0.740876 0.074477
0.966702 0.685367 0.599134
0.967948 0.850856 0.967765
0.896418 0.906013 0.633500
0.896453 0.906031 0.633695
0.901827 0.908579 0.650169
0.958887 0.923112 0.739742
0.967330 0.900840 0.972208
0.947176 0.939950 0.963848
0.947176 0.939950 0.963858
0.947174 0.939952 0.964006
0.951159 0.943456 0.968672
0.964617 0.945239 0.977614
0.012629 0.080095 0.168200
0.307313 0.110855 0.245054
0.805699 0.223540 0.169090
0.964656 0.654975 0.597933
0.967956 0.850727 0.967702
0.006309 0.290472 0.264043
0.325488 0.328868 0.325850
0.824445 0.250330 0.183241
0.964646 0.655112 0.599673
0.967954 0.850746 0.967712
0.350446 0.702352 0.077170
0.368463 0.710194 0.088171
0.839726 0.747637 0.110217
0.966637 0.686597 0.614236
0.967938 0.851029 0.967849
0.896859 0.906234 0.635811
0.896892 0.906250 0.635998
0.902241 0.908772 0.652249
0.958921 0.923205 0.740430
0.967328 0.900871 0.972262
0.947175 0.939951 0.963964
0.947175 0.939951 0.963974
0.947173 0.939953 0.964121
0.951152 0.943453 0.968745
0.964616 0.945239 0.977630
0.047362 0.369869 0.726055
0.070677 0.394983 0.753664
0.826304 0.472644 0.793305
0.963193 0.675700 0.766803
0.967811 0.853190 0.968898
0.047699 0.403861 0.756422
0.055230 0.425354 0.779045
0.833185 0.487021 0.806921
0.963202 0.676056 0.767777
0.967810 0.853209 0.968907
0.430335 0.722329 0.789533
0.446573 0.728058 0.798138
0.825097 0.751171 0.840001
0.965218 0.703989 0.783513
0.967794 0.853479 0.969038
0.902087 0.908543 0.683446
0.902109 0.908552 0.683835
0.906438 0.911018 0.698076
0.959047 0.924076 0.777402
0.967277 0.901542 0.972965
0.947149 0.939973 0.965498
0.947149 0.939973 0.965504
0.947145 0.939975 0.965596
0.951066 0.943432 0.969622
0.964613 0.945235 0.977817
0.438197 0.777142 0.971034
0.444649 0.778370 0.971292
0.640925 0.791159 0.972611
0.956017 0.833504 0.971496
0.966327 0.878004 0.976926
0.441348 0.778646 0.971346
0.446949 0.779846 0.971603
0.637164 0.792520 0.972883
0.956077 0.833902 0.971577
0.966326 0.878013 0.976928
0.504187 0.798939 0.974135
0.506879 0.799783 0.974288
0.601225 0.809504 0.975515
0.956955 0.839737 0.972735
0.966375 0.878790 0.977032
0.907195 0.912634 0.965925
0.907382 0.912759 0.966004
0.909977 0.914505 0.967109
0.954341 0.922698 0.971858
0.966827 0.907514 0.978910
0.946662 0.940278 0.974481
0.946662 0.940278 0.974483
0.946656 0.940279 0.974509
0.950070 0.943245 0.976319
0.964588 0.945210 0.979224
0.909373 0.923287 0.981095
0.909428 0.923317 0.981099
0.910537 0.923726 0.981154
0.953615 0.925493 0.980660
0.965909 0.921432 0.980596
0.909649 0.923370 0.981085
0.909703 0.923399 0.981089
0.910798 0.923808 0.981144
0.953608 0.925587 0.980655
0.965905 0.921552 0.980589
0.913550 0.924535 0.980944
0.913605 0.924564 0.980948
0.914492 0.924972 0.981004
0.953484 0.926913 0.980580
0.965866 0.922925 0.980511
0.938672 0.935907 0.979512
0.938708 0.935931 0.979516
0.939181 0.936243 0.979569
0.951454 0.939237 0.979903
0.965027 0.937915 0.979650
0.945995 0.940596 0.978324
0.946020 0.940620 0.978331
0.946380 0.940967 0.978425
0.950270 0.943946 0.979165
0.964588 0.945210 0.979224
