Assets/Data/Textures/70 CGC LUTs/LUTs_AgX_Filmic_ViewTransforms/ARRILogC4AWG4-to-AgX-Resolve-Default-sRGB.cube
#  Baked from the PixelManager OCIO config by Joe Genco
#  https://github.com/Joegenco/PixelManager
#  Input Gamma: Arri LogC4
#  Input Color Space: Arri Wide Gamut 4
#  floating point data (range 0.0 - 1.0)   
#       
#  Output Gamma: Gamma 2.2 (Display)
#  Output Color Space: Rec.709
#  floating point data (range 0.0 - 1.0)
LUT_3D_SIZE 5
0.000000 0.000000 0.000000
0.468581 0.000000 0.000000
1.027167 0.535829 0.418919
1.045707 0.904090 0.871155
1.043522 0.926806 0.899656
0.000000 0.368623 0.000000
0.375410 0.360225 0.000000
1.026923 0.533536 0.416496
1.045706 0.904055 0.871111
1.043522 0.926806 0.899656
0.000000 0.970305 0.327103
0.000000 0.969945 0.323287
0.861164 0.911261 0.524141
1.045678 0.903548 0.870467
1.043522 0.926806 0.899656
0.777256 1.026733 0.866343
0.777202 1.026731 0.866302
0.776416 1.026706 0.865705
0.987603 1.003899 0.901839
1.043522 0.926806 0.899656
0.878909 1.009431 0.978307
0.878907 1.009431 0.978306
0.878886 1.009437 0.978286
0.878570 1.009522 0.977987
0.999574 1.003683 0.978446
0.000000 0.000000 0.376587
0.492060 0.000000 0.397026
1.021258 0.519606 0.561579
1.045707 0.904092 0.871157
1.043522 0.926806 0.899656
0.000000 0.390285 0.358760
0.376883 0.376877 0.376910
1.020538 0.516460 0.568032
1.045706 0.904057 0.871113
1.043522 0.926806 0.899656
0.000000 0.950188 0.501991
0.000000 0.949754 0.500480
0.861094 0.898574 0.604019
1.045678 0.903550 0.870470
1.043522 0.926806 0.899656
0.778148 1.025957 0.869196
0.778095 1.025954 0.869157
0.777317 1.025923 0.868587
0.987600 1.003546 0.903234
1.043522 0.926806 0.899656
0.879079 1.009385 0.978468
0.879078 1.009385 0.978467
0.879056 1.009391 0.978446
0.878742 1.009476 0.978150
0.999576 1.003652 0.978598
0.290935 0.616150 0.898066
0.551003 0.606974 0.897681
0.959986 0.628199 0.895212
1.042854 0.898635 0.909020
1.043522 0.926806 0.899656
0.208772 0.668643 0.890309
0.511081 0.659494 0.890114
0.948739 0.662040 0.890327
1.042839 0.898586 0.909116
1.043522 0.926806 0.899656
0.334574 0.885428 0.854781
0.333265 0.884919 0.854820
0.860292 0.860281 0.860355
1.042622 0.897875 0.910451
1.043522 0.926806 0.899656
0.789556 1.017739 0.898793
0.789510 1.017733 0.898771
0.788832 1.017634 0.898457
0.987589 0.999262 0.920196
1.043412 0.926493 0.901398
0.881453 1.008744 0.980708
0.881452 1.008744 0.980707
0.881432 1.008750 0.980687
0.881139 1.008829 0.980411
0.999605 1.003213 0.980709
0.857638 0.922939 0.999424
0.862197 0.922668 0.999409
0.908083 0.920105 0.999259
1.019656 0.925032 0.998421
1.027898 0.933364 0.994124
0.856943 0.923852 0.999241
0.861526 0.923582 0.999226
0.907508 0.921034 0.999073
1.019636 0.925027 0.998430
1.027895 0.933370 0.994133
0.850302 0.936194 0.996732
0.851966 0.936044 0.996740
0.899800 0.933150 0.996653
1.015583 0.933561 0.996757
1.027848 0.933446 0.994249
0.872376 0.995375 0.985696
0.872364 0.995364 0.985696
0.872191 0.995198 0.985711
0.987389 0.987376 0.987461
1.027195 0.934519 0.995882
0.905508 1.004268 0.998814
0.905508 1.004268 0.998814
0.905508 1.004268 0.998814
0.905508 1.004268 0.998814
0.999997 1.000024 0.999822
0.921233 0.995446 1.000366
0.922130 0.995383 1.000371
0.933073 0.994619 1.000424
0.993568 0.990928 1.001369
1.019796 0.948671 1.008494
0.921126 0.995545 1.000346
0.922029 0.995482 1.000351
0.932981 0.994718 1.000404
0.993515 0.991017 1.001351
1.019796 0.948671 1.008494
0.919846 0.996943 1.000090
0.920661 0.996884 1.000093
0.931752 0.996106 1.000147
0.992756 0.992290 1.001101
1.019796 0.948671 1.008494
0.905508 1.004268 0.998814
0.905508 1.004268 0.998814
0.911719 1.003863 0.998826
0.986143 1.000057 0.999604
1.005852 0.985285 1.002552
0.905508 1.004268 0.998814
0.905508 1.004268 0.998814
0.905508 1.004268 0.998814
0.905508 1.004268 0.998814
1.000004 0.999991 1.000077
