Assets/Data/Textures/70 CGC LUTs/LUTs_AgX_Filmic_ViewTransforms/ARRILogC4AWG4-to-Filmic-sRGB.cube
#  Baked from the PixelManager OCIO config by Joe Genco
#  https://github.com/Joegenco/PixelManager
#  Input Gamma: Arri LogC4
#  Input Color Space: Arri Wide Gamut 4
#  floating point data (range 0.0 - 1.0)   
#       
#  Output Gamma: Gamma 2.2 (Display)
#  Output Color Space: Rec.709
#  floating point data (range 0.0 - 1.0)
LUT_3D_SIZE 9
1.4778452168684e-05 1.4778452168684e-05 1.4778452168684e-05
0.23562401533127 1.4778452168684e-05 1.4778452168684e-05
0.56685620546341 1.4778452168684e-05 1.4778452168684e-05
0.81708866357803 1.4778452168684e-05 1.4778452168684e-05
0.95231300592422 1.4778452168684e-05 1.4778452168684e-05
0.99980318546295 0.06933656334877 0.06933656334877
1 0.6107457280159 0.6107457280159
1 0.97407466173172 0.97407466173172
1 1 1
1.4778452168684e-05 0.16855882108212 1.4778452168684e-05
0.13308961689472 0.1368635892868 1.4778452168684e-05
0.54805958271027 1.4778452168684e-05 1.4778452168684e-05
0.81401568651199 1.4778452168684e-05 1.4778452168684e-05
0.95196753740311 1.4778452168684e-05 1.4778452168684e-05
0.99978250265121 0.069067001342773 0.069067001342773
1 0.61057281494141 0.61057281494141
1 0.97406536340714 0.97406536340714
1 1 1
1.4778452168684e-05 0.49369657039642 1.4778452168684e-05
1.4778452168684e-05 0.48666909337044 1.4778452168684e-05
0.45325180888176 0.45756241679192 1.4778452168684e-05
0.80136668682098 0.28936588764191 1.4778452168684e-05
0.95061987638474 1.4778452168684e-05 1.4778452168684e-05
0.99970299005508 0.068044409155846 0.068044409155846
1 0.60991358757019 0.60991358757019
1 0.9740297794342 0.9740297794342
1 1 1
1.4778452168684e-05 0.76443958282471 1.4778452168684e-05
1.4778452168684e-05 0.76313692331314 1.4778452168684e-05
1.4778452168684e-05 0.75804316997528 1.4778452168684e-05
0.73303139209747 0.73647153377533 1.4778452168684e-05
0.94497489929199 0.59734344482422 1.4778452168684e-05
0.99938893318176 0.064215295016766 0.064215295016766
1 0.60739314556122 0.60739314556122
1 0.97389405965805 0.97389405965805
1 1 1
1.4778452168684e-05 0.92781579494476 1.4778452168684e-05
1.4778452168684e-05 0.92765057086945 1.4778452168684e-05
1.4778452168684e-05 0.9270161986351 1.4778452168684e-05
1.4778452168684e-05 0.92452085018158 1.4778452168684e-05
0.91190379858017 0.91369336843491 1.4778452168684e-05
0.99801427125931 0.83432751893997 0.045062962919474
1 0.5976380109787 0.5976380109787
1 0.97337156534195 0.97337156534195
1 1 1
0.012880080379546 0.99333983659744 0.012880080379546
0.012834993191063 0.99332720041275 0.012834993191063
0.012664179317653 0.99327886104584 0.012664179317653
0.012023525312543 0.99309265613556 0.012023525312543
0.0097261182963848 0.9923523068428 0.0097261182963848
0.98842841386795 0.98900377750397 0.0028317230753601
1 0.96217834949493 0.55812841653824
1 0.9712872505188 0.9712872505188
1 1 1
0.44929349422455 1 0.44929349422455
0.4492204785347 1 0.4492204785347
0.44894510507584 1 0.44894510507584
0.44789391756058 1 0.44789391756058
0.44387865066528 1 0.44387865066528
0.42840254306793 1 0.42840254306793
1 1 0.36699134111404
1 1 0.96191799640656
1 1 1
0.92860615253448 1 0.92860615253448
0.92859977483749 1 0.92859977483749
0.92857527732849 1 0.92857527732849
0.92848259210587 1 0.92848259210587
0.92812794446945 1 0.92812794446945
0.92676103115082 1 0.92676103115082
0.92130303382874 1 0.92130303382874
1 1 0.89622974395752
1 1 1
1 1 1
1 1 1
1 1 1
1 1 1
1 1 1
1 1 1
1 1 1
1 1 1
1 1 1
1.4778452168684e-05 1.4778452168684e-05 0.14187294244766
0.22356374561787 1.4778452168684e-05 0.13979040086269
0.56426775455475 1.4778452168684e-05 0.13164180517197
0.81665289402008 1.4778452168684e-05 0.096666276454926
0.95226365327835 1.4778452168684e-05 1.4778452168684e-05
0.99980020523071 0.069297693669796 0.069297693669796
1 0.61072033643723 0.61072033643723
1 0.97407329082489 0.97407329082489
1 1 1
1.4778452168684e-05 0.14841398596764 0.11523894965649
0.11282446235418 0.11282446235418 0.11282446235418
0.5452007651329 1.4778452168684e-05 0.10330159962177
0.81356579065323 1.4778452168684e-05 0.060328535735607
0.95191758871078 1.4778452168684e-05 1.4778452168684e-05
0.99977952241898 0.069028243422508 0.069028243422508
1 0.61054742336273 0.61054742336273
1 0.97406399250031 0.97406399250031
1 1 1
1.4778452168684e-05 0.48912620544434 1.4778452168684e-05
1.4778452168684e-05 0.48194283246994 1.4778452168684e-05
0.44864988327026 0.45214295387268 1.4778452168684e-05
0.80085754394531 0.27794083952904 1.4778452168684e-05
0.95056790113449 1.4778452168684e-05 1.4778452168684e-05
0.9996999502182 0.068005837500095 0.068005837500095
1 0.60988855361938 0.60988855361938
1 0.97402846813202 0.97402846813202
1 1 1
1.4778452168684e-05 0.76358902454376 1.4778452168684e-05
1.4778452168684e-05 0.76227706670761 1.4778452168684e-05
1.4778452168684e-05 0.75714641809464 1.4778452168684e-05
0.73212039470673 0.73540699481964 1.4778452168684e-05
0.94491446018219 0.59471160173416 1.4778452168684e-05
0.99938571453094 0.064177632331848 0.064177632331848
1 0.60736811161041 0.60736811161041
1 0.97389262914658 0.97389262914658
1 1 1
1.4778452168684e-05 0.92770779132843 1.4778452168684e-05
1.4778452168684e-05 0.92754226922989 1.4778452168684e-05
1.4778452168684e-05 0.92690640687943 1.4778452168684e-05
1.4778452168684e-05 0.92440527677536 1.4778452168684e-05
0.91178089380264 0.91355085372925 1.4778452168684e-05
0.99801027774811 0.83389222621918 0.045013215392828
1 0.59761244058609 0.59761244058609
1 0.97337019443512 0.97337019443512
1 1 1
0.012850589118898 0.99333161115646 0.012850589118898
0.012805562466383 0.99331891536713 0.012805562466383
0.0126349972561 0.99327057600021 0.0126349972561
0.011995039880276 0.993084192276 0.011995039880276
0.0097002312541008 0.9923432469368 0.0097002312541008
0.98841804265976 0.98899179697037 0.0028143867384642
1 0.962133705616 0.55810010433197
1 0.97128582000732 0.97128582000732
1 1 1
0.44924598932266 1 0.44924598932266
0.44917365908623 1 0.44917365908623
0.44889751076698 1 0.44889751076698
0.44784685969353 1 0.44784685969353
0.44383147358894 1 0.44383147358894
0.42835411429405 1 0.42835411429405
1 1 0.36693960428238
1 1 0.96191602945328
1 1 1
0.92860186100006 1 0.92860186100006
0.92859554290771 1 0.92859554290771
0.92857110500336 1 0.92857110500336
0.92847830057144 1 0.92847830057144
0.92812365293503 1 0.92812365293503
0.92675668001175 1 0.92675668001175
0.92129802703857 1 0.92129802703857
1 1 0.89622354507446
1 1 1
1 1 1
1 1 1
1 1 1
1 1 1
1 1 1
1 1 1
1 1 1
1 1 1
1 1 1
1.4778452168684e-05 1.4778452168684e-05 0.46328833699226
0.17042706906796 1.4778452168684e-05 0.46279537677765
0.55406355857849 1.4778452168684e-05 0.46090838313103
0.8149750828743 1.4778452168684e-05 0.45356732606888
0.95207458734512 1.4778452168684e-05 0.42313700914383
0.99978888034821 0.069150179624557 0.26532608270645
1 0.6106259226799 0.6106259226799
1 0.97406828403473 0.97406828403473
1 1 1
1.4778452168684e-05 0.037737097591162 0.45731028914452
1.4778452168684e-05 1.4778452168684e-05 0.45680367946625
0.53391110897064 1.4778452168684e-05 0.45486360788345
0.81183475255966 1.4778452168684e-05 0.44731351733208
0.95172673463821 1.4778452168684e-05 0.41595381498337
0.99976819753647 0.068881034851074 0.25204417109489
1 0.61045295000076 0.61045295000076
1 0.97405898571014 0.97405898571014
1 1 1
1.4778452168684e-05 0.47076034545898 0.43292829394341
1.4778452168684e-05 0.4629208445549 0.43236276507378
0.43019610643387 0.43019610643387 0.43019610643387
0.79889523983002 0.22838123142719 0.42173960804939
0.95036965608597 1.4778452168684e-05 0.3862983584404
0.99968844652176 0.067859537899494 0.18492394685745
1 0.60979378223419 0.60979378223419
1 0.97402334213257 0.97402334213257
1 1 1
1.4778452168684e-05 0.76029378175735 0.30461764335632
1.4778452168684e-05 0.75894546508789 0.30362913012505
1.4778452168684e-05 0.75366985797882 0.29982668161392
0.72859221696854 0.73127216100693 0.28475359082222
0.94468367099762 0.5843220949173 0.21618144214153
0.99937349557877 0.064035259187222 0.064035259187222
1 0.60727256536484 0.60727256536484
1 0.97388750314713 0.97388750314713
1 1 1
1.4778452168684e-05 0.92729437351227 1.4778452168684e-05
1.4778452168684e-05 0.92712724208832 1.4778452168684e-05
1.4778452168684e-05 0.92648583650589 1.4778452168684e-05
1.4778452168684e-05 0.92396235466003 1.4778452168684e-05
0.91131049394608 0.9130043387413 1.4778452168684e-05
0.99799501895905 0.83221524953842 0.044824112206697
1 0.59751468896866 0.59751468896866
1 0.97336494922638 0.97336494922638
1 1 1
0.012738604098558 0.99329996109009 0.012738604098558
0.012693826109171 0.99328726530075 0.012693826109171
0.012523869983852 0.9932387471199 0.012523869983852
0.011886747553945 0.99305182695389 0.011886747553945
0.0096018360927701 0.99230861663818 0.0096018360927701
0.98837840557098 0.98894625902176 0.002748585306108
1 0.96196264028549 0.55799210071564
1 0.97128021717072 0.97128021717072
1 1 1
0.44906571507454 1 0.44906571507454
0.44899326562881 1 0.44899326562881
0.44871723651886 1 0.44871723651886
0.44766619801521 1 0.44766619801521
0.44364967942238 1 0.44364967942238
0.4281692802906 1 0.4281692802906
1 1 0.3667431473732
1 1 0.96190869808197
1 1 1
0.92858588695526 1 0.92858588695526
0.92857950925827 1 0.92857950925827
0.92855525016785 1 0.92855525016785
0.928462266922 1 0.928462266922
0.92810755968094 1 0.92810755968094
0.92674022912979 1 0.92674022912979
0.92128068208694 1 0.92128068208694
1 1 0.89619964361191
1 1 1
1 1 1
1 1 1
1 1 1
1 1 1
1 1 1
1 1 1
1 1 1
1 1 1
1 1 1
1.4778452168684e-05 1.4778452168684e-05 0.74100661277771
1.4778452168684e-05 1.4778452168684e-05 0.74090969562531
0.50943970680237 1.4778452168684e-05 0.74054092168808
0.80831438302994 1.4778452168684e-05 0.73912620544434
0.95134544372559 1.4778452168684e-05 0.73359304666519
0.9997456073761 0.068589694797993 0.7123561501503
1 0.61026555299759 0.71949791908264
1 0.97404879331589 0.97404879331589
1 1 1
1.4778452168684e-05 1.4778452168684e-05 0.73984354734421
1.4778452168684e-05 1.4778452168684e-05 0.73974603414536
0.4837172627449 1.4778452168684e-05 0.73937374353409
0.8049544095993 1.4778452168684e-05 0.73794621229172
0.95099020004272 1.4778452168684e-05 0.73236161470413
0.99972468614578 0.068321265280247 0.71088773012161
1 0.61009258031845 0.71835321187973
1 0.97403943538666 0.97403943538666
1 1 1
1.4778452168684e-05 0.38208532333374 0.73531639575958
1.4778452168684e-05 0.37034395337105 0.73521536588669
0.34173479676247 0.31925144791603 0.73482984304428
0.79107218980789 1.4778452168684e-05 0.73335140943527
0.94960469007492 1.4778452168684e-05 0.72756379842758
0.99964427947998 0.067303061485291 0.70515370368958
1 0.6094326376915 0.71378201246262
1 0.97400379180908 0.97400379180908
1 1 1
1.4778452168684e-05 0.74686521291733 0.71650111675262
1.4778452168684e-05 0.74536198377609 0.71638488769531
1.4778452168684e-05 0.73946851491928 0.71594113111496
0.71423852443695 0.71423852443695 0.71423852443695
0.94379198551178 0.53842628002167 0.70755779743195
0.99932676553726 0.063494481146336 0.68099874258041
1 0.60690891742706 0.68488746881485
1 0.97386795282364 0.97386795282364
1 1 1
1.4778452168684e-05 0.92568600177765 0.60867482423782
1.4778452168684e-05 0.92551326751709 0.60844314098358
1.4778452168684e-05 0.92484998703003 0.6075587272644
1.4778452168684e-05 0.92223882675171 0.60414862632751
0.90948116779327 0.91087162494659 0.59052717685699
0.99793672561646 0.82553261518478 0.53074198961258
1 0.59714126586914 0.59714126586914
1 0.97334504127502 0.97334504127502
1 1 1
0.012316635809839 0.9931788444519 0.012316635809839
0.012272470630705 0.99316596984863 0.012272470630705
0.012105273082852 0.99311685562134 0.012105273082852
0.011478411965072 0.99292778968811 0.011478411965072
0.0092313280329108 0.99217581748962 0.0092313280329108
0.9882265329361 0.98877143859863 0.002501062117517
1 0.96130222082138 0.55758100748062
1 0.97125864028931 0.97125864028931
1 1 1
0.44837841391563 1 0.44837841391563
0.44830599427223 1 0.44830599427223
0.4480297267437 1 0.4480297267437
0.44697758555412 1 0.44697758555412
0.4429574906826 1 0.4429574906826
0.4274640083313 1 0.4274640083313
1 1 0.36599490046501
1 1 0.96188127994537
1 1 1
0.92852509021759 1 0.92852509021759
0.92851883172989 1 0.92851883172989
0.92849433422089 1 0.92849433422089
0.92840164899826 1 0.92840164899826
0.92804658412933 1 0.92804658412933
0.92667782306671 1 0.92667782306671
0.92121344804764 1 0.92121344804764
1 1 0.89610952138901
1 1 1
1 1 1
1 1 1
1 1 1
1 1 1
1 1 1
1 1 1
1 1 1
1 1 1
1 1 1
1.4778452168684e-05 1.4778452168684e-05 0.91603511571884
1.4778452168684e-05 1.4778452168684e-05 0.91602224111557
0.051291085779667 1.4778452168684e-05 0.91597300767899
0.778156042099 1.4778452168684e-05 0.91578590869904
0.94842338562012 1.4778452168684e-05 0.91506665945053
0.99957716464996 0.06647190451622 0.91243946552277
1 0.60888904333115 0.9134458899498
1 0.97397458553314 0.97993832826614
1 1 1
1.4778452168684e-05 1.4778452168684e-05 0.91588062047958
1.4778452168684e-05 1.4778452168684e-05 0.91586780548096
1.4778452168684e-05 1.4778452168684e-05 0.91581851243973
0.77369695901871 1.4778452168684e-05 0.91563069820404
0.948037981987 1.4778452168684e-05 0.91490936279297
0.99955558776855 0.066207364201546 0.91227203607559
1 0.60871565341949 0.91328346729279
1 0.97396510839462 0.97991156578064
1 1 1
1.4778452168684e-05 1.4778452168684e-05 0.91528844833374
1.4778452168684e-05 1.4778452168684e-05 0.91527539491653
1.4778452168684e-05 1.4778452168684e-05 0.91522550582886
0.75497758388519 1.4778452168684e-05 0.91503572463989
0.94653314352036 1.4778452168684e-05 0.91430628299713
0.99947261810303 0.065204866230488 0.91163003444672
1 0.60805332660675 0.91266065835953
1 0.97392964363098 0.97980904579163
1 1 1
1.4778452168684e-05 0.6778216958046 0.91297143697739
1.4778452168684e-05 0.67534631490707 0.91295778751373
1.4778452168684e-05 0.6655353307724 0.91290581226349
0.64111715555191 0.62145537137985 0.91270750761032
0.9401997923851 1.4778452168684e-05 0.91194599866867
0.99914520978928 0.061455298215151 0.90911501646042
1 0.60552030801773 0.91021835803986
1 0.97379338741302 0.97940289974213
1 1 1
1.4778452168684e-05 0.91903066635132 0.9031440615654
1.4778452168684e-05 0.9188334941864 0.90312784910202
1.4778452168684e-05 0.9180753827095 0.90306615829468
1.4778452168684e-05 0.91508406400681 0.90283054113388
0.90192461013794 0.90192461013794 0.90192461013794
0.99771028757095 0.79477709531784 0.89850252866745
1 0.59571659564972 0.89975523948669
1 0.97326922416687 0.97756779193878
1 1 1
0.010770905762911 0.99270415306091 0.84081643819809
0.010729539208114 0.99269074201584 0.84077799320221
0.010572418570518 0.99263942241669 0.84063130617142
0.0099838776513934 0.99244171380997 0.84007066488266
0.0078769270330667 0.99165499210358 0.83790212869644
0.98763245344162 0.98808437585831 0.82912808656693
1 0.95864480733871 0.82443201541901
1 0.97117656469345 0.97117656469345
1 1 1
0.44575574994087 1 0.44575574994087
0.44568276405334 1 0.44568276405334
0.44540596008301 1 0.44540596008301
0.44435000419617 1 0.44435000419617
0.4403167963028 1 0.4403167963028
0.42477405071259 1 0.42477405071259
1 1 0.36314034461975
1 1 0.96177613735199
1 1 1
0.92829358577728 1 0.92829358577728
0.92828720808029 1 0.92828720808029
0.92826271057129 1 0.92826271057129
0.92816948890686 1 0.92816948890686
0.92781335115433 1 0.92781335115433
0.92644011974335 1 0.92644011974335
0.9209571480751 1 0.9209571480751
1 1 0.89576482772827
1 1 1
1 1 1
1 1 1
1 1 1
1 1 1
1 1 1
1 1 1
1 1 1
1 1 1
1 1 1
0.003994392696768 0.003994392696768 0.98974841833115
0.0039926171302795 0.0039926171302795 0.98974734544754
0.0039858021773398 0.0039858021773398 0.9897432923317
0.42113447189331 0.0039599756710231 0.98972779512405
0.93469625711441 0.0038620799314231 0.98966878652573
0.99888604879379 0.057648357003927 0.98944675922394
1 0.60360145568848 0.98946350812912
1 0.97369039058685 0.99820500612259
1 1 1
0.003973051905632 0.003973051905632 0.98973566293716
0.0039712321013212 0.0039712321013212 0.98973459005356
0.0039644781500101 0.0039644781500101 0.98973053693771
0.38098326325417 0.0039387024007738 0.98971509933472
0.93415474891663 0.0038409477565438 0.9896559715271
0.99886178970337 0.0572459846735 0.98943364620209
1 0.60342514514923 0.98944985866547
1 0.97368085384369 0.99819821119308
1 1 1
0.0038920945953578 0.0038920945953578 0.98968696594238
0.0038902880623937 0.0038902880623937 0.98968589305878
0.0038835380692035 0.0038835380692035 0.98968183994293
0.080978110432625 0.0038579048123211 0.98966628313065
0.93203049898148 0.0037607261911035 0.98960697650909
0.99876832962036 0.055728796869516 0.98938375711441
1 0.60275363922119 0.98939776420593
1 0.97364497184753 0.9981724023819
1 1 1
0.0035878897178918 0.0035878897178918 0.98949986696243
0.0035861313808709 0.0035861313808709 0.98949873447418
0.0035795269068331 0.0035795269068331 0.98949462175369
0.0035544710699469 0.0035544710699469 0.98947888612747
0.92290645837784 0.003459305735305 0.98941874504089
0.9983993768692 0.050180315971375 0.98919200897217
1 0.60018467903137 0.98919755220413
1 0.97350746393204 0.99807333946228
1 1 1
0.0024879574775696 0.88231289386749 0.98876202106476
0.002486381912604 0.88194972276688 0.98876088857651
0.0024802894331515 0.88055026531219 0.98875653743744
0.0024572089314461 0.87494194507599 0.98873990774155
0.86059385538101 0.84864777326584 0.98867630958557
0.99677634239197 0.33564898371696 0.98843562602997
1 0.59024292230606 0.98840659856796
1 0.97297865152359 0.99768203496933
1 1 1
0.0057193990796804 0.9906867146492 0.98553621768951
0.0056872037239373 0.9906707406044 0.98553472757339
0.0055652027949691 0.99060958623886 0.98552930355072
0.0051085371524096 0.99037390947342 0.9855083823204
0.0034834484104067 0.9894340634346 0.98542869091034
0.98512184619904 0.98512184619904 0.98512184619904
1 0.94594669342041 0.98486131429672
1 0.97086203098297 0.99604326486588
1 1 1
0.4356881082058 1 0.96325421333313
0.4356147646904 1 0.96324986219406
0.4353341460228 1 0.9632334113121
0.43426537513733 1 0.96317064762115
0.4301820397377 1 0.96293067932129
0.41445350646973 1 0.96199786663055
1 1 0.95815467834473
1 1 0.98485523462296
1 1 1
0.92740452289581 1 0.92740452289581
0.92739814519882 1 0.92739814519882
0.92737329006195 1 0.92737329006195
0.92727881669998 1 0.92727881669998
0.92691820859909 1 0.92691820859909
0.92552733421326 1 0.92552733421326
0.91997319459915 1 0.91997319459915
1 1 0.89444094896317
1 1 1
1 1 1
1 1 1
1 1 1
1 1 1
1 1 1
1 1 1
1 1 1
1 1 1
1 1 1
0.37955570220947 0.37955570220947 1
0.3795508146286 0.3795508146286 1
0.37953242659569 0.37953242659569 1
0.37946280837059 0.37946280837059 1
0.74344158172607 0.37919628620148 1
0.99543583393097 0.37818166613579 1
1 0.58277171850204 1
1 0.97258424758911 1
1 1 1
0.37949785590172 0.37949785590172 1
0.37949293851852 0.37949293851852 1
0.37947469949722 0.37947469949722 1
0.37940472364426 0.37940472364426 1
0.73682498931885 0.37913879752159 1
0.99539732933044 0.37812367081642 1
1 0.58258640766144 1
1 0.97257459163666 1
1 1 1
0.37927788496017 0.37927788496017 1
0.37927347421646 0.37927347421646 1
0.37925460934639 0.37925460934639 1
0.37918475270271 0.37918475270271 1
0.71129804849625 0.37891840934753 1
0.99524933099747 0.37790381908417 1
1 0.58187782764435 1
1 0.97253727912903 1
1 1 1
0.37843990325928 0.37843990325928 1
0.37843537330627 0.37843537330627 1
0.37841713428497 0.37841713428497 1
0.37834689021111 0.37834689021111 1
0.52810609340668 0.37808021903038 1
0.99466234445572 0.37706455588341 1
1 0.57916903495789 1
1 0.97239500284195 1
1 1 1
0.37524315714836 0.37524315714836 1
0.37523862719536 0.37523862719536 1
0.37521997094154 0.37521997094154 1
0.37514951825142 0.37514951825142 1
0.37488257884979 0.37488257884979 1
0.99203860759735 0.37386402487755 1
1 0.5686851143837 1
1 0.97184270620346 1
1 1 1
0.36299255490303 0.97867900133133 1
0.36298727989197 0.97864532470703 1
0.36296880245209 0.97851657867432 1
0.36289802193642 0.97801864147186 1
0.36262789368629 0.9760028719902 1
0.97068846225739 0.96609902381897 1
1 0.71859353780746 1
1 0.96963763237 1
1 1 1
0.39624360203743 1 1
0.39616751670837 1 1
0.39587408304214 1 1
0.39475849270821 1 1
0.39049884676933 1 1
0.37412333488464 1 1
1 1 1
1 1 1
1 1 1
0.92391282320023 1 1
0.92390596866608 1 1
0.9238800406456 1 1
0.9237807393074 1 1
0.92340207099915 1 1
0.92194151878357 1 1
0.91610604524612 1 1
1 1 1
1 1 1
1 1 1
1 1 1
1 1 1
1 1 1
1 1 1
1 1 1
1 1 1
1 1 1
1 1 1
0.90185803174973 0.90185803174973 1
0.90185737609863 0.90185737609863 1
0.90185528993607 0.90185528993607 1
0.90184718370438 0.90184718370438 1
0.90181666612625 0.90181666612625 1
0.95609444379807 0.90170037746429 1
1 0.90125560760498 1
1 0.96793580055237 1
1 1 1
0.90185129642487 0.90185129642487 1
0.90185087919235 0.90185087919235 1
0.90184873342514 0.90184873342514 1
0.90184074640274 0.90184074640274 1
0.90181010961533 0.90181010961533 1
0.95575124025345 0.90169358253479 1
1 0.90124899148941 1
1 0.96792447566986 1
1 1 1
0.90182596445084 0.90182596445084 1
0.90182554721832 0.90182554721832 1
0.90182340145111 0.90182340145111 1
0.90181535482407 0.90181535482407 1
0.9017847776413 0.9017847776413 1
0.95439529418945 0.90166842937469 1
1 0.90122348070145 1
1 0.96788132190704 1
1 1 1
0.90173000097275 0.90173000097275 1
0.9017294049263 0.9017294049263 1
0.90172743797302 0.90172743797302 1
0.90171921253204 0.90171921253204 1
0.90168887376785 0.90168887376785 1
0.94951266050339 0.90157186985016 1
1 0.90112674236298 1
1 0.96771615743637 1
1 1 1
0.90136301517487 0.90136301517487 1
0.90136224031448 0.90136224031448 1
0.90136027336121 0.90136027336121 1
0.90135210752487 0.90135210752487 1
0.90132147073746 0.90132147073746 1
0.92008191347122 0.90120434761047 1
1 0.90075743198395 1
1 0.96708053350449 1
1 1 1
0.89995157718658 0.89995157718658 1
0.89995086193085 0.89995086193085 1
0.89994901418686 0.89994901418686 1
0.89994084835052 0.89994084835052 1
0.89990943670273 0.89990943670273 1
0.89979070425034 0.89979070425034 1
1 0.89933657646179 1
1 0.96455878019333 1
1 1 1
0.89437240362167 1 1
0.89437192678452 1 1
0.89436942338943 1 1
0.89436084032059 1 1
0.89432775974274 1 1
0.89420175552368 1 1
1 1 1
1 0.96922999620438 1
1 1 1
0.90891486406326 1 1
0.90890645980835 1 1
0.90887504816055 1 1
0.90875512361526 1 1
0.90829700231552 1 1
0.90652906894684 1 1
0.89945232868195 1 1
1 1 1
1 1 1
1 1 1
1 1 1
1 1 1
1 1 1
1 1 1
1 1 1
1 1 1
1 1 1
1 1 1
1 1 1
1 1 1
1 1 1
1 1 1
1 1 1
1 1 1
1 1 1
1 1 1
1 1 1
1 1 1
1 1 1
1 1 1
1 1 1
1 1 1
1 1 1
1 1 1
1 1 1
1 1 1
1 1 1
1 1 1
1 1 1
1 1 1
1 1 1
1 1 1
1 1 1
1 1 1
1 1 1
1 1 1
1 1 1
1 1 1
1 1 1
1 1 1
1 1 1
1 1 1
1 1 1
1 1 1
1 1 1
1 1 1
1 1 1
1 1 1
1 1 1
1 1 1
1 1 1
1 1 1
1 1 1
1 1 1
1 1 1
1 1 1
1 1 1
1 1 1
1 1 1
1 1 1
1 1 1
1 1 1
1 1 1
1 1 1
1 1 1
1 1 1
1 1 1
1 1 1
1 1 1
1 1 1
1 1 1
1 1 1
1 1 1
1 1 1
1 1 1
1 1 1
1 1 1
1 1 1
1 1 1
1 1 1
1 1 1
1 1 1
1 1 1
1 1 1
1 1 1
1 1 1
1 1 1
1 1 1
1 1 1
