Assets/Data/Textures/70 CGC LUTs/LUTs_AgX_Filmic_ViewTransforms/ARRILogC4AWG4-to-JP2499DRT-PrintV2-sRGB.cube
#  Baked from the PixelManager OCIO config by Joe Genco
#  https://github.com/Joegenco/PixelManager
#  Input Gamma: Arri LogC4
#  Input Color Space: Arri Wide Gamut 4
#  floating point data (range 0.0 - 1.0)   
#       
#  Output Gamma: Gamma 2.2 (Display)
#  Output Color Space: Rec.709
#  floating point data (range 0.0 - 1.0)
LUT_3D_SIZE 33
0.044349 0.059667 0.049974
0.044349 0.059667 0.049974
0.044349 0.059667 0.049974
0.044727 0.059687 0.049970
0.065909 0.060510 0.049316
0.095127 0.061264 0.047600
0.135792 0.060935 0.042815
0.188148 0.058052 0.034845
0.253249 0.053253 0.029946
0.328113 0.050120 0.030935
0.414068 0.053660 0.034542
0.504456 0.059600 0.040618
0.587019 0.073320 0.046511
0.659722 0.089356 0.052704
0.722372 0.118424 0.059734
0.775106 0.164519 0.068979
0.818825 0.227279 0.085116
0.854713 0.300012 0.118047
0.881956 0.376814 0.178724
0.901936 0.454158 0.265154
0.915710 0.528905 0.355390
0.925362 0.599076 0.440973
0.931879 0.662684 0.519902
0.936781 0.718305 0.589572
0.939556 0.765596 0.649268
0.941159 0.804909 0.699542
0.942172 0.837193 0.741342
0.942892 0.861895 0.774996
0.942748 0.872732 0.808827
0.942103 0.878528 0.842486
0.941438 0.886014 0.865657
0.940758 0.895226 0.879295
0.940133 0.904115 0.887652
0.044349 0.059667 0.049974
0.044349 0.059667 0.049974
0.044349 0.059667 0.049974
0.044580 0.059679 0.049971
0.065709 0.060504 0.049323
0.094959 0.061264 0.047613
0.135621 0.060948 0.042840
0.188007 0.058065 0.034870
0.253106 0.053267 0.029944
0.328007 0.050116 0.030931
0.414733 0.053674 0.034608
0.504873 0.059640 0.040695
0.587277 0.073379 0.046569
0.659873 0.089447 0.052803
0.722462 0.118487 0.059818
0.775188 0.164638 0.069152
0.818887 0.227392 0.085391
0.854762 0.300101 0.118465
0.881980 0.376878 0.179180
0.901941 0.454199 0.265528
0.915711 0.528931 0.355638
0.925362 0.599093 0.441135
0.931878 0.662695 0.520009
0.936780 0.718311 0.589634
0.939556 0.765600 0.649307
0.941159 0.804911 0.699566
0.942172 0.837194 0.741355
0.942891 0.861896 0.775004
0.942748 0.872732 0.808831
0.942103 0.878528 0.842488
0.941438 0.886015 0.865658
0.940758 0.895226 0.879296
0.940133 0.904115 0.887652
0.044349 0.059667 0.049974
0.044349 0.059667 0.049974
0.044349 0.059667 0.049974
0.044349 0.059667 0.049974
0.065426 0.060497 0.049333
0.094723 0.061264 0.047631
0.135381 0.060967 0.042876
0.187809 0.058084 0.034906
0.252907 0.053285 0.029940
0.327859 0.050111 0.030925
0.415551 0.053691 0.034690
0.505434 0.059706 0.040797
0.587636 0.073473 0.046662
0.660081 0.089572 0.052941
0.722586 0.118574 0.059935
0.775301 0.164804 0.069392
0.818975 0.227550 0.085789
0.854830 0.300226 0.119048
0.882014 0.376967 0.179817
0.901949 0.454255 0.266050
0.915712 0.528967 0.355983
0.925361 0.599116 0.441361
0.931878 0.662710 0.520158
0.936780 0.718321 0.589721
0.939555 0.765605 0.649361
0.941158 0.804914 0.699598
0.942172 0.837196 0.741374
0.942891 0.861897 0.775016
0.942748 0.872733 0.808837
0.942103 0.878529 0.842491
0.941438 0.886015 0.865660
0.940758 0.895227 0.879297
0.940133 0.904116 0.887653
0.044349 0.059667 0.049974
0.044349 0.059667 0.049974
0.044349 0.059667 0.049974
0.044349 0.059667 0.049974
0.065025 0.060487 0.049348
0.094391 0.061265 0.047656
0.135046 0.060993 0.042926
0.187533 0.058110 0.034956
0.252641 0.053309 0.029935
0.327651 0.050104 0.030916
0.416644 0.053719 0.034824
0.506175 0.059793 0.040932
0.588126 0.073605 0.046793
0.660366 0.089745 0.053130
0.722757 0.118695 0.060097
0.775459 0.165033 0.069735
0.819102 0.227769 0.086379
0.854925 0.300399 0.119860
0.882061 0.377090 0.180705
0.901959 0.454333 0.266779
0.915713 0.529018 0.356464
0.925361 0.599149 0.441675
0.931877 0.662731 0.520366
0.936779 0.718333 0.589843
0.939554 0.765613 0.649437
0.941158 0.804919 0.699644
0.942171 0.837198 0.741401
0.942891 0.861898 0.775033
0.942748 0.872734 0.808845
0.942103 0.878530 0.842496
0.941438 0.886016 0.865663
0.940758 0.895228 0.879298
0.940133 0.904116 0.887653
0.042602 0.080354 0.048922
0.042616 0.080266 0.048926
0.042636 0.080141 0.048931
0.042664 0.079966 0.048939
0.073879 0.091200 0.045733
0.126596 0.080884 0.042266
0.177528 0.069550 0.035332
0.230006 0.059458 0.030934
0.288055 0.052060 0.030086
0.353957 0.050923 0.031198
0.436585 0.055099 0.036058
0.517665 0.060984 0.041714
0.593596 0.074601 0.047184
0.662143 0.090606 0.053429
0.722993 0.118861 0.060319
0.775688 0.165351 0.070266
0.819278 0.228074 0.087197
0.855057 0.300639 0.120987
0.882126 0.377262 0.181940
0.901973 0.454443 0.267793
0.915715 0.529088 0.357135
0.925360 0.599194 0.442115
0.931876 0.662760 0.520657
0.936778 0.718352 0.590013
0.939553 0.765623 0.649543
0.941157 0.804925 0.699707
0.942171 0.837202 0.741438
0.942891 0.861900 0.775057
0.942748 0.872735 0.808857
0.942103 0.878531 0.842502
0.941438 0.886018 0.865666
0.940758 0.895229 0.879299
0.940133 0.904117 0.887654
0.037997 0.110998 0.043573
0.038029 0.110914 0.043584
0.038074 0.110797 0.043600
0.038137 0.110632 0.043621
0.032684 0.141869 0.032053
0.116526 0.137503 0.028289
0.192595 0.123340 0.025550
0.264200 0.103451 0.026420
0.331947 0.078654 0.029693
0.399534 0.064309 0.033242
0.473052 0.061175 0.037792
0.543884 0.067153 0.042839
0.611527 0.078780 0.048112
0.673737 0.096181 0.054062
0.729604 0.122944 0.060610
0.778593 0.168725 0.070770
0.820039 0.229534 0.088175
0.855241 0.300973 0.122551
0.882217 0.377501 0.183657
0.901994 0.454595 0.269205
0.915717 0.529186 0.358071
0.925359 0.599258 0.442727
0.931874 0.662800 0.521063
0.936777 0.718376 0.590251
0.939552 0.765638 0.649690
0.941156 0.804933 0.699796
0.942170 0.837206 0.741489
0.942890 0.861903 0.775090
0.942748 0.872737 0.808873
0.942103 0.878533 0.842512
0.941438 0.886020 0.865671
0.940757 0.895231 0.879301
0.940133 0.904118 0.887655
0.023718 0.150670 0.028942
0.023736 0.150594 0.028963
0.023761 0.150489 0.028993
0.023796 0.150341 0.029035
0.021285 0.179168 0.024058
0.063447 0.200755 0.016661
0.173429 0.193177 0.012308
0.268668 0.176683 0.017958
0.353250 0.152064 0.025622
0.436165 0.119054 0.033041
0.510344 0.090117 0.039146
0.574751 0.082059 0.044304
0.633770 0.086672 0.049128
0.688839 0.105719 0.054754
0.739237 0.132960 0.060928
0.784456 0.176327 0.071150
0.823517 0.236543 0.088757
0.856798 0.305312 0.123770
0.882535 0.378612 0.185795
0.902022 0.454807 0.271169
0.915720 0.529322 0.359374
0.925358 0.599346 0.443581
0.931872 0.662857 0.521628
0.936775 0.718412 0.590582
0.939550 0.765659 0.649896
0.941155 0.804946 0.699920
0.942169 0.837213 0.741562
0.942890 0.861907 0.775137
0.942747 0.872739 0.808896
0.942102 0.878536 0.842524
0.941438 0.886023 0.865677
0.940757 0.895233 0.879304
0.940133 0.904119 0.887656
0.016414 0.198205 0.017950
0.016444 0.198140 0.017983
0.016485 0.198049 0.018029
0.016543 0.197922 0.018094
0.015337 0.221460 0.015380
0.014560 0.255546 0.011573
0.114954 0.268136 0.010145
0.242802 0.259080 0.005607
0.356617 0.241692 0.016114
0.454963 0.215561 0.027831
0.536268 0.179028 0.036764
0.603185 0.138010 0.044066
0.658008 0.118305 0.049488
0.706939 0.122033 0.055369
0.751379 0.149374 0.061146
0.791909 0.190393 0.071218
0.827737 0.247169 0.089024
0.859101 0.313202 0.124572
0.883998 0.384387 0.187357
0.902459 0.457296 0.273252
0.915725 0.529512 0.361185
0.925356 0.599469 0.444770
0.931869 0.662936 0.522417
0.936772 0.718460 0.591044
0.939547 0.765688 0.650183
0.941153 0.804962 0.700093
0.942168 0.837222 0.741662
0.942889 0.861912 0.775201
0.942747 0.872743 0.808928
0.942102 0.878540 0.842542
0.941437 0.886027 0.865687
0.940757 0.895236 0.879308
0.940132 0.904121 0.887658
0.012414 0.255083 0.011672
0.012422 0.255033 0.011682
0.012434 0.254963 0.011695
0.012450 0.254865 0.011714
0.011988 0.272199 0.011445
0.011883 0.302760 0.010893
0.020227 0.335990 0.010858
0.181324 0.345463 0.009041
0.333197 0.337897 0.004627
0.454719 0.319642 0.016432
0.548368 0.290283 0.028771
0.621154 0.250773 0.038855
0.679066 0.204090 0.047147
0.725358 0.172185 0.054561
0.765051 0.176258 0.061126
0.800690 0.211437 0.071211
0.832910 0.262512 0.089067
0.862110 0.324383 0.125272
0.885976 0.392477 0.189280
0.903445 0.462950 0.275395
0.916224 0.532855 0.362931
0.925374 0.599830 0.446385
0.931865 0.663046 0.523516
0.936768 0.718528 0.591688
0.939543 0.765729 0.650583
0.941150 0.804986 0.700335
0.942166 0.837235 0.741803
0.942887 0.861920 0.775292
0.942746 0.872748 0.808972
0.942101 0.878545 0.842567
0.941437 0.886033 0.865700
0.940757 0.895241 0.879313
0.940132 0.904124 0.887660
0.011559 0.321490 0.010503
0.011551 0.321996 0.010518
0.011539 0.322640 0.010535
0.011522 0.323603 0.010562
0.011679 0.336082 0.010897
0.012305 0.362977 0.010939
0.014173 0.396241 0.011028
0.028761 0.429291 0.011622
0.265470 0.431322 0.009014
0.427896 0.421327 0.005328
0.544385 0.401310 0.016717
0.628880 0.370973 0.028335
0.691626 0.330065 0.039193
0.740148 0.281159 0.049547
0.778377 0.245948 0.058483
0.811184 0.251039 0.069947
0.839715 0.287467 0.088355
0.866110 0.341016 0.125564
0.888576 0.403820 0.191476
0.904759 0.470819 0.278033
0.917030 0.538301 0.365091
0.925738 0.603427 0.447951
0.931918 0.663793 0.524926
0.936762 0.718623 0.592585
0.939538 0.765786 0.651142
0.941146 0.805018 0.700671
0.942163 0.837253 0.741998
0.942886 0.861930 0.775417
0.942745 0.872754 0.809035
0.942101 0.878552 0.842602
0.941436 0.886041 0.865718
0.940756 0.895247 0.879321
0.940132 0.904128 0.887663
0.014140 0.401675 0.011120
0.014141 0.401999 0.011125
0.014141 0.402434 0.011132
0.014136 0.403169 0.011144
0.014123 0.410554 0.011340
0.014865 0.430923 0.012059
0.016094 0.456612 0.012867
0.017117 0.487037 0.013533
0.077476 0.514696 0.013973
0.357722 0.513049 0.009791
0.517222 0.502380 0.006812
0.622918 0.482502 0.017005
0.695735 0.452616 0.027648
0.747870 0.412607 0.038153
0.787912 0.363694 0.050579
0.820063 0.328857 0.064459
0.847329 0.331610 0.085207
0.871035 0.367197 0.124797
0.892036 0.420905 0.193387
0.906525 0.482258 0.281132
0.918087 0.545812 0.367727
0.926230 0.608455 0.449990
0.932201 0.667005 0.526328
0.936825 0.719535 0.593695
0.939530 0.765865 0.651919
0.941140 0.805064 0.701141
0.942159 0.837278 0.742272
0.942883 0.861945 0.775593
0.942744 0.872764 0.809121
0.942100 0.878563 0.842651
0.941435 0.886052 0.865743
0.940755 0.895257 0.879332
0.940132 0.904133 0.887668
0.016919 0.481852 0.013379
0.016927 0.482075 0.013388
0.016938 0.482381 0.013400
0.016953 0.482797 0.013416
0.017041 0.485420 0.013509
0.018548 0.500250 0.014017
0.020367 0.519363 0.014564
0.022221 0.542312 0.015137
0.028293 0.569678 0.015991
0.173079 0.592488 0.016188
0.449914 0.588844 0.010786
0.596742 0.577699 0.008156
0.689146 0.559312 0.017058
0.749509 0.531849 0.026424
0.792002 0.493802 0.037290
0.825275 0.447165 0.052061
0.853340 0.412667 0.075892
0.876275 0.414136 0.118548
0.895748 0.447997 0.192999
0.908793 0.499097 0.284178
0.919547 0.556827 0.370939
0.926890 0.615532 0.452638
0.932586 0.671526 0.528060
0.937044 0.722330 0.594892
0.939567 0.766782 0.652837
0.941132 0.805127 0.701795
0.942154 0.837313 0.742653
0.942880 0.861965 0.775839
0.942742 0.872777 0.809242
0.942098 0.878577 0.842718
0.941434 0.886068 0.865779
0.940755 0.895269 0.879347
0.940131 0.904140 0.887675
0.023870 0.558211 0.015622
0.023890 0.558391 0.015628
0.023917 0.558640 0.015637
0.023957 0.558984 0.015650
0.024016 0.559458 0.015669
0.025095 0.568520 0.016083
0.026768 0.582019 0.016835
0.031427 0.598543 0.017934
0.038130 0.619504 0.019359
0.066441 0.644248 0.020932
0.281560 0.660218 0.019696
0.536987 0.655489 0.012714
0.665961 0.645580 0.010259
0.743012 0.629610 0.018049
0.792421 0.605142 0.026449
0.826934 0.571284 0.037879
0.855500 0.528497 0.059284
0.879694 0.496165 0.103476
0.898965 0.495578 0.186677
0.911438 0.525724 0.285711
0.921278 0.572938 0.374274
0.927774 0.625756 0.455841
0.933108 0.677961 0.530282
0.937341 0.726233 0.596437
0.939680 0.769147 0.653881
0.941150 0.805965 0.702546
0.942147 0.837362 0.743184
0.942875 0.861993 0.776181
0.942740 0.872796 0.809411
0.942096 0.878597 0.842813
0.941432 0.886090 0.865828
0.940753 0.895287 0.879368
0.940130 0.904150 0.887684
0.041254 0.629234 0.020215
0.041291 0.629343 0.020226
0.041343 0.629495 0.020242
0.041414 0.629706 0.020264
0.041513 0.629996 0.020295
0.042806 0.633963 0.020618
0.044971 0.642841 0.021164
0.053213 0.654206 0.021873
0.066648 0.669051 0.023537
0.084074 0.688341 0.026958
0.166910 0.708582 0.029743
0.388868 0.718820 0.027266
0.615929 0.713464 0.017364
0.724502 0.704869 0.014767
0.786680 0.691694 0.021104
0.826667 0.671085 0.029817
0.855443 0.642399 0.044956
0.880413 0.605098 0.081680
0.900601 0.575881 0.170558
0.913668 0.572038 0.282064
0.922632 0.597778 0.376954
0.928759 0.640485 0.459210
0.933753 0.687160 0.532915
0.937725 0.731883 0.598425
0.939784 0.772404 0.655206
0.941202 0.807877 0.703409
0.942161 0.838066 0.743781
0.942868 0.862033 0.776657
0.942737 0.872822 0.809646
0.942094 0.878625 0.842945
0.941430 0.886121 0.865897
0.940752 0.895312 0.879398
0.940129 0.904165 0.887697
0.088854 0.693544 0.028076
0.088920 0.693612 0.028093
0.089011 0.693707 0.028118
0.089138 0.693838 0.028153
0.089314 0.694020 0.028201
0.089865 0.694635 0.028330
0.099603 0.700385 0.029210
0.114717 0.707758 0.030393
0.136492 0.717521 0.032040
0.165140 0.730559 0.034405
0.202182 0.746643 0.042501
0.297860 0.761940 0.049014
0.492911 0.768794 0.044316
0.685587 0.763404 0.029366
0.773436 0.756118 0.024697
0.822407 0.745300 0.029936
0.855037 0.729236 0.041897
0.880073 0.705973 0.072906
0.899999 0.674972 0.149762
0.914784 0.646787 0.271370
0.923655 0.641235 0.375209
0.929691 0.662755 0.461605
0.934381 0.699761 0.535740
0.938030 0.739902 0.600767
0.939908 0.777170 0.656934
0.941268 0.810522 0.704496
0.942202 0.839501 0.744478
0.942878 0.862639 0.777180
0.942732 0.872858 0.809973
0.942090 0.878665 0.843129
0.941426 0.886163 0.865993
0.940749 0.895346 0.879437
0.940128 0.904185 0.887715
0.207127 0.748652 0.043736
0.207228 0.748688 0.043763
0.207370 0.748740 0.043800
0.207566 0.748811 0.043851
0.207839 0.748911 0.043923
0.208216 0.749048 0.044022
0.214117 0.751350 0.045428
0.228120 0.756010 0.047850
0.246751 0.762169 0.051051
0.271250 0.770456 0.055128
0.301271 0.781030 0.061822
0.338853 0.793833 0.081024
0.422510 0.806513 0.097386
0.589665 0.811130 0.089455
0.744968 0.806338 0.064880
0.814124 0.800473 0.054305
0.852704 0.791737 0.056701
0.879975 0.779800 0.083601
0.899018 0.761150 0.151219
0.914286 0.733993 0.260855
0.923628 0.707658 0.369431
0.930269 0.701578 0.460806
0.935032 0.719260 0.537929
0.938312 0.750498 0.603275
0.940071 0.783522 0.658967
0.941365 0.814118 0.705946
0.942259 0.841384 0.745357
0.942904 0.863857 0.777803
0.942756 0.873465 0.810348
0.942085 0.878719 0.843385
0.941422 0.886223 0.866127
0.940746 0.895394 0.879485
0.940126 0.904212 0.887739
0.339653 0.794315 0.081887
0.339744 0.794348 0.081978
0.339870 0.794394 0.082103
0.340044 0.794458 0.082274
0.340285 0.794547 0.082510
0.340620 0.794672 0.082839
0.341085 0.794844 0.083295
0.349864 0.797822 0.087834
0.362377 0.802051 0.094246
0.379368 0.807150 0.101559
0.402438 0.813920 0.111024
0.431150 0.822236 0.129343
0.467460 0.831521 0.158795
0.539987 0.841255 0.186810
0.674542 0.845241 0.187879
0.793970 0.842083 0.161650
0.848104 0.837654 0.143767
0.878867 0.830603 0.140169
0.898441 0.820917 0.195716
0.912839 0.805243 0.273994
0.922409 0.781837 0.368198
0.929913 0.758948 0.457135
0.935328 0.752911 0.537570
0.938509 0.767012 0.605126
0.940242 0.792903 0.661016
0.941481 0.819141 0.707622
0.942338 0.844109 0.746525
0.942937 0.865553 0.778570
0.942805 0.874624 0.810801
0.942124 0.879444 0.843814
0.941415 0.886306 0.866313
0.940741 0.895462 0.879552
0.940123 0.904251 0.887774
0.466125 0.831334 0.158786
0.466187 0.831351 0.158887
0.466275 0.831375 0.159029
0.466398 0.831408 0.159227
0.466568 0.831455 0.159503
0.466806 0.831519 0.159886
0.467136 0.831610 0.160419
0.469394 0.832197 0.162563
0.478325 0.834497 0.170022
0.489986 0.837657 0.180202
0.505622 0.841935 0.193649
0.526419 0.847569 0.211433
0.553230 0.852992 0.233800
0.584269 0.859476 0.262591
0.642256 0.866151 0.290503
0.743457 0.868822 0.298621
0.830712 0.866968 0.287031
0.872443 0.864328 0.276777
0.895722 0.859535 0.275852
0.911036 0.851668 0.322240
0.920686 0.839653 0.382940
0.928600 0.819733 0.459085
0.934812 0.801194 0.534976
0.938328 0.795597 0.604858
0.940359 0.806464 0.662568
0.941591 0.826686 0.709315
0.942428 0.847994 0.747864
0.942980 0.867999 0.779593
0.942872 0.876319 0.811355
0.942196 0.880798 0.844439
0.941467 0.887262 0.866793
0.940734 0.895555 0.879645
0.940119 0.904305 0.887823
0.582170 0.859031 0.261690
0.582206 0.859039 0.261756
0.582256 0.859050 0.261849
0.582326 0.859065 0.261978
0.582424 0.859086 0.262158
0.582559 0.859116 0.262409
0.582748 0.859158 0.262757
0.583011 0.859215 0.263242
0.586225 0.859899 0.266449
0.593876 0.861523 0.273695
0.604042 0.863676 0.283381
0.618194 0.866683 0.296491
0.634885 0.870573 0.312427
0.655819 0.875074 0.331873
0.682012 0.880705 0.355953
0.724978 0.885425 0.381403
0.797197 0.887177 0.391608
0.858882 0.886073 0.387281
0.889768 0.884552 0.382346
0.908452 0.881378 0.385449
0.919032 0.875684 0.423056
0.927058 0.865253 0.473347
0.933370 0.849816 0.538252
0.937399 0.835054 0.602945
0.940127 0.829438 0.662405
0.941616 0.838656 0.710446
0.942513 0.853832 0.749228
0.943027 0.871496 0.780640
0.942910 0.878658 0.812230
0.942256 0.882746 0.845228
0.941528 0.889022 0.867585
0.940793 0.896645 0.880028
0.940114 0.904380 0.887890
0.679413 0.880140 0.354695
0.679436 0.880145 0.354734
0.679468 0.880151 0.354789
0.679512 0.880161 0.354867
0.679574 0.880174 0.354974
0.679660 0.880192 0.355124
0.679781 0.880217 0.355333
0.679936 0.880252 0.355624
0.680151 0.880301 0.356030
0.683481 0.881027 0.359444
0.689235 0.882189 0.365780
0.696717 0.883734 0.374262
0.707020 0.885864 0.385710
0.720370 0.888503 0.399611
0.736903 0.891676 0.417485
0.755181 0.895719 0.439439
0.786494 0.899922 0.461729
0.837473 0.901527 0.472855
0.880594 0.901009 0.472293
0.903783 0.900027 0.470177
0.916914 0.897710 0.475404
0.925707 0.892833 0.507850
0.931928 0.885102 0.551317
0.936028 0.873817 0.606446
0.939235 0.860967 0.660772
0.941382 0.856252 0.710372
0.942518 0.863220 0.750121
0.943099 0.875845 0.781746
0.942955 0.881816 0.813468
0.942326 0.885436 0.846224
0.941606 0.891501 0.868580
0.940887 0.898604 0.880679
0.940202 0.905345 0.888342
0.752816 0.895227 0.437855
0.752827 0.895229 0.437879
0.752842 0.895233 0.437914
0.752864 0.895238 0.437963
0.752894 0.895244 0.438030
0.752936 0.895253 0.438124
0.752994 0.895266 0.438255
0.753076 0.895284 0.438438
0.753190 0.895309 0.438693
0.753348 0.895343 0.439047
0.756181 0.895993 0.442555
0.760623 0.897013 0.448026
0.766548 0.898386 0.455312
0.774368 0.900262 0.465034
0.783951 0.902432 0.477495
0.795654 0.905209 0.493578
0.808764 0.908466 0.513212
0.830713 0.911301 0.533804
0.865139 0.912434 0.545459
0.896322 0.912193 0.546915
0.913522 0.911617 0.546442
0.923932 0.910058 0.552367
0.930725 0.906815 0.579734
0.934874 0.900741 0.617740
0.938130 0.890980 0.664041
0.940600 0.881406 0.708966
0.942213 0.877813 0.749890
0.943093 0.882579 0.782504
0.942975 0.886645 0.814843
0.942392 0.889449 0.847314
0.941710 0.894670 0.869669
0.941019 0.901048 0.881502
0.940356 0.907030 0.889102
0.806916 0.908079 0.511506
0.806922 0.908080 0.511522
0.806929 0.908082 0.511544
0.806940 0.908084 0.511575
0.806954 0.908087 0.511618
0.806975 0.908092 0.511679
0.807003 0.908098 0.511763
0.807043 0.908107 0.511881
0.807098 0.908119 0.512044
0.807175 0.908136 0.512272
0.807282 0.908159 0.512589
0.809435 0.908660 0.516097
0.812451 0.909365 0.521033
0.816527 0.910327 0.527671
0.822055 0.911530 0.536587
0.829251 0.912980 0.547794
0.837732 0.914879 0.562246
0.846485 0.917332 0.579367
0.861376 0.919722 0.597745
0.885467 0.920846 0.609184
0.908381 0.920814 0.611582
0.921283 0.920455 0.611967
0.929374 0.919206 0.618038
0.933939 0.916633 0.641131
0.937216 0.911875 0.673616
0.939686 0.905088 0.711709
0.941597 0.897240 0.748734
0.942832 0.894181 0.782330
0.942889 0.894655 0.815868
0.942412 0.895686 0.848344
0.941798 0.899415 0.870838
0.941187 0.904136 0.882599
0.940551 0.909295 0.889903
0.845088 0.916964 0.577679
0.845091 0.916965 0.577689
0.845095 0.916966 0.577703
0.845100 0.916967 0.577722
0.845107 0.916970 0.577749
0.845118 0.916972 0.577787
0.845132 0.916976 0.577840
0.845152 0.916981 0.577913
0.845180 0.916989 0.578016
0.845219 0.917000 0.578158
0.845273 0.917014 0.578357
0.845397 0.917048 0.578724
0.846990 0.917499 0.581907
0.849144 0.918111 0.586230
0.852078 0.918922 0.592084
0.856036 0.919870 0.600026
0.860781 0.921125 0.610065
0.866673 0.922760 0.622512
0.873666 0.924855 0.637085
0.883261 0.926814 0.653188
0.901189 0.927845 0.664009
0.917070 0.927857 0.667083
0.927416 0.927621 0.668019
0.932798 0.926753 0.673195
0.936431 0.924596 0.692440
0.938993 0.920718 0.719424
0.940907 0.915069 0.750678
0.942353 0.909015 0.781484
0.942597 0.906210 0.816327
0.942150 0.905736 0.848731
0.941755 0.906342 0.871957
0.941350 0.908597 0.883795
0.940769 0.912537 0.890861
0.872715 0.924514 0.635462
0.872716 0.924514 0.635468
0.872718 0.924515 0.635477
0.872721 0.924516 0.635489
0.872724 0.924517 0.635506
0.872729 0.924519 0.635529
0.872736 0.924521 0.635562
0.872746 0.924524 0.635607
0.872760 0.924529 0.635670
0.872779 0.924536 0.635759
0.872805 0.924545 0.635882
0.872842 0.924557 0.636053
0.872978 0.924604 0.636489
0.874075 0.924991 0.639246
0.875566 0.925495 0.642995
0.877435 0.926097 0.648103
0.879846 0.926906 0.655014
0.882998 0.927973 0.664060
0.887081 0.929100 0.674738
0.891983 0.930435 0.687055
0.899726 0.931599 0.700645
0.911760 0.932262 0.710131
0.924243 0.932317 0.712803
0.931248 0.932187 0.713840
0.935548 0.931533 0.718866
0.938388 0.930062 0.735447
0.940336 0.927540 0.756687
0.941794 0.923203 0.783153
0.941748 0.920428 0.816147
0.941347 0.919367 0.847754
0.941041 0.918248 0.871989
0.940894 0.917332 0.884505
0.940748 0.917823 0.891783
0.891236 0.930228 0.685626
0.891236 0.930228 0.685629
0.891237 0.930228 0.685634
0.891239 0.930229 0.685642
0.891241 0.930229 0.685652
0.891243 0.930230 0.685666
0.891247 0.930231 0.685685
0.891252 0.930232 0.685712
0.891259 0.930235 0.685750
0.891269 0.930238 0.685803
0.891283 0.930242 0.685877
0.891302 0.930247 0.685980
0.891329 0.930255 0.686124
0.891454 0.930293 0.686561
0.892265 0.930502 0.688882
0.893369 0.930776 0.692043
0.894893 0.931156 0.696341
0.896921 0.931664 0.702145
0.899579 0.932335 0.709741
0.902657 0.933225 0.718706
0.905633 0.934272 0.729867
0.910812 0.935249 0.740986
0.919978 0.935818 0.748471
0.929137 0.935906 0.750867
0.934277 0.935830 0.751899
0.937684 0.935306 0.756119
0.939891 0.934089 0.770159
0.941391 0.932106 0.787803
0.941133 0.930633 0.814724
0.940722 0.929927 0.845753
0.940386 0.929109 0.870847
0.940233 0.928097 0.884308
0.940180 0.926930 0.892103
0.905109 0.934114 0.728655
0.905109 0.934114 0.728657
0.905110 0.934114 0.728661
0.905111 0.934114 0.728665
0.905112 0.934114 0.728672
0.905113 0.934115 0.728681
0.905115 0.934115 0.728693
0.905117 0.934116 0.728711
0.905121 0.934117 0.728736
0.905126 0.934118 0.728770
0.905132 0.934120 0.728815
0.905142 0.934123 0.728875
0.905155 0.934126 0.728958
0.905172 0.934131 0.729075
0.905270 0.934161 0.729475
0.905809 0.934327 0.731361
0.906545 0.934554 0.733937
0.907568 0.934870 0.737444
0.908922 0.935292 0.742170
0.910705 0.935852 0.748064
0.912696 0.936593 0.755249
0.915168 0.937367 0.764330
0.919266 0.938153 0.774378
0.926292 0.938627 0.780881
0.932618 0.938736 0.782927
0.936637 0.938689 0.783822
0.939310 0.938271 0.787210
0.940946 0.937284 0.798152
0.940775 0.936559 0.813844
0.940376 0.936142 0.842960
0.940024 0.935607 0.868148
0.939814 0.935000 0.883563
0.939726 0.934272 0.891834
0.914727 0.937237 0.763225
0.914727 0.937237 0.763227
0.914728 0.937237 0.763229
0.914728 0.937237 0.763231
0.914729 0.937237 0.763235
0.914729 0.937238 0.763240
0.914730 0.937238 0.763248
0.914732 0.937238 0.763258
0.914734 0.937239 0.763272
0.914737 0.937240 0.763292
0.914741 0.937241 0.763319
0.914746 0.937242 0.763358
0.914754 0.937244 0.763411
0.914765 0.937247 0.763486
0.914779 0.937251 0.763590
0.914867 0.937277 0.763975
0.915314 0.937409 0.765672
0.915924 0.937591 0.767991
