Assets/Data/Textures/70 CGC LUTs/LUTs_AgX_Filmic_ViewTransforms/ARRILogC4AWG4-to-AgX-KrakenPunchy-sRGB.cube
#  Baked from the PixelManager OCIO config by Joe Genco
#  https://github.com/Joegenco/PixelManager
#  Input Gamma: Arri LogC4
#  Input Color Space: Arri Wide Gamut 4
#  floating point data (range 0.0 - 1.0)   
#       
#  Output Gamma: Gamma 2.2 (Display)
#  Output Color Space: Rec.709
#  floating point data (range 0.0 - 1.0)
LUT_3D_SIZE 5
0.000000 0.000000 0.000000
0.543520 0.013222 0.013293
1.067154 0.345746 0.346036
1.040735 0.859649 0.859839
1.000000 1.000000 1.000000
-0.029526 0.397168 -0.029526
0.340518 0.345311 -0.025389
1.065107 0.340556 0.340844
1.040805 0.859407 0.859598
1.000000 1.000000 1.000000
0.316998 0.920057 0.316998
0.314891 0.918917 0.314891
0.863326 0.866472 0.354384
1.041844 0.855829 0.856022
1.000000 1.000000 1.000000
0.872819 1.011266 0.872819
0.872729 1.011274 0.872729
0.871408 1.011391 0.871408
1.002147 1.002147 0.898070
1.000000 1.000000 1.000000
1.000000 1.000000 1.000000
1.000000 1.000000 1.000000
1.000000 1.000000 1.000000
1.000000 1.000000 1.000000
1.000000 1.000000 1.000000
0.041757 0.041707 0.440280
0.520005 0.053843 0.412548
1.061855 0.353287 0.464870
1.040745 0.859614 0.859805
1.000000 1.000000 1.000000
0.009680 0.377297 0.336332
0.326853 0.326804 0.326839
1.060529 0.346714 0.443520
1.040815 0.859373 0.859563
1.000000 1.000000 1.000000
0.315622 0.919314 0.315622
0.313505 0.918161 0.313505
0.862500 0.865474 0.352779
1.041855 0.855792 0.855986
1.000000 1.000000 1.000000
0.872760 1.011271 0.872760
0.872670 1.011279 0.872670
0.871348 1.011396 0.871348
1.002148 1.002148 0.898010
1.000000 1.000000 1.000000
1.000000 1.000000 1.000000
1.000000 1.000000 1.000000
1.000000 1.000000 1.000000
1.000000 1.000000 1.000000
1.000000 1.000000 1.000000
0.402823 0.402631 1.015824
0.406589 0.402411 1.015460
1.013043 0.488566 0.952197
1.037055 0.866006 0.935160
1.000000 1.000000 1.000000
0.401208 0.401016 1.014882
0.401072 0.400881 1.014803
1.010379 0.484935 0.951694
1.037147 0.865711 0.934607
1.000000 1.000000 1.000000
0.436581 0.895277 0.868839
0.435290 0.893953 0.868985
0.849996 0.849959 0.849985
1.038534 0.861326 0.925928
1.000000 1.000000 1.000000
0.871899 1.011347 0.871899
0.871808 1.011355 0.871808
0.870472 1.011474 0.870472
1.002167 1.002167 0.897141
1.000000 1.000000 1.000000
1.000000 1.000000 1.000000
1.000000 1.000000 1.000000
1.000000 1.000000 1.000000
1.000000 1.000000 1.000000
1.000000 1.000000 1.000000
0.883889 0.883776 1.041913
0.883884 0.883770 1.041915
0.904049 0.883341 1.040368
1.016559 0.935523 1.016559
1.000000 1.000000 1.000000
0.883823 0.883709 1.041937
0.883817 0.883703 1.041939
0.900291 0.883321 1.040684
1.016585 0.935422 1.016585
1.000000 1.000000 1.000000
0.882850 0.882735 1.042288
0.882844 0.882729 1.042290
0.882762 0.882648 1.042320
1.016969 0.933928 1.016969
1.000000 1.000000 1.000000
0.928586 1.004618 1.004618
0.928544 1.004621 1.004621
0.927933 1.004661 1.004661
1.000000 1.000000 1.000000
1.000000 1.000000 1.000000
1.000000 1.000000 1.000000
1.000000 1.000000 1.000000
1.000000 1.000000 1.000000
1.000000 1.000000 1.000000
1.000000 1.000000 1.000000
1.000000 1.000000 1.000000
1.000000 1.000000 1.000000
1.000000 1.000000 1.000000
1.000000 1.000000 1.000000
1.000000 1.000000 1.000000
1.000000 1.000000 1.000000
1.000000 1.000000 1.000000
1.000000 1.000000 1.000000
1.000000 1.000000 1.000000
1.000000 1.000000 1.000000
1.000000 1.000000 1.000000
1.000000 1.000000 1.000000
1.000000 1.000000 1.000000
1.000000 1.000000 1.000000
1.000000 1.000000 1.000000
1.000000 1.000000 1.000000
1.000000 1.000000 1.000000
1.000000 1.000000 1.000000
1.000000 1.000000 1.000000
1.000000 1.000000 1.000000
1.000000 1.000000 1.000000
1.000000 1.000000 1.000000
1.000000 1.000000 1.000000
1.000000 1.000000 1.000000
1.000000 1.000000 1.000000
