Assets/Data/Textures/70 CGC LUTs/LUTs_AgX_Filmic_ViewTransforms/LinRec709-to-ArriLogC4AWG4.cube
#  Baked from the PixelManager OCIO config by Joe Genco
#  https://github.com/Joegenco/PixelManager
#  Input Gamma: Linear
#  Input Color Space: Rec709
#  floating point data (range -0.2 - 469.0)   
#       
#  Output Gamma: ArriLogC4 
#  Output Color Space: ArriWideGamut4
#  floating point data (range 0.0 - 1.0)

LUT_1D_SIZE 4096
LUT_1D_INPUT_RANGE -0.203489 469.799957
LUT_3D_SIZE 33
0.000000 0.000000 0.000000
0.088251 0.088251 0.088251
0.176501 0.176501 0.176501
0.258965 0.258965 0.258965
0.307300 0.307300 0.307300
0.339002 0.339002 0.339002
0.362633 0.362633 0.362633
0.381479 0.381479 0.381479
0.397156 0.397156 0.397156
0.410577 0.410577 0.410577
0.422312 0.422312 0.422312
0.432736 0.432736 0.432736
0.442113 0.442113 0.442113
0.450635 0.450635 0.450635
0.458445 0.458445 0.458445
0.465652 0.465652 0.465652
0.472343 0.472343 0.472343
0.478587 0.478587 0.478587
0.484440 0.484440 0.484440
0.489948 0.489948 0.489948
0.495149 0.495149 0.495149
0.500076 0.500076 0.500076
0.504757 0.504757 0.504757
0.509214 0.509214 0.509214
0.513468 0.513468 0.513468
0.517537 0.517537 0.517537
0.521437 0.521437 0.521437
0.525180 0.525180 0.525180
0.528779 0.528779 0.528779
0.532244 0.532244 0.532244
0.535586 0.535586 0.535586
0.538812 0.538812 0.538812
0.541931 0.541931 0.541931
0.544949 0.544949 0.544949
0.547873 0.547873 0.547873
0.550707 0.550707 0.550707
0.553459 0.553459 0.553459
0.556132 0.556132 0.556132
0.558730 0.558730 0.558730
0.561258 0.561258 0.561258
0.563720 0.563720 0.563720
0.566119 0.566119 0.566119
0.568457 0.568457 0.568457
0.570738 0.570738 0.570738
0.572966 0.572966 0.572966
0.575141 0.575141 0.575141
0.577267 0.577267 0.577267
0.579345 0.579345 0.579345
0.581378 0.581378 0.581378
0.583368 0.583368 0.583368
0.585317 0.585317 0.585317
0.587225 0.587225 0.587225
0.589096 0.589096 0.589096
0.590930 0.590930 0.590930
0.592728 0.592728 0.592728
0.594493 0.594493 0.594493
0.596225 0.596225 0.596225
0.597925 0.597925 0.597925
0.599595 0.599595 0.599595
0.601236 0.601236 0.601236
0.602848 0.602848 0.602848
0.604433 0.604433 0.604433
0.605992 0.605992 0.605992
0.607525 0.607525 0.607525
0.609034 0.609034 0.609034
0.610518 0.610518 0.610518
0.611979 0.611979 0.611979
0.613418 0.613418 0.613418
0.614835 0.614835 0.614835
0.616230 0.616230 0.616230
0.617606 0.617606 0.617606
0.618961 0.618961 0.618961
0.620297 0.620297 0.620297
0.621614 0.621614 0.621614
0.622913 0.622913 0.622913
0.624194 0.624194 0.624194
0.625457 0.625457 0.625457
0.626704 0.626704 0.626704
0.627934 0.627934 0.627934
0.629149 0.629149 0.629149
0.630348 0.630348 0.630348
0.631531 0.631531 0.631531
0.632700 0.632700 0.632700
0.633855 0.633855 0.633855
0.634995 0.634995 0.634995
0.636122 0.636122 0.636122
0.637235 0.637235 0.637235
0.638335 0.638335 0.638335
0.639422 0.639422 0.639422
0.640497 0.640497 0.640497
0.641559 0.641559 0.641559
0.642610 0.642610 0.642610
0.643649 0.643649 0.643649
0.644677 0.644677 0.644677
0.645693 0.645693 0.645693
0.646698 0.646698 0.646698
0.647693 0.647693 0.647693
0.648677 0.648677 0.648677
0.649651 0.649651 0.649651
0.650615 0.650615 0.650615
0.651569 0.651569 0.651569
0.652514 0.652514 0.652514
0.653449 0.653449 0.653449
0.654375 0.654375 0.654375
0.655291 0.655291 0.655291
0.656199 0.656199 0.656199
0.657098 0.657098 0.657098
0.657989 0.657989 0.657989
0.658871 0.658871 0.658871
0.659744 0.659744 0.659744
0.660610 0.660610 0.660610
0.661468 0.661468 0.661468
0.662318 0.662318 0.662318
0.663160 0.663160 0.663160
0.663995 0.663995 0.663995
0.664823 0.664823 0.664823
0.665643 0.665643 0.665643
0.666456 0.666456 0.666456
0.667262 0.667262 0.667262
0.668061 0.668061 0.668061
0.668853 0.668853 0.668853
0.669639 0.669639 0.669639
0.670418 0.670418 0.670418
0.671191 0.671191 0.671191
0.671957 0.671957 0.671957
0.672717 0.672717 0.672717
0.673471 0.673471 0.673471
0.674219 0.674219 0.674219
0.674961 0.674961 0.674961
0.675698 0.675698 0.675698
0.676428 0.676428 0.676428
0.677153 0.677153 0.677153
0.677872 0.677872 0.677872
0.678586 0.678586 0.678586
0.679294 0.679294 0.679294
0.679997 0.679997 0.679997
0.680695 0.680695 0.680695
0.681387 0.681387 0.681387
0.682075 0.682075 0.682075
0.682757 0.682757 0.682757
0.683435 0.683435 0.683435
0.684107 0.684107 0.684107
0.684775 0.684775 0.684775
0.685438 0.685438 0.685438
0.686097 0.686097 0.686097
0.686751 0.686751 0.686751
0.687400 0.687400 0.687400
0.688045 0.688045 0.688045
0.688685 0.688685 0.688685
0.689321 0.689321 0.689321
0.689953 0.689953 0.689953
0.690580 0.690580 0.690580
0.691204 0.691204 0.691204
0.691823 0.691823 0.691823
0.692438 0.692438 0.692438
0.693049 0.693049 0.693049
0.693656 0.693656 0.693656
0.694259 0.694259 0.694259
0.694859 0.694859 0.694859
0.695454 0.695454 0.695454
0.696046 0.696046 0.696046
0.696634 0.696634 0.696634
0.697218 0.697218 0.697218
0.697799 0.697799 0.697799
0.698376 0.698376 0.698376
0.698950 0.698950 0.698950
0.699520 0.699520 0.699520
0.700086 0.700086 0.700086
0.700649 0.700649 0.700649
0.701209 0.701209 0.701209
0.701766 0.701766 0.701766
0.702319 0.702319 0.702319
0.702869 0.702869 0.702869
0.703416 0.703416 0.703416
0.703959 0.703959 0.703959
0.704500 0.704500 0.704500
0.705037 0.705037 0.705037
0.705571 0.705571 0.705571
0.706103 0.706103 0.706103
0.706631 0.706631 0.706631
0.707156 0.707156 0.707156
0.707678 0.707678 0.707678
0.708198 0.708198 0.708198
0.708714 0.708714 0.708714
0.709228 0.709228 0.709228
0.709739 0.709739 0.709739
0.710247 0.710247 0.710247
0.710752 0.710752 0.710752
0.711255 0.711255 0.711255
0.711755 0.711755 0.711755
0.712252 0.712252 0.712252
0.712747 0.712747 0.712747
0.713239 0.713239 0.713239
0.713728 0.713728 0.713728
0.714215 0.714215 0.714215
0.714700 0.714700 0.714700
0.715182 0.715182 0.715182
0.715661 0.715661 0.715661
0.716138 0.716138 0.716138
0.716613 0.716613 0.716613
0.717085 0.717085 0.717085
0.717555 0.717555 0.717555
0.718022 0.718022 0.718022
0.718487 0.718487 0.718487
0.718950 0.718950 0.718950
0.719411 0.719411 0.719411
0.719869 0.719869 0.719869
0.720325 0.720325 0.720325
0.720779 0.720779 0.720779
0.721230 0.721230 0.721230
0.721680 0.721680 0.721680
0.722127 0.722127 0.722127
0.722572 0.722572 0.722572
0.723015 0.723015 0.723015
0.723456 0.723456 0.723456
0.723895 0.723895 0.723895
0.724332 0.724332 0.724332
0.724767 0.724767 0.724767
0.725200 0.725200 0.725200
0.725631 0.725631 0.725631
0.726060 0.726060 0.726060
0.726487 0.726487 0.726487
0.726911 0.726911 0.726911
0.727334 0.727334 0.727334
0.727756 0.727756 0.727756
0.728175 0.728175 0.728175
0.728592 0.728592 0.728592
0.729008 0.729008 0.729008
0.729421 0.729421 0.729421
0.729833 0.729833 0.729833
0.730243 0.730243 0.730243
0.730652 0.730652 0.730652
0.731058 0.731058 0.731058
0.731463 0.731463 0.731463
0.731866 0.731866 0.731866
0.732267 0.732267 0.732267
0.732667 0.732667 0.732667
0.733064 0.733064 0.733064
0.733460 0.733460 0.733460
0.733855 0.733855 0.733855
0.734248 0.734248 0.734248
0.734639 0.734639 0.734639
0.735028 0.735028 0.735028
0.735416 0.735416 0.735416
0.735803 0.735803 0.735803
0.736187 0.736187 0.736187
0.736571 0.736571 0.736571
0.736952 0.736952 0.736952
0.737332 0.737332 0.737332
0.737711 0.737711 0.737711
0.738088 0.738088 0.738088
0.738463 0.738463 0.738463
0.738837 0.738837 0.738837
0.739209 0.739209 0.739209
0.739581 0.739581 0.739581
0.739950 0.739950 0.739950
0.740318 0.740318 0.740318
0.740685 0.740685 0.740685
0.741050 0.741050 0.741050
0.741414 0.741414 0.741414
0.741776 0.741776 0.741776
0.742137 0.742137 0.742137
0.742497 0.742497 0.742497
0.742855 0.742855 0.742855
0.743212 0.743212 0.743212
0.743567 0.743567 0.743567
0.743921 0.743921 0.743921
0.744274 0.744274 0.744274
0.744625 0.744625 0.744625
0.744976 0.744976 0.744976
0.745324 0.745324 0.745324
0.745672 0.745672 0.745672
0.746018 0.746018 0.746018
0.746363 0.746363 0.746363
0.746707 0.746707 0.746707
0.747049 0.747049 0.747049
0.747390 0.747390 0.747390
0.747730 0.747730 0.747730
0.748069 0.748069 0.748069
0.748407 0.748407 0.748407
0.748743 0.748743 0.748743
0.749078 0.749078 0.749078
0.749412 0.749412 0.749412
0.749745 0.749745 0.749745
0.750076 0.750076 0.750076
0.750406 0.750406 0.750406
0.750736 0.750736 0.750736
0.751064 0.751064 0.751064
0.751391 0.751391 0.751391
0.751716 0.751716 0.751716
0.752041 0.752041 0.752041
0.752364 0.752364 0.752364
0.752687 0.752687 0.752687
0.753008 0.753008 0.753008
0.753328 0.753328 0.753328
0.753647 0.753647 0.753647
0.753965 0.753965 0.753965
0.754282 0.754282 0.754282
0.754598 0.754598 0.754598
0.754913 0.754913 0.754913
0.755227 0.755227 0.755227
0.755539 0.755539 0.755539
0.755851 0.755851 0.755851
0.756162 0.756162 0.756162
0.756471 0.756471 0.756471
0.756779 0.756779 0.756779
0.757087 0.757087 0.757087
0.757394 0.757394 0.757394
0.757699 0.757699 0.757699
0.758004 0.758004 0.758004
0.758307 0.758307 0.758307
0.758610 0.758610 0.758610
0.758911 0.758911 0.758911
0.759212 0.759212 0.759212
0.759511 0.759511 0.759511
0.759810 0.759810 0.759810
0.760108 0.760108 0.760108
0.760405 0.760405 0.760405
0.760700 0.760700 0.760700
0.760995 0.760995 0.760995
0.761289 0.761289 0.761289
0.761583 0.761583 0.761583
0.761875 0.761875 0.761875
0.762166 0.762166 0.762166
0.762456 0.762456 0.762456
0.762746 0.762746 0.762746
0.763034 0.763034 0.763034
0.763322 0.763322 0.763322
0.763609 0.763609 0.763609
0.763894 0.763894 0.763894
0.764179 0.764179 0.764179
0.764464 0.764464 0.764464
0.764747 0.764747 0.764747
0.765029 0.765029 0.765029
0.765311 0.765311 0.765311
0.765592 0.765592 0.765592
0.765872 0.765872 0.765872
0.766151 0.766151 0.766151
0.766429 0.766429 0.766429
0.766706 0.766706 0.766706
0.766983 0.766983 0.766983
0.767259 0.767259 0.767259
0.767534 0.767534 0.767534
0.767808 0.767808 0.767808
0.768081 0.768081 0.768081
0.768354 0.768354 0.768354
0.768625 0.768625 0.768625
0.768896 0.768896 0.768896
0.769167 0.769167 0.769167
0.769436 0.769436 0.769436
0.769705 0.769705 0.769705
0.769973 0.769973 0.769973
0.770240 0.770240 0.770240
0.770506 0.770506 0.770506
0.770772 0.770772 0.770772
0.771036 0.771036 0.771036
0.771300 0.771300 0.771300
0.771564 0.771564 0.771564
0.771826 0.771826 0.771826
0.772088 0.772088 0.772088
0.772349 0.772349 0.772349
0.772610 0.772610 0.772610
0.772870 0.772870 0.772870
0.773129 0.773129 0.773129
0.773387 0.773387 0.773387
0.773644 0.773644 0.773644
0.773901 0.773901 0.773901
0.774157 0.774157 0.774157
0.774413 0.774413 0.774413
0.774667 0.774667 0.774667
0.774921 0.774921 0.774921
0.775175 0.775175 0.775175
0.775427 0.775427 0.775427
0.775679 0.775679 0.775679
0.775931 0.775931 0.775931
0.776181 0.776181 0.776181
0.776431 0.776431 0.776431
0.776681 0.776681 0.776681
0.776929 0.776929 0.776929
0.777177 0.777177 0.777177
0.777425 0.777425 0.777425
0.777671 0.777671 0.777671
0.777917 0.777917 0.777917
0.778163 0.778163 0.778163
0.778407 0.778407 0.778407
0.778651 0.778651 0.778651
0.778895 0.778895 0.778895
0.779138 0.779138 0.779138
0.779380 0.779380 0.779380
0.779621 0.779621 0.779621
0.779862 0.779862 0.779862
0.780103 0.780103 0.780103
0.780342 0.780342 0.780342
0.780581 0.780581 0.780581
0.780820 0.780820 0.780820
0.781058 0.781058 0.781058
0.781295 0.781295 0.781295
0.781532 0.781532 0.781532
0.781768 0.781768 0.781768
0.782003 0.782003 0.782003
0.782238 0.782238 0.782238
0.782472 0.782472 0.782472
0.782706 0.782706 0.782706
0.782939 0.782939 0.782939
0.783172 0.783172 0.783172
0.783404 0.783404 0.783404
0.783635 0.783635 0.783635
0.783866 0.783866 0.783866
0.784096 0.784096 0.784096
0.784326 0.784326 0.784326
0.784555 0.784555 0.784555
0.784784 0.784784 0.784784
0.785012 0.785012 0.785012
0.785239 0.785239 0.785239
0.785466 0.785466 0.785466
0.785693 0.785693 0.785693
0.785918 0.785918 0.785918
0.786144 0.786144 0.786144
0.786368 0.786368 0.786368
0.786593 0.786593 0.786593
0.786816 0.786816 0.786816
0.787039 0.787039 0.787039
0.787262 0.787262 0.787262
0.787484 0.787484 0.787484
0.787705 0.787705 0.787705
0.787926 0.787926 0.787926
0.788147 0.788147 0.788147
0.788367 0.788367 0.788367
0.788586 0.788586 0.788586
0.788805 0.788805 0.788805
0.789024 0.789024 0.789024
0.789242 0.789242 0.789242
0.789459 0.789459 0.789459
0.789676 0.789676 0.789676
0.789892 0.789892 0.789892
0.790108 0.790108 0.790108
0.790324 0.790324 0.790324
0.790538 0.790538 0.790538
0.790753 0.790753 0.790753
0.790967 0.790967 0.790967
0.791180 0.791180 0.791180
0.791393 0.791393 0.791393
0.791606 0.791606 0.791606
0.791818 0.791818 0.791818
0.792029 0.792029 0.792029
0.792240 0.792240 0.792240
0.792451 0.792451 0.792451
0.792661 0.792661 0.792661
0.792870 0.792870 0.792870
0.793080 0.793080 0.793080
0.793288 0.793288 0.793288
0.793496 0.793496 0.793496
0.793704 0.793704 0.793704
0.793912 0.793912 0.793912
0.794118 0.794118 0.794118
0.794325 0.794325 0.794325
0.794531 0.794531 0.794531
0.794736 0.794736 0.794736
0.794941 0.794941 0.794941
0.795146 0.795146 0.795146
0.795350 0.795350 0.795350
0.795554 0.795554 0.795554
0.795757 0.795757 0.795757
0.795959 0.795959 0.795959
0.796162 0.796162 0.796162
0.796364 0.796364 0.796364
0.796565 0.796565 0.796565
0.796766 0.796766 0.796766
0.796967 0.796967 0.796967
0.797167 0.797167 0.797167
0.797367 0.797367 0.797367
0.797566 0.797566 0.797566
0.797765 0.797765 0.797765
0.797964 0.797964 0.797964
0.798162 0.798162 0.798162
0.798359 0.798359 0.798359
0.798556 0.798556 0.798556
0.798753 0.798753 0.798753
0.798950 0.798950 0.798950
0.799146 0.799146 0.799146
0.799341 0.799341 0.799341
0.799536 0.799536 0.799536
0.799731 0.799731 0.799731
0.799926 0.799926 0.799926
0.800119 0.800119 0.800119
0.800313 0.800313 0.800313
0.800506 0.800506 0.800506
0.800699 0.800699 0.800699
0.800891 0.800891 0.800891
0.801083 0.801083 0.801083
0.801275 0.801275 0.801275
0.801466 0.801466 0.801466
0.801657 0.801657 0.801657
0.801847 0.801847 0.801847
0.802037 0.802037 0.802037
0.802227 0.802227 0.802227
0.802416 0.802416 0.802416
0.802605 0.802605 0.802605
0.802793 0.802793 0.802793
0.802981 0.802981 0.802981
0.803169 0.803169 0.803169
0.803356 0.803356 0.803356
0.803543 0.803543 0.803543
0.803730 0.803730 0.803730
0.803916 0.803916 0.803916
0.804102 0.804102 0.804102
0.804288 0.804288 0.804288
0.804473 0.804473 0.804473
0.804657 0.804657 0.804657
0.804842 0.804842 0.804842
0.805026 0.805026 0.805026
0.805209 0.805209 0.805209
0.805393 0.805393 0.805393
0.805576 0.805576 0.805576
0.805758 0.805758 0.805758
0.805941 0.805941 0.805941
0.806122 0.806122 0.806122
0.806304 0.806304 0.806304
0.806485 0.806485 0.806485
0.806666 0.806666 0.806666
0.806847 0.806847 0.806847
0.807027 0.807027 0.807027
0.807206 0.807206 0.807206
0.807386 0.807386 0.807386
0.807565 0.807565 0.807565
0.807744 0.807744 0.807744
0.807922 0.807922 0.807922
0.808100 0.808100 0.808100
0.808278 0.808278 0.808278
0.808455 0.808455 0.808455
0.808632 0.808632 0.808632
0.808809 0.808809 0.808809
0.808985 0.808985 0.808985
0.809161 0.809161 0.809161
0.809337 0.809337 0.809337
0.809513 0.809513 0.809513
0.809688 0.809688 0.809688
0.809862 0.809862 0.809862
0.810037 0.810037 0.810037
0.810211 0.810211 0.810211
0.810385 0.810385 0.810385
0.810558 0.810558 0.810558
0.810731 0.810731 0.810731
0.810904 0.810904 0.810904
0.811076 0.811076 0.811076
0.811249 0.811249 0.811249
0.811421 0.811421 0.811421
0.811592 0.811592 0.811592
0.811763 0.811763 0.811763
0.811934 0.811934 0.811934
0.812105 0.812105 0.812105
0.812275 0.812275 0.812275
0.812445 0.812445 0.812445
0.812615 0.812615 0.812615
0.812784 0.812784 0.812784
0.812953 0.812953 0.812953
0.813122 0.813122 0.813122
0.813290 0.813290 0.813290
0.813458 0.813458 0.813458
0.813626 0.813626 0.813626
0.813794 0.813794 0.813794
0.813961 0.813961 0.813961
0.814128 0.814128 0.814128
0.814295 0.814295 0.814295
0.814461 0.814461 0.814461
0.814627 0.814627 0.814627
0.814793 0.814793 0.814793
0.814958 0.814958 0.814958
0.815123 0.815123 0.815123
0.815288 0.815288 0.815288
0.815453 0.815453 0.815453
0.815617 0.815617 0.815617
0.815781 0.815781 0.815781
0.815945 0.815945 0.815945
0.816108 0.816108 0.816108
0.816271 0.816271 0.816271
0.816434 0.816434 0.816434
0.816597 0.816597 0.816597
0.816759 0.816759 0.816759
0.816921 0.816921 0.816921
0.817083 0.817083 0.817083
0.817244 0.817244 0.817244
0.817406 0.817406 0.817406
0.817566 0.817566 0.817566
0.817727 0.817727 0.817727
0.817887 0.817887 0.817887
0.818047 0.818047 0.818047
0.818207 0.818207 0.818207
0.818367 0.818367 0.818367
0.818526 0.818526 0.818526
0.818685 0.818685 0.818685
0.818844 0.818844 0.818844
0.819002 0.819002 0.819002
0.819160 0.819160 0.819160
0.819318 0.819318 0.819318
0.819476 0.819476 0.819476
0.819633 0.819633 0.819633
0.819790 0.819790 0.819790
0.819947 0.819947 0.819947
0.820104 0.820104 0.820104
0.820260 0.820260 0.820260
0.820416 0.820416 0.820416
0.820572 0.820572 0.820572
0.820728 0.820728 0.820728
0.820883 0.820883 0.820883
0.821038 0.821038 0.821038
0.821193 0.821193 0.821193
0.821347 0.821347 0.821347
0.821501 0.821501 0.821501
0.821655 0.821655 0.821655
0.821809 0.821809 0.821809
0.821963 0.821963 0.821963
0.822116 0.822116 0.822116
0.822269 0.822269 0.822269
0.822422 0.822422 0.822422
0.822574 0.822574 0.822574
0.822727 0.822727 0.822727
0.822878 0.822878 0.822878
0.823030 0.823030 0.823030
0.823182 0.823182 0.823182
0.823333 0.823333 0.823333
0.823484 0.823484 0.823484
0.823635 0.823635 0.823635
0.823785 0.823785 0.823785
0.823936 0.823936 0.823936
0.824086 0.824086 0.824086
0.824235 0.824235 0.824235
0.824385 0.824385 0.824385
0.824534 0.824534 0.824534
0.824683 0.824683 0.824683
0.824832 0.824832 0.824832
0.824981 0.824981 0.824981
0.825129 0.825129 0.825129
0.825278 0.825278 0.825278
0.825425 0.825425 0.825425
0.825573 0.825573 0.825573
0.825721 0.825721 0.825721
0.825868 0.825868 0.825868
0.826015 0.826015 0.826015
0.826162 0.826162 0.826162
0.826308 0.826308 0.826308
0.826454 0.826454 0.826454
0.826600 0.826600 0.826600
0.826746 0.826746 0.826746
0.826892 0.826892 0.826892
0.827037 0.827037 0.827037
0.827182 0.827182 0.827182
0.827327 0.827327 0.827327
0.827472 0.827472 0.827472
0.827617 0.827617 0.827617
0.827761 0.827761 0.827761
0.827905 0.827905 0.827905
0.828049 0.828049 0.828049
0.828192 0.828192 0.828192
0.828336 0.828336 0.828336
0.828479 0.828479 0.828479
0.828622 0.828622 0.828622
0.828764 0.828764 0.828764
0.828907 0.828907 0.828907
0.829049 0.829049 0.829049
0.829191 0.829191 0.829191
0.829333 0.829333 0.829333
0.829475 0.829475 0.829475
0.829616 0.829616 0.829616
0.829758 0.829758 0.829758
0.829899 0.829899 0.829899
0.830039 0.830039 0.830039
0.830180 0.830180 0.830180
0.830320 0.830320 0.830320
0.830460 0.830460 0.830460
0.830600 0.830600 0.830600
0.830740 0.830740 0.830740
0.830880 0.830880 0.830880
0.831019 0.831019 0.831019
0.831158 0.831158 0.831158
0.831297 0.831297 0.831297
0.831436 0.831436 0.831436
0.831574 0.831574 0.831574
0.831712 0.831712 0.831712
0.831850 0.831850 0.831850
0.831988 0.831988 0.831988
0.832126 0.832126 0.832126
0.832264 0.832264 0.832264
0.832401 0.832401 0.832401
0.832538 0.832538 0.832538
0.832675 0.832675 0.832675
0.832811 0.832811 0.832811
0.832948 0.832948 0.832948
0.833084 0.833084 0.833084
0.833220 0.833220 0.833220
0.833356 0.833356 0.833356
0.833492 0.833492 0.833492
0.833627 0.833627 0.833627
0.833762 0.833762 0.833762
0.833898 0.833898 0.833898
0.834033 0.834033 0.834033
0.834167 0.834167 0.834167
0.834302 0.834302 0.834302
0.834436 0.834436 0.834436
0.834570 0.834570 0.834570
0.834704 0.834704 0.834704
0.834838 0.834838 0.834838
0.834971 0.834971 0.834971
0.835105 0.835105 0.835105
0.835238 0.835238 0.835238
0.835371 0.835371 0.835371
0.835504 0.835504 0.835504
0.835636 0.835636 0.835636
0.835769 0.835769 0.835769
0.835901 0.835901 0.835901
0.836033 0.836033 0.836033
0.836165 0.836165 0.836165
0.836296 0.836296 0.836296
0.836428 0.836428 0.836428
0.836559 0.836559 0.836559
0.836690 0.836690 0.836690
0.836821 0.836821 0.836821
0.836952 0.836952 0.836952
0.837083 0.837083 0.837083
0.837213 0.837213 0.837213
0.837343 0.837343 0.837343
0.837473 0.837473 0.837473
0.837603 0.837603 0.837603
0.837733 0.837733 0.837733
0.837862 0.837862 0.837862
0.837992 0.837992 0.837992
0.838121 0.838121 0.838121
0.838250 0.838250 0.838250
0.838378 0.838378 0.838378
0.838507 0.838507 0.838507
0.838635 0.838635 0.838635
0.838764 0.838764 0.838764
0.838892 0.838892 0.838892
0.839020 0.839020 0.839020
0.839147 0.839147 0.839147
0.839275 0.839275 0.839275
0.839402 0.839402 0.839402
0.839529 0.839529 0.839529
0.839656 0.839656 0.839656
0.839783 0.839783 0.839783
0.839910 0.839910 0.839910
0.840036 0.840036 0.840036
0.840163 0.840163 0.840163
0.840289 0.840289 0.840289
0.840415 0.840415 0.840415
0.840541 0.840541 0.840541
0.840666 0.840666 0.840666
0.840792 0.840792 0.840792
0.840917 0.840917 0.840917
0.841042 0.841042 0.841042
0.841167 0.841167 0.841167
0.841292 0.841292 0.841292
0.841417 0.841417 0.841417
0.841541 0.841541 0.841541
0.841665 0.841665 0.841665
0.841790 0.841790 0.841790
0.841914 0.841914 0.841914
0.842037 0.842037 0.842037
0.842161 0.842161 0.842161
0.842285 0.842285 0.842285
0.842408 0.842408 0.842408
0.842531 0.842531 0.842531
0.842654 0.842654 0.842654
0.842777 0.842777 0.842777
0.842900 0.842900 0.842900
0.843022 0.843022 0.843022
0.843144 0.843144 0.843144
0.843267 0.843267 0.843267
0.843389 0.843389 0.843389
0.843510 0.843510 0.843510
0.843632 0.843632 0.843632
0.843754 0.843754 0.843754
0.843875 0.843875 0.843875
0.843996 0.843996 0.843996
0.844118 0.844118 0.844118
0.844239 0.844239 0.844239
0.844359 0.844359 0.844359
0.844480 0.844480 0.844480
0.844600 0.844600 0.844600
0.844721 0.844721 0.844721
0.844841 0.844841 0.844841
0.844961 0.844961 0.844961
0.845081 0.845081 0.845081
0.845200 0.845200 0.845200
0.845320 0.845320 0.845320
0.845439 0.845439 0.845439
0.845559 0.845559 0.845559
0.845678 0.845678 0.845678
0.845797 0.845797 0.845797
0.845915 0.845915 0.845915
0.846034 0.846034 0.846034
0.846152 0.846152 0.846152
0.846271 0.846271 0.846271
0.846389 0.846389 0.846389
0.846507 0.846507 0.846507
0.846625 0.846625 0.846625
0.846743 0.846743 0.846743
0.846860 0.846860 0.846860
0.846978 0.846978 0.846978
0.847095 0.847095 0.847095
0.847212 0.847212 0.847212
0.847329 0.847329 0.847329
0.847446 0.847446 0.847446
0.847563 0.847563 0.847563
0.847679 0.847679 0.847679
0.847796 0.847796 0.847796
0.847912 0.847912 0.847912
0.848028 0.848028 0.848028
0.848144 0.848144 0.848144
0.848260 0.848260 0.848260
0.848376 0.848376 0.848376
0.848491 0.848491 0.848491
0.848607 0.848607 0.848607
0.848722 0.848722 0.848722
0.848837 0.848837 0.848837
0.848952 0.848952 0.848952
0.849067 0.849067 0.849067
0.849181 0.849181 0.849181
0.849296 0.849296 0.849296
0.849410 0.849410 0.849410
0.849525 0.849525 0.849525
0.849639 0.849639 0.849639
0.849753 0.849753 0.849753
0.849867 0.849867 0.849867
0.849981 0.849981 0.849981
0.850094 0.850094 0.850094
0.850208 0.850208 0.850208
0.850321 0.850321 0.850321
0.850434 0.850434 0.850434
0.850547 0.850547 0.850547
0.850660 0.850660 0.850660
0.850773 0.850773 0.850773
0.850885 0.850885 0.850885
0.850998 0.850998 0.850998
0.851110 0.851110 0.851110
0.851222 0.851222 0.851222
0.851335 0.851335 0.851335
0.851446 0.851446 0.851446
0.851558 0.851558 0.851558
0.851670 0.851670 0.851670
0.851782 0.851782 0.851782
0.851893 0.851893 0.851893
0.852004 0.852004 0.852004
0.852115 0.852115 0.852115
0.852226 0.852226 0.852226
0.852337 0.852337 0.852337
0.852448 0.852448 0.852448
0.852559 0.852559 0.852559
0.852669 0.852669 0.852669
0.852780 0.852780 0.852780
0.852890 0.852890 0.852890
0.853000 0.853000 0.853000
0.853110 0.853110 0.853110
0.853220 0.853220 0.853220
0.853329 0.853329 0.853329
0.853439 0.853439 0.853439
0.853548 0.853548 0.853548
0.853658 0.853658 0.853658
0.853767 0.853767 0.853767
0.853876 0.853876 0.853876
0.853985 0.853985 0.853985
0.854094 0.854094 0.854094
0.854203 0.854203 0.854203
0.854311 0.854311 0.854311
0.854420 0.854420 0.854420
0.854528 0.854528 0.854528
0.854636 0.854636 0.854636
0.854744 0.854744 0.854744
0.854852 0.854852 0.854852
0.854960 0.854960 0.854960
0.855068 0.855068 0.855068
0.855175 0.855175 0.855175
0.855283 0.855283 0.855283
0.855390 0.855390 0.855390
