Assets/Data/Textures/70 CGC LUTs/agx luts/AgX Log.cube
LUT_3D_SIZE 5
9.7474145996455e-15 0 2.1087148140923e-13
0.1196415796876 0.0045539145357907 0
0.95479339361191 0.34219187498093 0.2341396510601
1.1182858943939 0.96951967477798 0.95771664381027
1.1541618108749 1.105286359787 1.1020481586456
0 0.1119251921773 0.024388995021582
0.10599859803915 0.10235952585936 0
0.95461589097977 0.34175184369087 0.23358914256096
1.1182855367661 0.9695183634758 0.95771592855453
1.1541618108749 1.105286359787 1.1020481586456
0 0.83695238828659 0.28849190473557
0 0.83670407533646 0.28848561644554
0.80356746912003 0.78756994009018 0.31119084358215
1.1182661056519 0.96942788362503 0.95761770009995
1.1541618108749 1.105286359787 1.1020481586456
0.92767983675003 1.0816644430161 0.94250583648682
0.92767858505249 1.0816637277603 0.94250464439392
0.92755556106567 1.0816252231598 0.94238990545273
1.0657867193222 1.0614197254181 0.97754150629044
1.1541618108749 1.105286359787 1.1020481586456
1.091596364975 1.1411249637604 1.0966161489487
1.091596364975 1.1411249637604 1.0966161489487
1.091596364975 1.1411249637604 1.0966161489487
1.091596364975 1.1411249637604 1.0966161489487
1.1367473602295 1.1352639198303 1.1082159280777
8.3997198089492e-05 0.0061423839069903 0.088487781584263
0.12374969571829 0 0.099198214709759
0.95490783452988 0.34247824549675 0.23449775576591
1.1182860136032 0.96952074766159 0.95771735906601
1.1541618108749 1.105286359787 1.1020481586456
0 0.11907213181257 0.11414577811956
0.092275567352772 0.092275820672512 0.092276327311993
0.95473128557205 0.34203898906708 0.23394820094109
1.1182855367661 0.96951979398727 0.95771640539169
1.1541618108749 1.105286359787 1.1020481586456
0 0.83622950315475 0.30020707845688
0 0.83607530593872 0.29882749915123
0.80381911993027 0.78763198852539 0.31160700321198
1.1182664632797 0.96942883729935 0.95761841535568
1.1541618108749 1.105286359787 1.1020481586456
0.92768061161041 1.0816644430161 0.94250655174255
0.92767906188965 1.0816638469696 0.94250470399857
0.92755621671677 1.0816253423691 0.94239014387131
1.0657873153687 1.0614197254181 0.97754234075546
1.1541618108749 1.105286359787 1.1020481586456
1.091596364975 1.1411249637604 1.0966161489487
1.091596364975 1.1411249637604 1.0966161489487
1.091596364975 1.1411249637604 1.0966161489487
1.091596364975 1.1411249637604 1.0966161489487
1.1367473602295 1.1352639198303 1.1082159280777
0.2559170126915 0.32694178819656 0.82888805866241
0.30319315195084 0.32594677805901 0.82810682058334
0.9056630730629 0.43495786190033 0.80758959054947
1.1182981729507 0.96957963705063 0.95778101682663
1.1541618108749 1.105286359787 1.1020481586456
0.20338043570518 0.33531892299652 0.83320987224579
0.26180225610733 0.33389058709145 0.83343678712845
0.90541398525238 0.43470400571823 0.80765563249588
1.1182981729507 0.96957832574844 0.95777970552444
1.1541618108749 1.105286359787 1.1020481586456
0 0.83297955989838 0.80997437238693
0 0.83275336027145 0.80996257066727
0.77349144220352 0.77349209785461 0.77349030971527
1.1182789802551 0.96948784589767 0.95768243074417
1.1541618108749 1.105286359787 1.1020481586456
0.92541795969009 1.0818796157837 0.94201689958572
0.9254202246666 1.0818785429001 0.9420154094696
0.92556262016296 1.0818160772324 0.94196027517319
1.0658484697342 1.0614314079285 0.97759371995926
1.1541618108749 1.105286359787 1.1020481586456
1.091596364975 1.1411249637604 1.0966161489487
1.091596364975 1.1411249637604 1.0966161489487
1.091596364975 1.1411249637604 1.0966161489487
1.091596364975 1.1411249637604 1.0966161489487
1.1367477178574 1.1352639198303 1.1082161664963
0.94893580675125 0.95694953203201 1.0825028419495
0.94904404878616 0.95697170495987 1.082489490509
0.95675033330917 0.95814365148544 1.0816030502319
1.0944277048111 0.99300795793533 1.0671014785767
1.1541618108749 1.105286359787 1.1020481586456
0.94885069131851 0.95695894956589 1.0825266838074
0.9489580988884 0.95698148012161 1.0825135707855
0.95666068792343 0.9581555724144 1.0816272497177
1.0944269895554 0.99300771951675 1.0671017169952
1.1541618108749 1.105286359787 1.1020481586456
0.94223749637604 0.95722740888596 1.0842541456223
0.94238126277924 0.95726364850998 1.0842344760895
0.9507183432579 0.95889586210251 1.083230137825
1.0943672657013 0.99295967817307 1.0671249628067
1.1541618108749 1.105286359787 1.1020481586456
0.92006099224091 1.0769577026367 1.0689775943756
0.92005932331085 1.0769571065903 1.0689781904221
0.9199600815773 1.0769069194794 1.0689992904663
1.0582413673401 1.0582413673401 1.0582413673401
1.1541618108749 1.105286359787 1.1020481586456
1.0908595323563 1.1411966085434 1.0964548587799
1.0908595323563 1.1411966085434 1.0964548587799
1.0908607244492 1.1411966085434 1.0964552164078
1.0909502506256 1.141187787056 1.0964744091034
1.1367686986923 1.1352682113647 1.108231306076
1.099960565567 1.1021156311035 1.1413663625717
1.0999609231949 1.1021156311035 1.1413663625717
1.099989771843 1.1021220684052 1.1413623094559
1.1023335456848 1.102429151535 1.1410975456238
1.1446290016174 1.1117634773254 1.1377391815186
1.0999599695206 1.1021156311035 1.1413663625717
1.099960565567 1.1021156311035 1.1413663625717
1.0999892950058 1.1021220684052 1.1413623094559
1.1023329496384 1.102429151535 1.1410976648331
1.1446290016174 1.1117634773254 1.1377391815186
1.0999372005463 1.10211789608 1.1413745880127
1.0999372005463 1.10211789608 1.1413743495941
1.0999661684036 1.1021242141724 1.1413704156876
1.1023088693619 1.1024323701859 1.1411061286926
1.1446290016174 1.1117634773254 1.1377391815186
1.0980216264725 1.1021666526794 1.1420021057129
1.0980219841003 1.102166891098 1.1420021057129
1.0980622768402 1.1021775007248 1.1419950723648
1.1006945371628 1.1026268005371 1.1416500806808
1.1446290016174 1.1117634773254 1.1377391815186
1.0891550779343 1.1389284133911 1.1383370161057
1.0891550779343 1.1389284133911 1.1383370161057
1.0891550779343 1.1389284133911 1.1383370161057
1.0891550779343 1.1389284133911 1.1383370161057
1.1341469287872 1.1341463327408 1.1341463327408
