Assets/Data/Textures/70 CGC LUTs/agx luts/AgX Log.cube
LUT_3D_SIZE 33
9.7474145996455e-15 0 2.1087148140923e-13
0.00019137661729474 1.9322367279528e-06 0
0.0012229644926265 1.9628458176157e-05 0
0.0039956369437277 8.9061140897684e-05 0
0.010029376484454 0.00028324371669441 0
0.02192728035152 0.00064796127844602 0
0.044694259762764 0.0012848868500441 0
0.077325113117695 0.0024416579399258 0
0.1196415796876 0.0045539145357907 0
0.1742907166481 0.0083719836547971 0
0.24483552575111 0.015295368619263 0
0.33574360609055 0.028081456199288 0
0.45088052749634 0.051327802240849 0
0.58839643001556 0.084749452769756 0
0.73221731185913 0.13208442926407 0
0.87260490655899 0.19650322198868 0
0.95479339361191 0.34219187498093 0.2341396510601
1.0081650018692 0.48030215501785 0.40543189644814
1.0429874658585 0.59891879558563 0.54529023170471
1.066178560257 0.69682961702347 0.65708565711975
1.0823020935059 0.77642446756363 0.74628418684006
1.0942330360413 0.84078997373581 0.81752043962479
1.1036555767059 0.89287692308426 0.87461334466934
1.1115171909332 0.93525421619415 0.92070358991623
1.1182858943939 0.96951967477798 0.95771664381027
1.1243181228638 0.99783629179001 0.98811942338943
1.1297867298126 1.0215126276016 1.0134514570236
1.1347846984863 1.0414953231812 1.0347229242325
1.1393744945526 1.0584956407547 1.0527561903
1.1436018943787 1.0730645656586 1.06815969944
1.1475034952164 1.0856354236603 1.0814113616943
1.1511092185974 1.0965547561646 1.0928914546967
1.1541618108749 1.105286359787 1.1020481586456
0 0.00018128064402845 3.326380829094e-05
0.00015297388017643 0.00014797096082475 0
0.0011626054765657 0.00024340965319425 0
0.003890375373885 0.00019054758013226 0
0.0098655791953206 0.00027754312031902 0
0.021748589351773 0.00064284406835213 0
0.044513002038002 0.0012795401271433 0
0.07719474285841 0.0024361750110984 0
0.11952374130487 0.0045470832847059 0
0.17420449852943 0.0083649698644876 0
0.24477252364159 0.015288090333343 0
0.33569756150246 0.028073752298951 0
0.450847864151 0.051320724189281 0
0.58837485313416 0.084743939340115 0
0.73220479488373 0.13208001852036 0
0.87259793281555 0.19649997353554 0
0.95479148626328 0.34218797087669 0.23413446545601
1.0081641674042 0.480299949646 0.40542924404144
1.0429871082306 0.59891790151596 0.54528909921646
1.066178560257 0.69682902097702 0.65708523988724
1.0823020935059 0.77642405033112 0.74628394842148
1.0942330360413 0.84078973531723 0.81752008199692
1.1036555767059 0.89287668466568 0.87461334466934
1.1115169525146 0.93525451421738 0.92070323228836
1.1182858943939 0.96951967477798 0.95771664381027
1.1243181228638 0.99783629179001 0.98811942338943
1.1297867298126 1.0215126276016 1.0134514570236
1.1347846984863 1.0414953231812 1.0347229242325
1.1393744945526 1.0584956407547 1.0527561903
1.1436018943787 1.0730645656586 1.06815969944
1.1475034952164 1.0856354236603 1.0814113616943
1.1511092185974 1.0965547561646 1.0928914546967
1.1541618108749 1.105286359787 1.1020481586456
0 0.0011439741356298 0.00019919824262615
0.0001240732090082 0.0010270149214193 1.8476972627468e-06
0.00098774814978242 0.00094738212646917 0
0.0037321152631193 0.0012957032304257 0
0.0097833024337888 0.0013569722650573 0
0.021453004330397 0.00066582107683644 0
0.044199846684933 0.0012703326065093 0
0.076969854533672 0.0024267369881272 0
0.11932089179754 0.0045353369787335 0
0.17405635118484 0.0083529241383076 0
0.24466383457184 0.015275615267456 0
0.33561870455742 0.028060559183359 0
0.45079171657562 0.05130847543478 0
0.58833730220795 0.084734313189983 0
0.73218333721161 0.13207229971886 0
0.87258571386337 0.19649395346642 0
0.95478862524033 0.3421805202961 0.23412522673607
1.0081630945206 0.48029619455338 0.40542501211166
1.0429869890213 0.59891611337662 0.54528719186783
1.0661782026291 0.69682800769806 0.65708404779434
1.0823020935059 0.77642393112183 0.74628365039825
1.0942330360413 0.84078985452652 0.81752008199692
1.1036555767059 0.89287626743317 0.87461346387863
1.1115169525146 0.93525451421738 0.92070323228836
1.1182858943939 0.96951967477798 0.95771664381027
1.1243181228638 0.99783629179001 0.98811942338943
1.1297867298126 1.0215126276016 1.0134514570236
1.1347846984863 1.0414953231812 1.0347229242325
1.1393744945526 1.0584956407547 1.0527561903
1.1436018943787 1.0730645656586 1.06815969944
1.1475034952164 1.0856354236603 1.0814113616943
1.1511092185974 1.0965547561646 1.0928914546967
1.1541618108749 1.105286359787 1.1020481586456
0 0.0036948390770704 0.00060473749181256
0 0.0035191478673369 0.00030280378996395
0.00095824396703392 0.003278395626694 0
0.0032557249069214 0.0031097473111004 0
0.0093117449432611 0.0037590346764773 0
0.021500397473574 0.0038255439139903 0
0.043979190289974 0.0024213211145252 0
0.076580338180065 0.0024104900658131 0
0.11897108703852 0.004515131469816 0
0.17380115389824 0.0083321947604418 0
0.24447730183601 0.01525414083153 0
0.33548280596733 0.028037808835506 0
0.45069497823715 0.0512875020504 0
0.58827316761017 0.08471792191267 0
0.73214596509933 0.13205912709236 0
0.87256443500519 0.19648379087448 0
0.95478373765945 0.34216821193695 0.23410993814468
1.0081610679626 0.48028987646103 0.40541750192642
1.0429857969284 0.59891307353973 0.54528367519379
1.0661782026291 0.69682633876801 0.65708237886429
1.0823019742966 0.77642279863358 0.74628269672394
1.0942330360413 0.84078902006149 0.81751978397369
1.1036552190781 0.89287614822388 0.87461322546005
1.1115169525146 0.93525421619415 0.92070382833481
1.1182855367661 0.96951967477798 0.95771664381027
1.1243181228638 0.99783629179001 0.98811942338943
1.1297867298126 1.0215126276016 1.0134514570236
1.1347846984863 1.0414953231812 1.0347229242325
1.1393744945526 1.0584956407547 1.0527561903
1.1436018943787 1.0730645656586 1.06815969944
1.1475034952164 1.0856354236603 1.0814113616943
1.1511092185974 1.0965547561646 1.0928914546967
1.1541618108749 1.105286359787 1.1020481586456
0 0.0091814650222659 0.0014054717030376
0 0.0090263057500124 0.0013834971468896
9.8555225122254e-05 0.0085933301597834 7.3046423494816e-05
0.0030973285902292 0.0082671009004116 0
0.0083749499171972 0.0079828845337033 0
0.020688414573669 0.0089079076424241 0
0.043914638459682 0.0086487838998437 0
0.076397009193897 0.005869482178241 0
0.11836688965559 0.0044803582131863 0
0.1733615398407 0.0082965418696404 0
0.24415609240532 0.015217188745737 0
0.33524948358536 0.027998764067888 0
0.45052897930145 0.051251411437988 0
0.58816248178482 0.0846893414855 0
0.73208165168762 0.13203650712967 0
0.87252807617188 0.19646665453911 0
0.95477491617203 0.34214681386948 0.23408317565918
1.0081579685211 0.48027896881104 0.40540441870689
1.0429846048355 0.59890764951706 0.54527747631073
1.0661776065826 0.69682383537292 0.65707939863205
1.0823018550873 0.77642178535461 0.74628168344498
1.0942326784134 0.84078902006149 0.81751936674118
1.1036552190781 0.89287614822388 0.87461256980896
1.1115169525146 0.93525379896164 0.92070358991623
1.1182855367661 0.96951967477798 0.95771664381027
1.1243181228638 0.99783629179001 0.98811930418015
1.1297867298126 1.0215126276016 1.0134514570236
1.1347846984863 1.0414953231812 1.0347229242325
1.1393744945526 1.0584956407547 1.0527561903
1.1436018943787 1.0730645656586 1.06815969944
1.1475034952164 1.0856354236603 1.0814113616943
1.1511092185974 1.0965547561646 1.0928914546967
1.1541618108749 1.105286359787 1.1020481586456
0 0.020316187292337 0.0030899490229785
0 0.02013941667974 0.0030627138912678
0 0.019791783764958 0.0027341905515641
0.00091342034284025 0.019011341035366 1.9242932467023e-05
0.0076162233017385 0.018495177850127 0
0.018757985904813 0.017840517684817 0
0.04232769459486 0.018862891942263 0
0.075987286865711 0.017775433138013 0
0.11786056309938 0.012393401935697 0
0.17260202765465 0.008235183544457 0
0.24360257387161 0.015153706073761 0
0.33484730124474 0.027931582182646 0
0.45024335384369 0.051189392805099 0
0.58797240257263 0.08464065939188 0
0.73197138309479 0.13199761509895 0
0.87246602773666 0.19643706083298 0
0.95476025342941 0.34211012721062 0.2340372800827
1.0081518888474 0.48026037216187 0.40538209676743
1.0429822206497 0.59889847040176 0.54526680707932
1.066176533699 0.69681936502457 0.65707433223724
1.0823016166687 0.7764196395874 0.74627929925919
1.0942326784134 0.84078758955002 0.81751751899719
1.1036552190781 0.89287602901459 0.87461233139038
1.1115169525146 0.93525356054306 0.92070358991623
1.1182855367661 0.9695195555687 0.95771604776382
1.1243181228638 0.99783629179001 0.98811942338943
1.1297867298126 1.0215126276016 1.0134514570236
1.1347846984863 1.0414953231812 1.0347229242325
1.139374256134 1.0584956407547 1.0527561903
1.1436018943787 1.0730645656586 1.06815969944
1.1475034952164 1.0856354236603 1.0814113616943
1.1511092185974 1.0965547561646 1.0928914546967
1.1541618108749 1.105286359787 1.1020481586456
0 0.041345424950123 0.0063637862913311
0 0.041165202856064 0.0063348687253892
0 0.040853872895241 0.0062850420363247
0 0.040067940950394 0.0044034859165549
0.0023710669483989 0.038851179182529 6.896384547872e-06
0.016360014677048 0.0378158390522 0
0.038335576653481 0.036396604031324 0
0.07366656512022 0.037525296211243 0
0.11661050468683 0.034711223095655 0
0.17183935642242 0.024604670703411 0
0.24264624714851 0.015044362284243 0
0.33415445685387 0.027816029265523 0
0.44975137710571 0.051082506775856 0
0.58764588832855 0.084557093679905 0
0.73178148269653 0.13193064928055 0
0.87235862016678 0.19638586044312 0
0.95473474264145 0.34204706549644 0.23395842313766
1.008141875267 0.48022782802582 0.40534347295761
1.0429782867432 0.59888255596161 0.54524844884872
1.0661751031876 0.69681191444397 0.65706580877304
1.0823006629944 0.77641552686691 0.74627476930618
1.0942324399948 0.84078598022461 0.81751573085785
1.1036548614502 0.89287501573563 0.87461131811142
1.1115168333054 0.93525314331055 0.92070299386978
1.1182855367661 0.9695195555687 0.95771604776382
1.1243180036545 0.99783629179001 0.98811858892441
1.1297866106033 1.021512389183 1.0134509801865
1.1347846984863 1.0414952039719 1.0347229242325
1.139374256134 1.0584956407547 1.0527561903
1.1436018943787 1.0730645656586 1.06815969944
1.1475034952164 1.0856354236603 1.0814113616943
1.1511092185974 1.0965547561646 1.0928914546967
1.1541618108749 1.105286359787 1.1020481586456
0 0.072406776249409 0.012596091255546
0 0.072250314056873 0.012558251619339
0 0.071980707347393 0.012493180111051
0 0.071514882147312 0.012381242588162
0 0.070365972816944 0.0073901279829443
0.0065936301834881 0.068824961781502 0
0.032727360725403 0.067454554140568 0
0.068210631608963 0.065496645867825 0
0.1132740303874 0.066484354436398 0
0.1699433028698 0.062240369617939 0
0.24158105254173 0.046911381185055 0
0.33295741677284 0.027617068961263 0
0.44890367984772 0.050898350775242 0
0.5870835185051 0.084413178265095 0
0.73145538568497 0.13181549310684 0
0.87217450141907 0.19629827141762 0
0.95469099283218 0.34193834662437 0.23382219672203
1.00812458992 0.48017239570618 0.40527728199959
1.0429716110229 0.59885507822037 0.54521697759628
1.0661724805832 0.69679862260818 0.65705096721649
1.0822995901108 0.77640950679779 0.74626785516739
1.0942317247391 0.84078270196915 0.8175123333931
1.1036548614502 0.89287388324738 0.8746098279953
1.1115167140961 0.93525230884552 0.92070192098618
1.1182855367661 0.96951895952225 0.95771592855453
1.1243180036545 0.99783581495285 0.98811894655228
1.1297866106033 1.0215122699738 1.0134509801865
1.1347846984863 1.0414952039719 1.0347229242325
1.139374256134 1.0584956407547 1.0527561903
1.1436018943787 1.0730645656586 1.06815969944
1.1475034952164 1.0856354236603 1.0814113616943
1.1511092185974 1.0965547561646 1.0928914546967
1.1541618108749 1.105286359787 1.1020481586456
0 0.1119251921773 0.024388995021582
0 0.11181219667196 0.024348547682166
0 0.11161734908819 0.024278957396746
0 0.11128161102533 0.024159342050552
0 0.11070150882006 0.023953450843692
0 0.10935913771391 0.013194749131799
0.013500146567822 0.10761574655771 0
0.059818856418133 0.10524689406157 0
0.10599859803915 0.10235952585936 0
0.16464927792549 0.10354756563902 0
0.23895329236984 0.098421297967434 0
0.33153632283211 0.078083030879498 0
0.44743973016739 0.050580382347107 0
0.5861142873764 0.084165148437023 0
0.73089307546616 0.13161718845367 0
0.87185710668564 0.19614726305008 0
0.95461589097977 0.34175184369087 0.23358914256096
1.0080951452255 0.48007690906525 0.40516382455826
1.0429598093033 0.59880834817886 0.54516303539276
1.0661672353745 0.69677579402924 0.65702527761459
1.082297205925 0.77639871835709 0.74625569581985
1.0942306518555 0.8407775759697 0.81750673055649
1.103654384613 0.89287090301514 0.87460678815842
1.1115163564682 0.93525093793869 0.92070090770721
1.1182855367661 0.9695183634758 0.95771592855453
1.1243180036545 0.9978352189064 0.98811835050583
1.1297866106033 1.0215122699738 1.0134509801865
1.1347846984863 1.0414950847626 1.0347229242325
1.139374256134 1.0584956407547 1.0527561903
1.1436018943787 1.0730645656586 1.06815969944
1.1475034952164 1.0856354236603 1.0814113616943
1.1511092185974 1.0965547561646 1.0928914546967
1.1541618108749 1.105286359787 1.1020481586456
0 0.1625397503376 0.046238429844379
0 0.1624570786953 0.046199284493923
0 0.16231492161751 0.046131879091263
0 0.16207021474838 0.046015985310078
0 0.16164827346802 0.04581606388092
0 0.16091960668564 0.045470736920834
0 0.15944573283195 0.024288862943649
0.025441201403737 0.15753409266472 0
0.09471146017313 0.15453264117241 0
0.15440580248833 0.14994037151337 0
0.23206189274788 0.15148019790649 0
0.32801827788353 0.14521053433418 0
0.44544339179993 0.11821975558996 0
0.58443969488144 0.083736725151539 0
0.72992461919785 0.13127481937408 0
0.87131094932556 0.19588729739189 0
0.9544865489006 0.34143108129501 0.2331877052784
1.0080444812775 0.47991299629211 0.40496841073036
1.0429393053055 0.59872728586197 0.5450701713562
1.0661588907242 0.69673681259155 0.65698105096817
1.0822936296463 0.77637988328934 0.74623501300812
1.0942291021347 0.84076887369156 0.8174968957901
1.1036536693573 0.89286673069 0.87460190057755
1.1115156412125 0.9352485537529 0.92069834470749
1.1182854175568 0.9695171713829 0.95771449804306
1.1243180036545 0.9978352189064 0.98811823129654
1.1297866106033 1.0215119123459 1.0134507417679
1.1347846984863 1.0414950847626 1.0347225666046
1.139374256134 1.0584956407547 1.0527559518814
1.1436018943787 1.0730645656586 1.06815969944
1.1475034952164 1.0856354236603 1.0814113616943
1.1511092185974 1.0965547561646 1.0928914546967
1.1541618108749 1.105286359787 1.1020481586456
0 0.22781664133072 0.077185355126858
0 0.22775626182556 0.077156744897366
0 0.22765213251114 0.077107466757298
0 0.22747331857681 0.07702275365591
0 0.22716546058655 0.076876871287823
0 0.22663477063179 0.076624281704426
0 0.22571787238121 0.076189108192921
0 0.22421500086784 0.045237101614475
0.047872804105282 0.22220838069916 0
0.1397265791893 0.21842673420906 0
0.21777898073196 0.21270224452019 0
0.31913164258003 0.21340751647949 0
0.44045758247375 0.20518267154694 0
0.58088612556458 0.16929656267166 0
0.72825253009796 0.13068377971649 0
0.87036943435669 0.19543954730034 0
0.95426398515701 0.34087851643562 0.23249652981758
1.0079572200775 0.47963070869446 0.40463197231293
1.0429044961929 0.598588347435 0.54491025209427
1.0661445856094 0.69666963815689 0.65690523386002
1.0822871923447 0.77634710073471 0.74619853496552
1.0942265987396 0.84075331687927 0.81747967004776
1.1036521196365 0.89285904169083 0.87459397315979
1.1115152835846 0.93524569272995 0.92069441080093
1.1182850599289 0.96951621770859 0.95771247148514
1.1243180036545 0.9978352189064 0.9881175160408
1.1297866106033 1.0215117931366 1.0134501457214
1.1347846984863 1.0414946079254 1.0347225666046
1.139374256134 1.0584956407547 1.0527559518814
1.1436018943787 1.0730644464493 1.0681591033936
1.1475034952164 1.0856354236603 1.0814113616943
1.1511092185974 1.0965547561646 1.0928914546967
1.1541618108749 1.105286359787 1.1020481586456
0 0.31167238950729 0.11683671921492
0 0.31162855029106 0.11681609600782
0 0.31155297160149 0.1167803928256
0 0.31142336130142 0.1167192235589
0 0.31120014190674 0.11661384254694
0 0.31081613898277 0.11643248051405
0 0.31015399098396 0.11611988395452
0 0.30900964140892 0.11557968705893
0 0.30764672160149 0.075131841003895
0.080180384218693 0.30566850304604 0
0.19796121120453 0.3008845448494 0
0.30067756772041 0.2937553524971 0
0.42872574925423 0.29255491495132 0
0.57214868068695 0.27895292639732 0
0.72058659791946 0.23272782564163 0
0.86874383687973 0.19466611742973 0
0.95388060808182 0.33992603421211 0.23130518198013
1.0078067779541 0.47914463281631 0.40405306220055
1.0428446531296 0.59834939241409 0.54463535547256
1.0661202669144 0.69655376672745 0.6567747592926
1.0822767019272 0.77629178762436 0.74613702297211
1.0942214727402 0.84072637557983 0.81745010614395
1.1036497354507 0.89284598827362 0.87458002567291
1.1115144491196 0.93523979187012 0.92068821191788
1.1182843446732 0.9695138335228 0.9577094912529
1.1243171691895 0.99783390760422 0.98811632394791
1.1297866106033 1.0215110778809 1.0134497880936
1.1347846984863 1.041494846344 1.034722328186
1.139374256134 1.0584952831268 1.0527555942535
1.1436018943787 1.0730644464493 1.0681591033936
1.1475034952164 1.085635304451 1.0814113616943
1.1511092185974 1.0965547561646 1.0928914546967
1.1541618108749 1.105286359787 1.1020481586456
0 0.41663581132889 0.16585877537727
0 0.4166045486927 0.16584447026253
0 0.41655170917511 0.16581982374191
0 0.41646018624306 0.16577738523483
0 0.41630333662033 0.16570428013802
0 0.41603308916092 0.16557884216309
0 0.41556829214096 0.16536262631416
0 0.41476637125015 0.16499000787735
0 0.41338133811951 0.16434624791145
0 0.41242849826813 0.11156062036753
0.12383533269167 0.41056126356125 0
0.27227708697319 0.40441647171974 0
0.40444549918175 0.395123898983 0
0.55485218763351 0.38858881592751 0
0.70399808883667 0.36251500248909 0
0.85276657342911 0.30840542912483 0
0.9532179236412 0.33828175067902 0.22924813628197
1.0075472593307 0.47830694913864 0.40305560827255
1.0427411794662 0.59793800115585 0.54416245222092
1.066077709198 0.69635516405106 0.65655064582825
1.0822585821152 0.77619606256485 0.74603062868118
1.0942136049271 0.84067994356155 0.8173993229866
1.1036458015442 0.89282387495041 0.87455594539642
1.1115125417709 0.93522900342941 0.92067629098892
1.1182837486267 0.96950978040695 0.95770555734634
1.1243166923523 0.99783116579056 0.98811346292496
1.1297861337662 1.0215101242065 1.0134485960007
1.1347844600677 1.0414938926697 1.034721493721
1.139374256134 1.0584952831268 1.0527554750443
1.1436014175415 1.0730640888214 1.0681591033936
1.1475034952164 1.085635304451 1.0814113616943
1.1511092185974 1.0965547561646 1.0928914546967
1.1541618108749 1.105286359787 1.1020481586456
0 0.53747493028641 0.21992772817612
0 0.5374550819397 0.21991887688637
0 0.53742116689682 0.21990388631821
0 0.53736221790314 0.21987786889076
0 0.53726142644882 0.21983316540718
0 0.53708678483963 0.21975654363632
0 0.53678804636002 0.21962454915047
0 0.53627336025238 0.21939724683762
0 0.53538620471954 0.21900552511215
0 0.53385365009308 0.21832859516144
0 0.5336622595787 0.14647775888443
0.18390935659409 0.53128224611282 0
0.36367973685265 0.52287018299103 0
0.52167874574661 0.50945603847504 0
0.67739051580429 0.48874628543854 0
0.82442450523376 0.4488679766655 0
0.93800121545792 0.42347982525826 0.22735181450844
1.0070995092392 0.4768602848053 0.40133249759674
1.0425630807877 0.59722900390625 0.54334682226181
1.0660047531128 0.69601267576218 0.65616446733475
1.0822273492813 0.77603155374527 0.74584764242172
1.0941985845566 0.84060150384903 0.81731218099594
1.1036387681961 0.89278560876846 0.87451386451721
1.1115086078644 0.93521028757095 0.92065632343292
1.1182820796967 0.96950203180313 0.95769757032394
1.1243162155151 0.99782747030258 0.98810976743698
1.1297858953476 1.0215080976486 1.0134465694427
1.1347841024399 1.0414931774139 1.0347205400467
1.1393741369247 1.0584946870804 1.0527552366257
1.1436014175415 1.0730638504028 1.068158864975
1.1475032567978 1.085635304451 1.0814111232758
1.1511092185974 1.0965548753738 1.0928914546967
1.1541618108749 1.105286359787 1.1020481586456
0 0.65342062711716 0.26431730389595
0 0.6534098982811 0.26431345939636
0 0.65339130163193 0.26430648565292
0 0.65335977077484 0.26429471373558
0 0.6533055305481 0.26427441835403
0 0.6532119512558 0.26423966884613
0 0.65305119752884 0.26417976617813
0 0.6527743935585 0.26407676935196
0 0.6522980928421 0.26389947533607
0 0.65147709846497 0.26359355449677
0 0.6500586271286 0.26306539773941
0 0.65118902921677 0.15625828504562
0.262973934412 0.64705741405487 0
0.46108251810074 0.63578647375107 0
0.63293308019638 0.61788034439087 0
0.7864927649498 0.57970088720322 0
0.90857285261154 0.54450190067291 0.23664578795433
0.9913632273674 0.54110765457153 0.40533784031868
1.0422557592392 0.59600400924683 0.54193872213364
1.0658786296844 0.69542276859283 0.65549916028976
1.0821732282639 0.77574867010117 0.74553245306015
1.0941741466522 0.84046578407288 0.81716251373291
1.103627204895 0.89272123575211 0.87444293498993
1.1115026473999 0.93517923355103 0.92062193155289
1.118279337883 0.9694886803627 0.95768338441849
1.1243141889572 0.99782079458237 0.9881027340889
1.1297850608826 1.0215047597885 1.0134432315826
1.1347836256027 1.0414913892746 1.0347189903259
1.1393738985062 1.0584939718246 1.0527540445328
1.1436012983322 1.0730632543564 1.0681585073471
1.1475032567978 1.0856350660324 1.0814107656479
1.1511092185974 1.0965548753738 1.0928914546967
1.1541618108749 1.105286359787 1.1020481586456
0 0.7526918053627 0.28649210929871
0 0.75268715620041 0.28649207949638
0 0.75267881155014 0.28649175167084
0 0.7526650428772 0.28649142384529
0 0.75264126062393 0.28649091720581
0 0.75260025262833 0.28648993372917
0 0.75252956151962 0.28648832440376
0 0.75240820646286 0.28648546338081
0 0.75219994783401 0.28648063540459
0 0.7518407702446 0.286472260952
0 0.75122171640396 0.28645780682564
0 0.75015217065811 0.28643292188644
0.0059095192700624 0.75321608781815 0.090750135481358
0.34714671969414 0.74639922380447 0
0.54665982723236 0.73284423351288 0
0.7276052236557 0.71063333749771 0.054708898067474
0.86530232429504 0.66591280698776 0.25561365485191
0.9616362452507 0.64045828580856 0.42037379741669
1.0272407531738 0.64507579803467 0.54643934965134
1.0656615495682 0.69440388679504 0.65434968471527
1.0820796489716 0.77526032924652 0.74498969316483
1.0941317081451 0.84023135900497 0.81690454483032
1.1036068201065 0.8926083445549 0.8743200302124
1.1114928722382 0.93512463569641 0.92056250572205
1.1182744503021 0.96946626901627 0.95765954256058
1.1243122816086 0.99781006574631 0.98809069395065
1.1297837495804 1.0214993953705 1.0134371519089
1.134782910347 1.0414886474609 1.0347157716751
1.1393733024597 1.0584925413132 1.0527527332306
1.1436012983322 1.0730628967285 1.0681576728821
1.1475028991699 1.085634469986 1.0814102888107
1.1511092185974 1.0965546369553 1.0928908586502
1.1541618108749 1.105286359787 1.1020481586456
0 0.83695238828659 0.28849190473557
0 0.836949467659 0.28849193453789
0 0.83694535493851 0.28849175572395
0 0.83693844079971 0.28849160671234
0 0.83692622184753 0.2884912788868
0 0.83690595626831 0.28849080204964
0 0.83687031269073 0.28848978877068
0 0.83680939674377 0.2884883582592
0 0.83670407533646 0.28848561644554
0 0.83652293682098 0.2884809076786
0 0.83621138334274 0.28847277164459
0 0.83567452430725 0.288458943367
0 0.83474695682526 0.28843507170677
0.074261419475079 0.83734691143036 0.071260251104832
0.42508527636528 0.827596783638 0.06448245793581
0.62620961666107 0.81154102087021 0.20317658782005
0.80356746912003 0.78756994009018 0.31119084358215
0.92078524827957 0.7440020442009 0.44834840297699
0.99934607744217 0.72423732280731 0.56011313199997
1.0519921779633 0.73242330551147 0.65843838453293
1.08191883564 0.77441793680191 0.74405217170715
1.0940586328506 0.83982878923416 0.81646049022675
1.1035718917847 0.89241474866867 0.87410861253738
1.1114752292633 0.9350311756134 0.92046076059341
1.1182661056519 0.96942788362503 0.95761770009995
1.1243079900742 0.99779063463211 0.98807030916214
