Assets/Data/Textures/70 CGC LUTs/agx luts/Base Rec.1886.cube
LUT_3D_SIZE 33
9.7474145996455e-15 0 2.1087148140923e-13
0.0026616158429533 0.00030626365332864 0.00016324956959579
0.015140429139137 0.00060834112809971 0.00048284899094142
0.042080238461494 0.0006194015732035 0.00031958470935933
0.074027009308338 0.0011757095344365 0.0010326023912057
0.10631827265024 0.0023139505647123 0.001053441897966
0.13880553841591 0.0032010565046221 0.0012693252647296
0.17064157128334 0.0034291637130082 0.0015716926427558
0.20511302351952 0.0051719634793699 0.0013113403692842
0.2363258600235 0.005683621391654 0.001869787927717
0.27087795734406 0.0078148497268558 0.0017810050630942
0.30206298828125 0.0099783446639776 0.0020322254858911
0.33503398299217 0.011335262097418 0.0030389991588891
0.36805376410484 0.014591951854527 0.0029955946374685
0.3989659845829 0.017486367374659 0.0035111263860017
0.43184491991997 0.018940893933177 0.0051473709754646
0.46521776914597 0.023386232554913 0.0051791514270008
0.49697798490524 0.027996744960546 0.0052113519050181
0.52746516466141 0.027864525094628 0.0082933725789189
0.56061804294586 0.02948135510087 0.010424709878862
0.59311151504517 0.033842716366053 0.011138801462948
0.62514543533325 0.036020860075951 0.012915317900479
0.65686643123627 0.039549149572849 0.015560699626803
0.68803614377975 0.037766553461552 0.024617373943329
0.71980023384094 0.034659612923861 0.037849303334951
0.75092005729675 0.028543367981911 0.058535784482956
0.78732764720917 0.022907113656402 0.059553779661655
0.82213002443314 0.027279522269964 0.069923594594002
0.85579723119736 0.026660319417715 0.078640706837177
0.88841313123703 0.0035759373567998 0.13716459274292
0.91825830936432 0.062582679092884 0.19230577349663
0.9513127207756 0.16838863492012 0.23839199542999
0.97949606180191 0.25773179531097 0.29343557357788
0.00025435179122724 0.0030542961321771 0.00032991566695273
0.0030448564793915 0.0030780627857894 0.00035679680877365
0.016005406156182 0.0029595093801618 0.00032158888643607
0.042824633419514 0.0028687582816929 0.00039892506902106
0.075883381068707 0.0032791127450764 0.00083941430784762
0.10780378431082 0.0049799592234194 0.00091557193081826
0.13996183872223 0.0054640378803015 0.0011404587421566
0.17138087749481 0.00610286090523 0.0015204710653052
0.2057708799839 0.0078609976917505 0.0012369456235319
0.23681911826134 0.0079903602600098 0.0018382718553767
0.27150183916092 0.0099423676729202 0.0014566854806617
0.30256062746048 0.011858785524964 0.0018398680258542
0.33583039045334 0.01298444531858 0.002275115577504
0.36878046393394 0.016356067731977 0.0022698265966028
0.39951604604721 0.018818592652678 0.0029708917718381
0.43246576189995 0.020682355388999 0.0042937067337334
0.46577650308609 0.025180162861943 0.004390156827867
0.49742949008942 0.029540525749326 0.0045902775600553
0.52789145708084 0.029201060533524 0.0075917532667518
0.56106388568878 0.031351506710052 0.0093918964266777
0.59348779916763 0.035479452461004 0.010263145901263
0.6255047917366 0.037650372833014 0.011994384229183
0.65721267461777 0.041053615510464 0.01457413751632
0.68839037418365 0.039027139544487 0.023479061201215
0.72012627124786 0.035773608833551 0.036491181701422
0.7512543797493 0.02962982840836 0.057011172175407
0.78739714622498 0.024572424590588 0.058798611164093
0.82219713926315 0.02885040268302 0.06925318390131
0.85606801509857 0.029138371348381 0.077613927423954
0.88844907283783 0.0036413068883121 0.13734030723572
0.91833013296127 0.06281191110611 0.19240579009056
0.95138329267502 0.16861552000046 0.23849087953568
0.97953683137894 0.25788101553917 0.29355329275131
0.00038185738958418 0.01661360822618 0.0010991742601618
0.0025593712925911 0.016505885869265 0.00051663198973984
0.016460767015815 0.016593644395471 0.00014602950250264
0.043324455618858 0.016744563356042 0.00073022913420573
0.076390661299229 0.016174023970962 2.3262098693522e-05
0.10894147306681 0.015777362510562 0.00067543896147981
0.14101418852806 0.018049616366625 0.001709452830255
0.17223533987999 0.018933545798063 0.0023816591128707
0.20692583918571 0.018597323447466 0.0015237641055137
0.23833429813385 0.020656721666455 0.0019880565814674
0.27297395467758 0.022505139932036 0.0014514756621793
0.30390918254852 0.022855715826154 0.0019911024719477
0.33719336986542 0.02464060485363 0.0022853212431073
0.37004941701889 0.02791198156774 0.0020769480615854
0.40057104825974 0.027624975889921 0.0029452804010361
0.43400916457176 0.030763819813728 0.0031945996452123
0.46746921539307 0.034781891852617 0.0028193027246743
0.49934005737305 0.036573864519596 0.0024648236576468
0.52971935272217 0.035329606384039 0.0049966811202466
0.56295728683472 0.040013179183006 0.0057013155892491
0.59508579969406 0.042823702096939 0.0070109302178025
0.62703388929367 0.044807590544224 0.0085225850343704
0.65865623950958 0.047230891883373 0.010915296152234
0.689901471138 0.0444610491395 0.018983788788319
0.72151613235474 0.040730550885201 0.031032016500831
0.75265902280807 0.03440685197711 0.050677016377449
0.78770285844803 0.031912714242935 0.055826403200626
0.82248377799988 0.036175314337015 0.066378578543663
0.85724687576294 0.04154472053051 0.07309228926897
0.88887065649033 0.0046520051546395 0.13687646389008
0.91863596439362 0.063791140913963 0.19283258914948
0.95168668031693 0.1695861518383 0.23891365528107
0.979711830616 0.25851690769196 0.29405552148819
0.0015974655980244 0.043703064322472 0.0012011838844046
0.0032837111502886 0.043725647032261 0.0010234245564789
0.016483806073666 0.043672487139702 0.00096170057076961
0.043917708098888 0.043798938393593 0.00047476947656833
0.076140679419041 0.043202742934227 0.0010431358823553
0.10967902094126 0.042217560112476 0.00084077153587714
0.14289936423302 0.043313503265381 0.0019151314627379
0.17354676127434 0.044582717120647 0.0027529820799828
0.20703846216202 0.045725606381893 0.0031503508798778
0.23864904046059 0.045813858509064 0.0041025211103261
0.27264693379402 0.046552941203117 0.0029320302419364
0.30393779277802 0.047748804092407 0.0037744008004665
0.33792865276337 0.048504859209061 0.0034255816135556
0.37092456221581 0.049143351614475 0.0027260042261332
0.40169268846512 0.053098350763321 0.0035924047697335
0.43564236164093 0.056360609829426 0.0034131202846766
0.46910190582275 0.056370601058006 0.0028716216329485
0.50082445144653 0.056477665901184 0.0024533730465919
0.53176218271255 0.057152777910233 0.0035706176422536
0.5657759308815 0.056910380721092 0.0025177148636431
0.59827733039856 0.057552054524422 0.0026014316827059
0.63009613752365 0.059084706008434 0.0035744057968259
0.66144633293152 0.058788664638996 0.0056666345335543
0.69294309616089 0.055308990180492 0.011625253595412
0.7243704199791 0.051057539880276 0.02143164537847
0.75549972057343 0.045071810483932 0.037929650396109
0.78837454319 0.045805148780346 0.051320932805538
0.82306462526321 0.052812926471233 0.060525186359882
0.85897940397263 0.059896200895309 0.067119672894478
0.88983190059662 0.0076334215700626 0.13540470600128
0.91925781965256 0.065780267119408 0.19369950890541
0.95230048894882 0.17155128717422 0.23976966738701
0.98006743192673 0.25980591773987 0.29507356882095
0.0022666628938168 0.076981954276562 0.0012427681358531
0.0040630917064846 0.076961390674114 0.00098944059573114
0.015899891033769 0.077002681791782 0.00090850633569062
0.043316513299942 0.077137760818005 0.0013981859665364
0.077239252626896 0.077312268316746 0.0018196450546384
0.10871578007936 0.076651193201542 0.0013551801675931
0.14325633645058 0.076013423502445 0.00082852994091809
0.1756237745285 0.075424067676067 0.00206039682962
0.20837208628654 0.077253811061382 0.0046636806800961
0.23970061540604 0.078633941709995 0.0043707946315408
0.27314889431 0.077791906893253 0.0048976503312588
0.30386185646057 0.078326113522053 0.0070193936116993
0.33796811103821 0.080159746110439 0.0064296685159206
0.37026098370552 0.081597156822681 0.005376105196774
0.4011298418045 0.081088237464428 0.006739136762917
0.43561887741089 0.079912133514881 0.0057395766489208
0.46925890445709 0.079673491418362 0.0045062401331961
0.50084233283997 0.083690993487835 0.0040103015489876
0.53256350755692 0.08524202555418 0.0045928633771837
0.56712061166763 0.085582248866558 0.0028836380224675
0.60081088542938 0.084731765091419 0.0015271328156814
0.6342778801918 0.079031385481358 0.00054836965864524
0.66633772850037 0.075167499482632 0.0012670457363129
0.69739365577698 0.072838537395 0.0046688504517078
0.72686737775803 0.073290027678013 0.016119141131639
0.75710546970367 0.072259776294231 0.033955156803131
0.78909069299698 0.060772068798542 0.048082552850246
0.82390606403351 0.080035798251629 0.051049284636974
0.85985273122787 0.080386407673359 0.059677213430405
0.89148569107056 0.015427817590535 0.13229447603226
0.92028337717056 0.069132037460804 0.19469434022903
0.95327740907669 0.17467954754829 0.24113228917122
0.98063045740128 0.26184955239296 0.29668742418289
0.0038866586983204 0.1100937500596 0.0020175729878247
0.0049144071526825 0.11012438684702 0.0011835603509098
0.015511404722929 0.11008103936911 0.00087679515127093
0.039173636585474 0.11032076925039 0.0014103252906352
0.076767571270466 0.11030810326338 0.0020269008819014
0.11012371629477 0.11073971539736 0.0028379436116666
0.14255657792091 0.10976117104292 0.0017752782441676
0.17664387822151 0.10949782282114 0.00076497084228322
0.20905384421349 0.10798931866884 0.0015738579677418
0.24137362837791 0.10947725921869 0.0042699235491455
0.27440771460533 0.11072259396315 0.0079692872241139
0.30450478196144 0.11141232401133 0.0079032378271222
0.3387630879879 0.11153074353933 0.0073127555660903
0.37104368209839 0.1114509627223 0.0090409955009818
0.40113216638565 0.11282109469175 0.011748862452805
0.43527516722679 0.11387141793966 0.010121047496796
0.46828824281693 0.1134472116828 0.0076963761821389
0.50011932849884 0.11326556652784 0.0077543589286506
0.53207284212112 0.11302936822176 0.0078014861792326
0.56665515899658 0.11114505678415 0.0050409915857017
0.60078817605972 0.10867352038622 0.0027209522668272
0.63497930765152 0.10607749968767 0.00094165041809902
0.66853249073029 0.10653381794691 0.00058210408315063
0.69874280691147 0.1099950298667 0.0052347928285599
0.72811037302017 0.1114901676774 0.016683468595147
0.75835353136063 0.10752884298563 0.034843150526285
0.79025650024414 0.094209812581539 0.046931587159634
0.82454216480255 0.098508425056934 0.047174960374832
0.86103302240372 0.11484534293413 0.046658262610435
0.89748507738113 0.093090422451496 0.10549863427877
0.92177993059158 0.074219904839993 0.19489431381226
0.95465642213821 0.17909401655197 0.24305576086044
0.98143714666367 0.26477885246277 0.29900136590004
0.0068279420956969 0.14229539036751 0.0022078012116253
0.0075991949997842 0.14234352111816 0.001682965317741
0.014744011685252 0.14246618747711 0.00080985645763576
0.039977543056011 0.14246153831482 0.0011565370950848
0.074341885745525 0.14278334379196 0.0023233059328049
0.11043076962233 0.14277881383896 0.0030212851706892
0.1421032845974 0.14349010586739 0.0047447425313294
0.17677408456802 0.14213228225708 0.0026416189502925
0.20844006538391 0.1416662633419 0.0013097878545523
0.24301981925964 0.14069414138794 0.0016048842808232
0.27536657452583 0.14051708579063 0.0038535620551556
0.30628877878189 0.14195051789284 0.008275892585516
0.34033891558647 0.14332249760628 0.011475663632154
0.37203964591026 0.14452421665192 0.011122731491923
0.40224486589432 0.1447930932045 0.012824570760131
0.43600311875343 0.14583304524422 0.01179835293442
0.4682999253273 0.14722841978073 0.011671577580273
0.49972665309906 0.14752897620201 0.014761232770979
0.53210765123367 0.14414274692535 0.013247080147266
0.56619417667389 0.14164504408836 0.0088310055434704
0.59958279132843 0.14036053419113 0.0051284292712808
0.63336759805679 0.13757133483887 0.0021028723567724
0.66675895452499 0.1364626288414 0.0023225918412209
0.69875413179398 0.14019328355789 0.0080917123705149
0.72954946756363 0.14678362011909 0.01953811943531
0.76008093357086 0.1516173183918 0.036240126937628
0.7919796705246 0.13997778296471 0.046288713812828
0.8256316781044 0.11898752301931 0.043470770120621
0.86146765947342 0.14492613077164 0.037781562656164
0.90025687217712 0.12161573022604 0.10058518499136
0.92367213964462 0.092089556157589 0.19190698862076
0.95662599802017 0.18546140193939 0.24540039896965
0.98250776529312 0.26866310834885 0.30206948518753
0.010318398475647 0.17633804678917 0.0028372777160257
0.011423061601818 0.17637574672699 0.0021423283033073
0.017821116372943 0.17649179697037 0.00067059969296679
0.037831917405128 0.17653825879097 0.00075284054037184
0.069992631673813 0.17656120657921 0.0014038011431694
0.11039025336504 0.17667645215988 0.0032104961574078
0.14245703816414 0.17651316523552 0.0041915602050722
0.17678752541542 0.17694517970085 0.007158076390624
0.20787706971169 0.17588168382645 0.0055687711574137
0.24293541908264 0.17540749907494 0.0017656914424151
0.27524876594543 0.17521700263023 0.0010004384675995
0.30804914236069 0.17328175902367 0.0028432614635676
0.34172612428665 0.17309415340424 0.0075184823945165
0.37341573834419 0.17382141947746 0.015177556313574
0.40449684858322 0.17466685175896 0.017887206748128
0.43784531950951 0.1760875582695 0.01372751314193
0.46972018480301 0.17713040113449 0.015175148844719
0.50036364793777 0.17808413505554 0.017548257485032
0.53198283910751 0.17873281240463 0.017312219366431
0.56482845544815 0.17963114380836 0.01433618273586
0.59820175170898 0.17656370997429 0.0090322690084577
0.63180178403854 0.17305916547775 0.0055353571660817
0.66504365205765 0.17119905352592 0.0064352811314166
0.69775140285492 0.17200690507889 0.013685173355043
0.72966319322586 0.17456233501434 0.027382487431169
0.76145058870316 0.17943742871284 0.044843733310699
0.7940331697464 0.18232706189156 0.048225313425064
0.82755976915359 0.17287942767143 0.040153481066227
0.86279296875 0.1711266040802 0.031458981335163
0.90015625953674 0.15246298909187 0.095780424773693
0.93023574352264 0.16933810710907 0.16896831989288
0.95919364690781 0.19406667351723 0.24652853608131
0.98384803533554 0.27352836728096 0.30589359998703
0.01272807829082 0.20935717225075 0.005007894244045
0.013798213563859 0.20940342545509 0.004147163592279
0.018840610980988 0.20960363745689 0.0015171270351857
0.041049934923649 0.209641456604 0.001012830180116
0.068141438066959 0.20979496836662 0.0015637080650777
0.10072516649961 0.21002003550529 0.0028488095849752
0.14308694005013 0.21011590957642 0.004501661285758
0.17592969536781 0.21008253097534 0.0051627848297358
0.20929422974586 0.21085205674171 0.0081818839535117
0.24257799983025 0.20963600277901 0.0068475045263767
0.2735415995121 0.20881277322769 0.0037485109642148
0.30837291479111 0.20878931879997 0.0018058104906231
0.34220099449158 0.2071268260479 0.0025544206146151
0.373590528965 0.20611363649368 0.0054156202822924
0.40533822774887 0.20711952447891 0.010687368921936
0.43903803825378 0.20843896269798 0.02100290171802
0.47095787525177 0.20935612916946 0.02405889518559
0.50130921602249 0.21064811944962 0.022893473505974
0.53319424390793 0.21108931303024 0.019291430711746
0.5658124089241 0.21025937795639 0.015542956069112
0.59828251600266 0.20997068285942 0.012362565845251
0.63079828023911 0.21003016829491 0.012142304331064
0.66376340389252 0.20789965987206 0.014494351111352
0.69649022817612 0.20800867676735 0.024180861189961
0.72926890850067 0.20777350664139 0.037323482334614
0.76234596967697 0.20775640010834 0.053802534937859
0.79561734199524 0.20775496959686 0.053654097020626
0.82943803071976 0.20696920156479 0.044081188738346
0.86469680070877 0.20363366603851 0.027866369113326
0.90009701251984 0.19311562180519 0.087494425475597
0.93106657266617 0.18948039412498 0.17255559563637
0.96208566427231 0.20640641450882 0.24824008345604
0.98559159040451 0.27985313534737 0.31090554594994
0.019670471549034 0.24227496981621 0.0043984586372972
0.02061515673995 0.24231374263763 0.0038393484428525
0.024880396202207 0.24248173832893 0.0019539177883416
0.038986917585135 0.24265721440315 0.00083276611985639
0.068191945552826 0.24261686205864 0.0011031369213015
0.10108213871717 0.242620408535 0.0021195644512773
0.1391341984272 0.2427149116993 0.0041232840158045
0.17360725998878 0.24275273084641 0.0063875950872898
0.21015068888664 0.24251848459244 0.0079013574868441
0.24294406175613 0.24310296773911 0.012744509615004
0.2736664712429 0.24194097518921 0.011902427300811
0.3085897564888 0.24119719862938 0.0052416422404349
0.34192833304405 0.24079260230064 0.0021888902410865
0.37336990237236 0.23988682031631 0.0020756209269166
0.40750288963318 0.2375915646553 0.0050189467146993
0.44049799442291 0.23754492402077 0.011717535555363
0.47222799062729 0.23823195695877 0.021850414574146
0.50292962789536 0.23954024910927 0.034879814833403
0.53498804569244 0.2400074005127 0.027665343135595
0.56698459386826 0.24091777205467 0.019625222310424
0.59904611110687 0.24204781651497 0.017457263544202
0.63122582435608 0.24227333068848 0.016398807987571
0.66407084465027 0.2413492500782 0.018663441762328
0.69732600450516 0.23972740769386 0.024397701025009
0.73083853721619 0.23824003338814 0.032758075743914
0.76378840208054 0.23777464032173 0.048382878303528
0.79679524898529 0.23542264103889 0.037194006145
0.83052098751068 0.23532286286354 0.027117006480694
0.86633431911469 0.23142492771149 0.021707350388169
0.9004824757576 0.23173806071281 0.082062073051929
0.93081802129745 0.23405972123146 0.16772213578224
0.96571427583694 0.22560501098633 0.25110965967178
0.98771446943283 0.2871767282486 0.31715774536133
0.021877747029066 0.2751173377037 0.0081648593768477
0.022985141724348 0.27516728639603 0.0072830133140087
0.028063768520951 0.27538257837296 0.0041649132035673
0.040716953575611 0.27568855881691 0.0015774830244482
0.071444742381573 0.27573639154434 0.0017096098745242
0.099418438971043 0.27585142850876 0.0026710883248597
0.1311451792717 0.27607554197311 0.0043006516061723
0.17321476340294 0.27626547217369 0.006931743118912
0.20847150683403 0.27627065777779 0.0082187978550792
0.24127700924873 0.27647617459297 0.0098375640809536
0.27499333024025 0.27721801400185 0.014375681057572
0.30885362625122 0.27609351277351 0.012721559032798
0.34072664380074 0.27484130859375 0.0075899320654571
0.37171313166618 0.27425906062126 0.0044020097702742
0.40774327516556 0.27369645237923 0.0020926252473146
0.4412482380867 0.27155461907387 0.0040915342979133
0.4727503657341 0.27108281850815 0.0084345955401659
0.50286334753036 0.27201274037361 0.015461253933609
0.5352583527565 0.27276661992073 0.024300744757056
0.56703382730484 0.27388274669647 0.035996723920107
0.5989625453949 0.27409130334854 0.031133025884628
0.63145363330841 0.27446380257607 0.025455279275775
0.66457307338715 0.27385807037354 0.025801492854953
0.69850319623947 0.27187567949295 0.027017790824175
0.73310434818268 0.26893049478531 0.029679030179977
0.76590073108673 0.26914128661156 0.042885765433311
0.79853898286819 0.26676732301712 0.02798368409276
0.83243238925934 0.26321732997894 0.014071585610509
0.86796998977661 0.26242303848267 0.0093141021206975
0.90036517381668 0.26034724712372 0.076522178947926
0.93134427070618 0.27014255523682 0.16693362593651
0.96445149183273 0.27957925200462 0.25236669182777
0.99035614728928 0.29581117630005 0.3223569393158
0.030254067853093 0.30872723460197 0.0083398818969727
0.031275477260351 0.30876913666725 0.0076501215808094
0.035904593765736 0.30893763899803 0.005064110737294
0.045972920954227 0.30926996469498 0.0016368654323742
0.071368508040905 0.30931431055069 0.0014368048869073
0.096572555601597 0.30943304300308 0.00189767498523
0.12908786535263 0.30946391820908 0.0030579199083149
0.16790369153023 0.30948084592819 0.0047913296148181
0.20988768339157 0.30960768461227 0.007738065905869
0.23851615190506 0.30963426828384 0.0096906628459692
0.27484440803528 0.30962464213371 0.012855589389801
0.30916792154312 0.31016355752945 0.019569439813495
0.34033411741257 0.30898922681808 0.020260274410248
0.37242719531059 0.30764254927635 0.011988415382802
0.40726405382156 0.30682420730591 0.0050609852187335
0.44098162651062 0.30631768703461 0.0021945273038
0.47317373752594 0.30491715669632 0.0023814796004444
0.50441539287567 0.30379381775856 0.005397638771683
0.53624778985977 0.30386382341385 0.014236563816667
0.56786704063416 0.30442550778389 0.027785450220108
0.59976452589035 0.30549719929695 0.045082435011864
0.63218593597412 0.30538010597229 0.041756391525269
0.66523498296738 0.30391609668732 0.041921220719814
0.69927734136581 0.30235758423805 0.039971806108952
0.73459166288376 0.29998254776001 0.036008432507515
0.76883053779602 0.29952728748322 0.035143297165632
0.80102890729904 0.2990574836731 0.020049685612321
0.83361309766769 0.29827582836151 0.011341220699251
0.86835986375809 0.29618859291077 0.0054646949283779
0.89937710762024 0.29920288920403 0.062577359378338
0.9321613907814 0.29764285683632 0.17336812615395
0.96443146467209 0.30636936426163 0.25776073336601
0.99153012037277 0.32051602005959 0.32711237668991
0.037278950214386 0.33960425853729 0.0098775075748563
0.038130331784487 0.33963686227798 0.0093097314238548
0.041819848120213 0.33977681398392 0.0071164141409099
0.049184672534466 0.34006249904633 0.0037334305234253
0.06909204274416 0.34022983908653 0.0022618374787271
0.10394398123026 0.34013479948044 0.0027310256846249
0.13189059495926 0.34027031064034 0.0041005313396454
0.16517218947411 0.34050109982491 0.0062900083139539
0.2020029425621 0.34076371788979 0.0096154632046819
0.24085968732834 0.34099793434143 0.013095269910991
0.27472206950188 0.34098130464554 0.014512097463012
0.30809554457664 0.34139490127563 0.018015217036009
0.34004393219948 0.34208977222443 0.024846723303199
0.37428855895996 0.34050515294075 0.023539233952761
0.407863676548 0.33896481990814 0.012259378097951
0.440613925457 0.33806619048119 0.0053930059075356
0.47244149446487 0.33779343962669 0.0028074372094125
0.50562334060669 0.33664110302925 0.0037270735483617
0.53794801235199 0.33534601330757 0.0091938674449921
0.56915456056595 0.33563202619553 0.019662879407406
0.60072612762451 0.3365121781826 0.034156408160925
0.63281488418579 0.33702337741852 0.045443266630173
0.66555535793304 0.33553236722946 0.040434986352921
0.69942158460617 0.33380877971649 0.034526415169239
0.73456293344498 0.33174401521683 0.027882473543286
0.76920074224472 0.32978209853172 0.029079794883728
0.80095815658569 0.33062931895256 0.030120246112347
0.83340263366699 0.33215960860252 0.014363066293299
0.86828118562698 0.33043098449707 0.0067402059212327
0.89916509389877 0.33324339985847 0.066187992691994
0.93197274208069 0.33689710497856 0.15959414839745
0.96395522356033 0.34031292796135 0.26192381978035
0.99271029233932 0.34821259975433 0.33416682481766
0.043319500982761 0.37417104840279 0.014091059565544
0.044382832944393 0.37421223521233 0.013265043497086
0.048675619065762 0.37438496947289 0.010222364217043
0.056742578744888 0.37472382187843 0.0057128672488034
0.071422196924686 0.37516918778419 0.0020274152047932
0.10199747234583 0.37521925568581 0.0021871242206544
0.13005417585373 0.37529641389847 0.0030711896251887
0.15812972187996 0.37547209858894 0.0045218095183372
0.19284629821777 0.37566402554512 0.0068241516128182
0.23620456457138 0.37562182545662 0.0099816294386983
0.27445831894875 0.37564817070961 0.0124222766608
0.30582362413406 0.37568238377571 0.01356755848974
0.33747348189354 0.37603455781937 0.017310651019216
0.37445265054703 0.37622919678688 0.023700270801783
0.40763294696808 0.37492355704308 0.026021020486951
0.43923461437225 0.37355947494507 0.017045665532351
0.47029364109039 0.37285372614861 0.010550088249147
0.50434535741806 0.371456772089 0.0094657223671675
0.5385622382164 0.37028476595879 0.010157623328269
0.5704619884491 0.36928388476372 0.017803831025958
0.60184019804001 0.36969718337059 0.0302021112293
0.63363701105118 0.36924016475677 0.034334104508162
0.66607868671417 0.36773765087128 0.028621461242437
0.69982624053955 0.36604714393616 0.02232944406569
0.73434799909592 0.36462491750717 0.020108819007874
