Assets/Data/Textures/70 CGC LUTs/agx luts/Base Rec Display P3.cube
LUT_3D_SIZE 33
9.7474145996455e-15 0 2.1087148140923e-13
0.034030836075544 0.00037914767744951 5.1618910219986e-05
0.066416874527931 0.00051494332728907 0.00057934026699513
0.099235914647579 0.00038862848305143 0.0015222086803988
0.13185822963715 0.00040548827382736 0.0025083157233894
0.16390582919121 0.0004790025705006 0.003938265144825
0.19720679521561 0.00050486787222326 0.006453656591475
0.22788202762604 0.00054801203077659 0.009247918613255
0.26208311319351 0.00082192628178746 0.011598066426814
0.29283300042152 0.0008843761170283 0.0154147176072
0.32568129897118 0.0013918256154284 0.01743788830936
0.35812541842461 0.0013921246863902 0.023027343675494
0.38845759630203 0.0015115106943995 0.028204971924424
0.4214916229248 0.0022643881384283 0.03035575710237
0.4543788433075 0.0020959142129868 0.037401251494884
0.4857719540596 0.0018776273354888 0.045019760727882
0.51675724983215 0.001566544524394 0.051538988947868
0.54952549934387 0.0017042523249984 0.053753085434437
0.58242779970169 0.0010142961982638 0.06106261909008
0.6154677271843 0.00032555239158683 0.069241054356098
0.64893466234207 0 0.076046757400036
0.68046832084656 0 0.071620441973209
0.71249425411224 0 0.06952491402626
0.74403035640717 0 0.086150847375393
0.77539187669754 0.00061225320678204 0.11567113548517
0.81702381372452 0.0008036841172725 0.12692460417747
0.86209720373154 0.0008198784198612 0.13245612382889
0.89862531423569 0.012712641619146 0.16827163100243
0.93182545900345 0.10600913316011 0.21122345328331
0.96637469530106 0.21660599112511 0.25939992070198
0.98883372545242 0.29100966453552 0.32046586275101
1.0115433931351 0.36882141232491 0.38764363527298
1.030369758606 0.4397377371788 0.45344960689545
4.9093228881247e-05 0.03240480273962 0.0033446138259023
0.03144621476531 0.031585529446602 2.1298679712345e-05
0.066780231893063 0.030602449551225 1.0813467270054e-05
0.10175580531359 0.029103891924024 2.7775255148299e-05
0.1350280046463 0.028375435620546 0.00014823880337644
0.16785228252411 0.024747105315328 0.00014710763935
0.2036380469799 0.019091840833426 3.5197249417251e-06
0.23561862111092 0.017831226810813 0
0.27110171318054 0.016581933945417 0
0.30163714289665 0.015574840828776 9.0532419562805e-05
0.33353719115257 0.014034815132618 0.0008819485665299
0.36515960097313 0.012203286401927 0.0029336316511035
0.39513817429543 0.012018669396639 0.0050430246628821
0.42760327458382 0.013019311241806 0.007279600482434
0.45957005023956 0.011152034625411 0.013145850040019
0.48994302749634 0.0093863299116492 0.021047126501799
0.52038836479187 0.010057693347335 0.026277087628841
0.55172318220139 0.011607599444687 0.031990591436625
0.58381694555283 0.0091330343857408 0.043121576309204
0.61675876379013 0.0050365519709885 0.053313955664635
0.65019130706787 0.0016817476134747 0.060878202319145
0.68453294038773 9.8667704151012e-05 0.061323061585426
0.71719467639923 0 0.058643333613873
0.74842548370361 0 0.070295982062817
0.77845329046249 0.0014303125208244 0.10280271619558
0.81789410114288 0.00079241197090596 0.1257746219635
0.86279690265656 0.00082009582547471 0.13254147768021
0.89912176132202 0.013460608199239 0.1688297688961
0.93228954076767 0.10749433189631 0.21187025308609
0.96686226129532 0.218166410923 0.26007995009422
0.98913437128067 0.2920406460762 0.32135543227196
1.0118538141251 0.36988562345505 0.38856321573257
1.0305868387222 0.44062116742134 0.45428687334061
1.5593283023918e-05 0.064173765480518 0.0068851197138429
0.024627415463328 0.063486836850643 2.968474973386e-06
0.062902733683586 0.063200198113918 0.0001363607152598
0.098965592682362 0.061361044645309 0
0.1332406103611 0.060341089963913 2.6745767172542e-05
0.16644182801247 0.058091171085835 0.00053767598001286
0.20174115896225 0.056207366287708 0.00013283360749483
0.23435738682747 0.052245736122131 8.9487119112164e-05
0.2702180147171 0.044782020151615 4.8585684453428e-07
0.30220654606819 0.041692897677422 0
0.33675462007523 0.03913215175271 0
0.37074953317642 0.036180481314659 0
0.40176644921303 0.035054691135883 0
0.43366348743439 0.032060597091913 0.0003015790716745
0.46539711952209 0.029030930250883 0.0017119634430856
0.4959129691124 0.027634892612696 0.0039314241148531
0.52595645189285 0.027283255010843 0.0068952906876802
0.55675917863846 0.02714372985065 0.011562027037144
0.5877645611763 0.022079614922404 0.021745009347796
0.61841505765915 0.017485409975052 0.036374598741531
0.65157890319824 0.010274861939251 0.04390986263752
0.68585801124573 0.0035003477241844 0.045405954122543
0.72097647190094 0.0001107959105866 0.048714406788349
0.75388377904892 0 0.050333820283413
0.78406661748886 0.0012076982529834 0.082505829632282
0.81919759511948 0.00076393038034439 0.12285370379686
0.86358672380447 0.00082035112427548 0.13263782858849
0.89966613054276 0.014309301041067 0.16944125294685
0.93281269073486 0.10917077213526 0.21260014176369
0.96743804216385 0.22000819444656 0.26088246703148
0.98946541547775 0.29317378997803 0.32233336567879
1.0122021436691 0.37108048796654 0.38959464430809
1.030838727951 0.44164609909058 0.45525848865509
0 0.095972843468189 0.013252422213554
0.014473726041615 0.095617152750492 0
0.056501142680645 0.095213361084461 0
0.094438455998898 0.09501301497221 3.9006314182188e-05
0.13095960021019 0.092664517462254 0
0.16419920325279 0.091699846088886 0
0.1997686624527 0.089956305921078 0.00023861491354182
0.23298373818398 0.087286867201328 0.00047160766553134
0.26808390021324 0.08542362600565 0.00012832308129873
0.30001890659332 0.083769671618938 5.0779355660779e-05
0.33603218197823 0.074588157236576 4.0437944903715e-07
0.3695821762085 0.070233710110188 0
0.40076896548271 0.067875854671001 0
0.43564164638519 0.065210543572903 0
0.47018474340439 0.060685038566589 0
0.50218361616135 0.059531934559345 0
0.53273808956146 0.057997345924377 5.5894121032907e-05
0.56328791379929 0.054857723414898 0.00099624902941287
0.59402340650558 0.04816834628582 0.0043989266268909
0.62453651428223 0.042911604046822 0.010527648031712
0.65410560369492 0.036778457462788 0.021824156865478
0.68629163503647 0.024325655773282 0.028123572468758
0.72154575586319 0.010497244074941 0.028706690296531
0.75840181112289 0.0005475883372128 0.032085381448269
0.79069459438324 0.0009612810681574 0.05957468599081
0.82144570350647 0.0018034458626062 0.11436561495066
0.86484885215759 0.00081199832493439 0.13186341524124
0.90045124292374 0.015588426031172 0.17032444477081
0.93359684944153 0.11168006807566 0.21369275450706
0.96823781728745 0.22256752848625 0.26199787855148
0.98993414640427 0.29478040337563 0.32371976971626
1.0127112865448 0.37282711267471 0.39110171794891
1.0312000513077 0.44311726093292 0.45665240287781
0 0.1281316280365 0.01952325925231
0.0055923038162291 0.12797576189041 0.0006757122464478
0.040337413549423 0.12780183553696 0
0.086874030530453 0.12750571966171 0
0.12607106566429 0.1272714138031 6.2401372815657e-06
0.16166391968727 0.12464722245932 0
0.19742012023926 0.12313797324896 0
0.23055744171143 0.12175961583853 6.100040536694e-06
0.26617622375488 0.12002765387297 0.00071753008523956
0.29794791340828 0.11731449514627 0.00047258887207136
0.33383169770241 0.11539978533983 0.00015227652329486
0.36740633845329 0.11438127607107 3.1155530450633e-05
0.39894825220108 0.10786337405443 9.1579359207117e-08
0.43484234809875 0.10050987452269 0
0.46911805868149 0.094537831842899 0
0.50159710645676 0.090780772268772 0
0.53372675180435 0.088363416492939 0
0.56723755598068 0.086877472698689 0
0.60033965110779 0.086278848350048 0
0.63212341070175 0.083289511501789 9.195864549838e-05
0.6615309715271 0.077455811202526 0.0018938089488074
0.68960052728653 0.070699937641621 0.0083614476025105
0.72180926799774 0.051505975425243 0.014387973584235
0.75883322954178 0.021096631884575 0.015461212024093
0.79612386226654 0.0065997168421745 0.036899361759424
0.82923299074173 0.001463288674131 0.088115371763706
0.86702561378479 0.0007761640008539 0.12829488515854
0.90153449773788 0.017448762431741 0.17150780558586
0.93461376428604 0.11493546515703 0.2151101231575
0.96929854154587 0.2259626686573 0.26347696781158
0.99058443307877 0.29700601100922 0.32564064860344
1.0133947134018 0.37517189979553 0.39312455058098
1.0316777229309 0.44505995512009 0.45849347114563
0 0.15991076827049 0.031146857887506
0.0015675553586334 0.15991473197937 0.0047022351063788
0.02827875316143 0.16001063585281 2.1184407160035e-05
0.074828572571278 0.15966966748238 0
0.11830499023199 0.15950205922127 0
0.15693157911301 0.1592877805233 1.442491452508e-06
0.19358712434769 0.15601545572281 0
0.22905468940735 0.15422260761261 0
0.26345559954643 0.15267530083656 0
0.2957883477211 0.15064060688019 0.00025526486570016
0.33224758505821 0.14867320656776 0.00095226522535086
0.36552000045776 0.14660182595253 0.00038062364910729
0.39699572324753 0.14517617225647 0.00020643236348405
0.43280118703842 0.14400562644005 2.4314354959643e-05
0.46697705984116 0.13823187351227 0
0.49928975105286 0.13293477892876 0
0.53163474798203 0.12842002511024 0
0.56637936830521 0.12199113518 0
0.60069227218628 0.11603353172541 0
0.63416421413422 0.11234273761511 0
0.6662665605545 0.11234452575445 0
0.69764786958694 0.11386490613222 0
0.725905418396 0.10577224940062 0.0015671763103455
0.75973933935165 0.078993774950504 0.0049928608350456
0.79655450582504 0.056623913347721 0.015903223305941
0.83648365736008 0.025325627997518 0.059404455125332
0.86896479129791 0.0018968697404489 0.12458740919828
0.90307778120041 0.019903805106878 0.17187854647636
0.93593162298203 0.11915431171656 0.21694713830948
0.97026568651199 0.2289145886898 0.26577174663544
0.99139362573624 0.29977658390999 0.32803177833557
1.0142494440079 0.37810358405113 0.39565497636795
1.0322949886322 0.44757223129272 0.46087539196014
0 0.19027850031853 0.040756784379482
0.00041027020779438 0.19033697247505 0.015232275240123
0.013627467676997 0.19041433930397 0.0012375876540318
0.060593135654926 0.19032621383667 0
0.11083305627108 0.18975737690926 0
0.14946064352989 0.18959167599678 0
0.18825796246529 0.18926161527634 1.0209531886574e-08
0.2258126437664 0.18632581830025 0
0.26129123568535 0.18454241752625 0
0.29411914944649 0.18310844898224 0
0.32951566576958 0.18215292692184 2.7456333100417e-06
0.36353328824043 0.18023684620857 0.00085136771667749
0.39604038000107 0.17736446857452 0.001308154896833
0.43156772851944 0.17468503117561 0.00050252815708518
0.46532863378525 0.17280486226082 0.00012125208013458
0.49771016836166 0.17159673571587 3.7742534004792e-06
0.53081172704697 0.16711601614952 0
0.5650669336319 0.16075271368027 0
0.59897321462631 0.15453439950943 0
0.63297337293625 0.14864304661751 0
0.66663748025894 0.14210566878319 0
0.69803375005722 0.14265713095665 0
0.72972929477692 0.14368122816086 0
0.76193577051163 0.14601004123688 0.00057242624461651
0.79723435640335 0.13166356086731 0.0035037160851061
0.8379744887352 0.084030888974667 0.036656450480223
0.87698352336884 0.032304029911757 0.093868531286716
0.90479493141174 0.023277036845684 0.17353144288063
0.937524497509 0.12425189465284 0.21916738152504
0.97122937440872 0.23175859451294 0.26870128512383
0.99240642786026 0.30324575304985 0.33102607727051
1.0153292417526 0.38180804252625 0.3988524377346
1.0330446958542 0.45062202215195 0.46376764774323
0 0.22311180830002 0.054888539016247
5.9291407524142e-05 0.22337558865547 0.028733728453517
0.003761833999306 0.22348347306252 0.0069407899864018
0.045404680073261 0.22363501787186 0.00018208315304946
0.094789497554302 0.22339907288551 0
0.14204847812653 0.22302782535553 0
0.17923337221146 0.22293028235435 0
0.22006267309189 0.22246089577675 0
0.2566574215889 0.21900969743729 0
0.29120993614197 0.21669653058052 0
0.32780647277832 0.2152316570282 0
0.36061891913414 0.21366930007935 0
0.39358401298523 0.21188858151436 0.00021826554439031
0.42970901727676 0.21000292897224 0.0019196348730475
0.46309643983841 0.20728507637978 0.00081876822514459
0.49518173933029 0.20533654093742 0.00026181252906099
0.52890992164612 0.20299461483955 3.9610393287148e-05
0.56323796510696 0.20127046108246 0
0.59626835584641 0.19902816414833 0
0.63016539812088 0.19216039776802 0
0.66353642940521 0.18568885326385 0
0.69697457551956 0.17830666899681 0
0.72928786277771 0.17729851603508 9.8342323326506e-05
0.76114809513092 0.18060520291328 0.0014813912566751
0.7965869307518 0.17358160018921 0.0015783277340233
0.83806490898132 0.14851027727127 0.017719019204378
0.88229560852051 0.10336396843195 0.069687396287918
0.90664011240005 0.033357188105583 0.17076280713081
0.93947529792786 0.13049924373627 0.22184723615646
0.97239273786545 0.23519393801689 0.27223953604698
0.99359148740768 0.30730077624321 0.33452689647675
1.0166047811508 0.38618394732475 0.40262880921364
1.0339552164078 0.45432698726654 0.4672811627388
0 0.25314083695412 0.064614571630955
0 0.25334876775742 0.048370204865932
0.0018396733794361 0.25357946753502 0.01634425483644
0.023485472425818 0.25372317433357 0.0024928750935942
0.080272920429707 0.25384217500687 0
0.13086068630219 0.25320902466774 0
0.17271375656128 0.25294452905655 0
0.21205872297287 0.25260385870934 0
0.25128230452538 0.25208300352097 0
0.28813219070435 0.24902382493019 0
0.324661642313 0.24684914946556 0
0.359055519104 0.24542751908302 0
0.39190742373466 0.24386695027351 0
0.42668172717094 0.24302300810814 7.6607300059095e-08
0.46079432964325 0.24105715751648 0.0006219347123988
0.4934309720993 0.23851439356804 0.0017193034291267
0.52735614776611 0.23502206802368 0.00064702430972829
0.56179028749466 0.23183342814445 5.0167916924693e-05
0.59581255912781 0.22962433099747 0
0.62953275442123 0.22842738032341 0
0.66117054224014 0.22814697027206 0
0.69436424970627 0.22172266244888 4.1562998376321e-06
0.72782373428345 0.21695572137833 0.0008861850365065
0.76031196117401 0.21690252423286 0.0024999561719596
0.79601591825485 0.20935273170471 0.0027877525426447
0.83782267570496 0.19097843766212 0.011145777069032
0.88179820775986 0.15921676158905 0.051201373338699
0.91475039720535 0.1478479206562 0.13381111621857
0.94192266464233 0.1391176879406 0.2202615737915
0.97376519441605 0.23924607038498 0.27641355991364
0.99501568078995 0.3121737241745 0.33873435854912
1.0180979967117 0.39130720496178 0.40705102682114
1.035006403923 0.45860439538956 0.47133773565292
0 0.28559654951096 0.080248557031155
0 0.28601366281509 0.061981745064259
0.00052300345851108 0.28629887104034 0.034572158008814
0.0095488540828228 0.28659981489182 0.0093807596713305
0.057935483753681 0.28677976131439 0.00076495256507769
0.11691498011351 0.28666538000107 0
0.16344064474106 0.28619396686554 0
0.20552587509155 0.28600206971169 0
0.24182108044624 0.28575837612152 0
0.28237882256508 0.28520715236664 0
0.3202608525753 0.28161135315895 0
0.35417792201042 0.27885019779205 0
0.38973170518875 0.27690500020981 0
0.42493766546249 0.27522674202919 0
0.45811069011688 0.27387464046478 0
0.49053144454956 0.27236765623093 0.0001161307664006
0.52498614788055 0.26976889371872 0.0019900656770915
0.55919462442398 0.26608440279961 0.00063262606272474
0.59339082241058 0.26276701688766 1.4995977835497e-05
0.62741535902023 0.26082643866539 0
0.66093152761459 0.25840127468109 0
0.69347459077835 0.25753119587898 0.00015705259284005
0.72641092538834 0.25686001777649 0.00088852504268289
0.75927489995956 0.25515875220299 0.0011908548185602
0.79584234952927 0.24497166275978 0.0020097077358514
0.83735209703445 0.2283351123333 0.012194867245853
0.88200634717941 0.20616888999939 0.037238262593746
0.91311246156693 0.19896522164345 0.12378422170877
0.94632691144943 0.19924446940422 0.20619115233421
0.97536808252335 0.24414101243019 0.28025212883949
0.99664837121964 0.31776112318039 0.34355947375298
1.0194429159164 0.39614617824554 0.41182684898376
1.0362375974655 0.4636167883873 0.47608786821365
0 0.31670022010803 0.088553808629513
0 0.31702280044556 0.074449948966503
7.196899241535e-05 0.31733968853951 0.055286385118961
0.0035598964896053 0.31764799356461 0.020685212686658
0.036911461502314 0.31788232922554 0.0043369443155825
0.10127095133066 0.31812611222267 1.6785845673439e-06
0.14729282259941 0.31774368882179 0
0.19707921147346 0.31716784834862 0
0.23468351364136 0.31696420907974 0
0.27341914176941 0.31655976176262 0
0.31460848450661 0.31592074036598 0
0.34962463378906 0.3126919567585 0
0.38559165596962 0.31020495295525 0
0.42215943336487 0.3081619143486 0
0.45638388395309 0.30652779340744 0
0.4881164431572 0.30510598421097 0
0.52205473184586 0.30343243479729 0
0.55612015724182 0.30108049511909 0.00032782964990474
0.59039735794067 0.29804760217667 0.00038922848762013
0.62485879659653 0.29471266269684 0
0.65842890739441 0.29205039143562 8.5859617684036e-05
0.69286704063416 0.28918606042862 0.00074619619408622
0.72666293382645 0.28764048218727 0.0019902815110981
0.75917166471481 0.28772738575935 0.0015622773207724
0.79551696777344 0.28083476424217 0.00020677133579738
0.83670222759247 0.26502376794815 0.0025963773950934
0.88052093982697 0.24571397900581 0.016989892348647
0.91189521551132 0.24838763475418 0.11383309215307
0.94464385509491 0.24444353580475 0.20541420578957
0.97717159986496 0.24957197904587 0.28507310152054
0.99849182367325 0.3240664601326 0.34900531172752
1.020783662796 0.40110474824905 0.41705319285393
1.0376433134079 0.46934080123901 0.48150664567947
0 0.34650564193726 0.102325104177
0 0.34682527184486 0.090317659080029
0 0.34719985723495 0.077475927770138
0.0020918797235936 0.34769916534424 0.038347918540239
0.020459141582251 0.34812480211258 0.010788393206894
0.073201410472393 0.34842085838318 0.0013958845520392
0.13417544960976 0.34841433167458 0
0.18470051884651 0.34790676832199 0
0.22667968273163 0.34760972857475 0
0.26683157682419 0.34730935096741 0
0.30575317144394 0.34695079922676 0
0.34352815151215 0.34650641679764 0
0.38245844841003 0.34274852275848 0
0.4186597764492 0.33957633376122 0
0.45350962877274 0.33717849850655 0
0.48712748289108 0.33559867739677 0
0.52098000049591 0.33337050676346 0
0.55437427759171 0.33170485496521 0
0.5880007147789 0.33060160279274 0
0.62270253896713 0.32833927869797 0.00028400565497577
0.65681475400925 0.32477626204491 0.00073148717638105
0.69109296798706 0.32209104299545 0.0020859504584223
0.72632020711899 0.31920650601387 0.0039064614102244
0.75978064537048 0.31835305690765 0.0023481433745474
0.79625958204269 0.3126999437809 0.00055563764180988
0.83687102794647 0.30168455839157 0.0001884290977614
0.87752997875214 0.28817880153656 0.0086180977523327
0.91001355648041 0.2847361266613 0.10140006989241
0.94318825006485 0.29063951969147 0.20041865110397
0.97472280263901 0.29784733057022 0.28172391653061
1.0006331205368 0.33121964335442 0.35434758663177
1.0222845077515 0.40665602684021 0.42290264368057
1.03921687603 0.4757479429245 0.48757368326187
0 0.37893253564835 0.11657454818487
0 0.37934172153473 0.10395928472281
0 0.37980660796165 0.090234823524952
0.00060066621517763 0.38030955195427 0.060930900275707
0.0075956392101943 0.38080179691315 0.023941703140736
0.046935766935349 0.38107547163963 0.0072250035591424
0.11654246598482 0.38127735257149 0.00015340244863182
0.16939857602119 0.3809697329998 0
0.21629309654236 0.38051298260689 0
0.2593902349472 0.38014134764671 0
0.29757884144783 0.37987011671066 0
0.33334451913834 0.37963363528252 0
0.37620165944099 0.37874439358711 0
0.41355097293854 0.375528216362 0
0.44786292314529 0.37277102470398 0
0.48207378387451 0.37030139565468 0
0.51793378591537 0.36742320656776 0
0.55153077840805 0.3652078807354 0
0.58528780937195 0.36363208293915 7.5311632826924e-05
0.61959594488144 0.36216148734093 0.00030482982401736
0.65419691801071 0.35894632339478 0
0.68814378976822 0.3568654358387 8.1432379374746e-05
0.72331577539444 0.35429993271828 0.00055309419985861
0.75838941335678 0.35122564435005 0.001200764789246
0.79575902223587 0.34467560052872 0.0011400080984458
0.83645975589752 0.33544892072678 0.00049948232481256
0.87504082918167 0.32712084054947 0.0079984087496996
0.90722173452377 0.32885694503784 0.083499006927013
0.94238471984863 0.32299837470055 0.2036597430706
0.97270411252975 0.33391016721725 0.28359195590019
1.0020895004272 0.34762895107269 0.35718593001366
1.0239772796631 0.41300511360168 0.42896583676338
1.0409655570984 0.48286074399948 0.49431657791138
0 0.40980300307274 0.12429159134626
0 0.41018283367157 0.11283081024885
0 0.41056048870087 0.1015086248517
3.9727456169203e-05 0.41105759143829 0.082512713968754
0.0030683572404087 0.4115606546402 0.045290172100067
0.029046269133687 0.41188579797745 0.016274932771921
0.092358954250813 0.41217860579491 0.0026190942153335
0.1545712351799 0.41236329078674 0
0.19976070523262 0.41190585494041 0
0.25174006819725 0.41120687127113 0
0.29074966907501 0.41096666455269 0
0.32564520835876 0.41077157855034 0
0.36716261506081 0.41006052494049 0
0.40830194950104 0.40921556949615 0
0.44320270419121 0.40669375658035 0
0.47755396366119 0.40370965003967 0
0.5131784081459 0.40056955814362 0
0.54878562688828 0.39814659953117 0.00013686333841179
0.58315455913544 0.39636173844337 0.00073124933987856
0.61727678775787 0.39427644014359 0.00087909633293748
0.65187102556229 0.39085364341736 2.8052601919626e-05
0.68720424175262 0.38853833079338 0
0.72160494327545 0.38766118884087 0
0.75578051805496 0.38585492968559 0
0.79419827461243 0.37817704677582 0.00050271162763238
0.83560252189636 0.36858570575714 0.0010434228461236
0.87111854553223 0.36569046974182 0.021716564893723
0.90515291690826 0.36159491539001 0.10682051628828
0.93980628252029 0.36322230100632 0.20276635885239
0.97077912092209 0.37134727835655 0.28468680381775
1.0002306699753 0.38445380330086 0.36077618598938
1.025777220726 0.42053088545799 0.43563517928123
1.0429121255875 0.4907802939415 0.50182312726974
0 0.43908694386482 0.13650992512703
0 0.43940028548241 0.1274573802948
0 0.4397569000721 0.11758033186197
0 0.44027003645897 0.104152970016
0.0015771348262206 0.44093218445778 0.068002328276634
0.016433054581285 0.441585034132 0.027599219232798
0.067467458546162 0.44187399744987 0.0088507756590843
0.12946113944054 0.4422453045845 0.00064753519836813
0.1872074007988 0.44203722476959 0
0.23857906460762 0.44138437509537 0
0.28264001011848 0.44103619456291 0
0.32031244039536 0.44086402654648 0
0.36015778779984 0.44028347730637 0
0.39953500032425 0.43973889946938 0
0.43851542472839 0.43905317783356 0
0.47363066673279 0.4362781047821 4.4587682879182e-08
0.5093857049942 0.43267974257469 0.00023711516405456
0.54504668712616 0.43001163005829 0.0010490376735106
0.58083057403564 0.42821434140205 0.0023202071897686
0.61566132307053 0.42568898200989 0.0017520040273666
0.65013694763184 0.4222519993782 0.00020745997608174
0.68554979562759 0.41960313916206 0
0.72188210487366 0.41806495189667 0
0.75583004951477 0.41664895415306 0
0.79300266504288 0.41179904341698 0
0.83273309469223 0.40465438365936 0.0035170875489712
0.86779856681824 0.40267032384872 0.046932689845562
0.90194237232208 0.40070381760597 0.13212504982948
0.93789601325989 0.3982589840889 0.22769600152969
0.96833354234695 0.40399116277695 0.28997012972832
0.99820297956467 0.4205473959446 0.36477363109589
1.0262268781662 0.4378787279129 0.4389300942421
1.045074224472 0.49954277276993 0.51005572080612
0 0.4702775478363 0.15112388134003
0 0.47058010101318 0.14298582077026
0 0.47095626592636 0.13305112719536
0 0.47159224748611 0.116683550179
0.00016821798635647 0.4723636507988 0.090019501745701
0.0053741368465126 0.47311818599701 0.047532416880131
0.036794703453779 0.47348344326019 0.020665423944592
0.093537248671055 0.47381621599197 0.0055362023413181
0.17051747441292 0.47383010387421 4.2904048314085e-05
0.22280260920525 0.47334533929825 0
0.27181941270828 0.47282135486603 0
0.31113487482071 0.47254586219788 0
0.35269132256508 0.47190636396408 0
0.39031076431274 0.47151666879654 0
0.42761182785034 0.47118067741394 0
0.46874386072159 0.46984356641769 0
0.50422406196594 0.46742951869965 0
0.53899925947189 0.46517080068588 3.3488486224087e-05
0.57485747337341 0.46333140134811 0.00036710000131279
0.61079925298691 0.45950216054916 0.0010879699839279
