Assets/Data/Textures/70 CGC LUTs/agx luts/Base Rec.2020.cube
LUT_3D_SIZE 33
9.7474145996455e-15 0 2.1087148140923e-13
0.004380373749882 1.965281626326e-05 8.1308018707205e-05
0.022447651252151 1.019430692395e-05 0.001005946425721
0.057234682142735 0 0.0033590402454138
0.094437889754772 0 0.0067366776056588
0.13145634531975 0 0.011350048705935
0.16776621341705 0 0.01792674139142
0.20521473884583 0 0.026290552690625
0.24284508824348 0 0.035198975354433
0.27881854772568 0 0.047005899250507
0.31657165288925 0 0.056872546672821
0.35289588570595 0 0.069237112998962
0.38810142874718 0 0.079877845942974
0.42621105909348 0 0.08948927372694
0.46166026592255 0 0.10210777074099
0.49651199579239 0 0.11324252933264
0.53460371494293 0 0.11974246054888
0.57243835926056 0 0.12734347581863
0.61053848266602 0 0.13556900620461
0.65116441249847 0 0.13650441169739
0.69355672597885 0 0.13452783226967
0.73825514316559 0 0.12914824485779
0.78744465112686 0.00079232454299927 0.12309785932302
0.83906525373459 0.00081189686898142 0.12964627146721
0.88930982351303 0.0032753588166088 0.14980509877205
0.92712008953094 0.090946637094021 0.20466011762619
0.96783035993576 0.22126254439354 0.26142925024033
0.99374502897263 0.30782622098923 0.33498042821884
1.0204612016678 0.3999125957489 0.41579651832581
1.040754199028 0.48200088739395 0.49350166320801
1.0594497919083 0.56457591056824 0.57304072380066
1.075541973114 0.64612942934036 0.65290886163712
1.088868021965 0.7249384522438 0.73028045892715
0 0.0036757439374924 0.0009904372273013
0.0034076215233654 0.0032520275563002 1.5136324691412e-05
0.024211073294282 0.001794251264073 1.4909704987076e-05
0.060602374374866 0.00064481928711757 0.00041328114457428
0.097466535866261 1.9226354197599e-05 0.0037716818042099
0.13393405079842 0 0.0089664878323674
0.17013418674469 0 0.01410595420748
0.20671761035919 0 0.022378031164408
0.2439096570015 0 0.032499577850103
0.27960455417633 0 0.045256242156029
0.31720677018166 0 0.055450454354286
0.35357674956322 0 0.067773252725601
0.38867190480232 0 0.078648887574673
0.42669525742531 0 0.088484667241573
0.46214520931244 0 0.10110142081976
0.49714726209641 0 0.11191415041685
0.53487986326218 0 0.11918752640486
0.57243835926056 0 0.12739706039429
0.61054146289825 0 0.13561227917671
0.65117055177689 0 0.13653746247292
0.69356542825699 0 0.13455495238304
0.73826259374619 0 0.12918400764465
0.78746050596237 0.00079231191193685 0.12310140579939
0.83908319473267 0.00081189686898142 0.12964862585068
0.88932061195374 0.0032819795887917 0.14983355998993
0.92713451385498 0.090992338955402 0.20467984676361
0.96784538030624 0.22131291031837 0.26145121455193
0.99375468492508 0.3078593313694 0.33500897884369
1.0204685926437 0.39993965625763 0.41582509875298
1.0407621860504 0.48203337192535 0.49353235960007
1.0594555139542 0.56460493803024 0.57306897640228
1.0755466222763 0.64615654945374 0.65293437242508
1.0888713598251 0.72496366500854 0.73030412197113
0 0.019308347254992 0.0054770419374108
7.5127463787794e-05 0.018412875011563 0.0013829101808369
0.018101137131453 0.017087418586016 0
0.058120533823967 0.014025976881385 0
0.10004448145628 0.0098014986142516 0.00020523044804577
0.14098420739174 0.0046827928163111 2.5754136004252e-05
0.1765761077404 0.0013046048115939 0.0024205495137721
0.21310579776764 5.2443941967795e-05 0.012184587307274
0.24997627735138 0 0.021014232188463
0.28482276201248 0 0.031907632946968
0.32186514139175 0 0.041813284158707
0.35722529888153 0 0.056611105799675
0.39144831895828 0 0.070705868303776
0.42903104424477 0 0.082743607461452
0.46420162916183 0 0.096918128430843
0.49904537200928 0 0.10802214592695
0.53607499599457 0 0.11678098887205
0.57273423671722 0 0.1269865334034
0.61055320501328 0 0.1357823908329
0.65119457244873 0 0.13666757941246
0.69359958171844 0 0.13466119766235
0.73829120397568 0 0.12932404875755
0.7875183224678 0.00079233711585402 0.12311445921659
0.83915150165558 0.00081192160723731 0.12965700030327
0.88936275243759 0.0033080438151956 0.14994445443153
0.92718976736069 0.091170273721218 0.20475754141808
0.96790760755539 0.22151100635529 0.26153734326363
0.99379330873489 0.30799153447151 0.33512318134308
1.0204977989197 0.40004730224609 0.41593837738037
1.0407934188843 0.48216092586517 0.49365305900574
1.0594788789749 0.56472027301788 0.57318079471588
1.0755645036697 0.64626270532608 0.65303421020508
1.0888867378235 0.72506213188171 0.73039817810059
0 0.049766756594181 0.014261657372117
0 0.04916337877512 0.011096373200417
0.0049235345795751 0.047234714031219 0
0.047122083604336 0.045149728655815 2.6370174964541e-05
0.093462117016315 0.039429433643818 6.2667049860465e-06
0.13641610741615 0.033553633838892 0.00011147828627145
0.17747130990028 0.024243647232652 4.1061419324251e-05
0.21977332234383 0.013842945918441 0
0.25740340352058 0.0069810771383345 0.0010009735124186
0.29210242629051 0.0024514780379832 0.0086864251643419
0.32896795868874 0.00054242345504463 0.022065738216043
0.3656978905201 0 0.040393866598606
0.39950260519981 0 0.053058087825775
0.43623173236847 0 0.064557120203972
0.47030866146088 0 0.079107753932476
0.50387632846832 0 0.093732543289661
0.53998667001724 0 0.10662708431482
0.57520931959152 0 0.12232125550508
0.61127609014511 0 0.13453987240791
0.65124261379242 0 0.13692528009415
0.693667948246 0 0.13487163186073
0.73834830522537 0 0.12960091233253
0.78763496875763 0.00079236226156354 0.12314067035913
0.83928698301315 0.00081198709085584 0.12967339158058
0.88944602012634 0.0033599040471017 0.15016415715218
0.92730104923248 0.091524817049503 0.20491194725037
0.96803063154221 0.22190442681313 0.26170885562897
0.99387007951736 0.30825486779213 0.33535051345825
1.0205553770065 0.40026092529297 0.41616332530975
1.0408554077148 0.48241382837296 0.49389296770096
1.0595254898071 0.56494987010956 0.57340317964554
1.0756006240845 0.64647406339645 0.65323346853256
1.0889168977737 0.72525894641876 0.73058539628983
0 0.084597028791904 0.028514435514808
0 0.084122143685818 0.025390572845936
0 0.082676433026791 0.010433631017804
0.023601228371263 0.08110748976469 0
0.081648848950863 0.078975237905979 8.5177580331219e-06
0.12848863005638 0.073192067444324 0
0.17168626189232 0.066944353282452 0.00037984401569702
0.21407440304756 0.059881791472435 4.064197128173e-05
0.25699776411057 0.044698625802994 0
0.29764890670776 0.030798738822341 0
0.33806180953979 0.021518768742681 3.0573304684367e-05
0.37301978468895 0.011128158308566 0.0041209296323359
0.40666672587395 0.0054242587648332 0.015900583937764
0.44362226128578 0.0016141075175256 0.03694649040699
0.48038566112518 1.5678820091125e-06 0.060704275965691
0.51385015249252 0 0.07369414716959
0.54928284883499 0 0.081716172397137
0.58331489562988 0 0.096824459731579
0.6169273853302 0 0.12072239071131
0.65233069658279 0 0.13414859771729
0.69377660751343 0 0.13520094752312
0.73844003677368 0 0.13003358244896
0.78781920671463 0.00079243717482314 0.12318178266287
0.83950090408325 0.00081206171307713 0.12969964742661
0.88957619667053 0.0034419475123286 0.15050873160362
0.92747497558594 0.092084087431431 0.20515558123589
0.96822530031204 0.22252836823463 0.26198065280914
0.99399167299271 0.30867078900337 0.33570954203606
1.0206469297409 0.40059927105904 0.41652032732964
1.0409543514252 0.48281526565552 0.49427342414856
1.0595985651016 0.56531286239624 0.573754966259
1.075657248497 0.64680844545364 0.65354830026627
1.0889642238617 0.72557079792023 0.73088198900223
0 0.11903441697359 0.04778129607439
0 0.11880201846361 0.04513993114233
0 0.11773438006639 0.032628450542688
0.00069835811154917 0.11633812636137 0.0025865610223264
0.059464626014233 0.11474502831697 0
0.11600629240274 0.1125488653779 0
0.16269907355309 0.10608916729689 0
0.20692333579063 0.10073994845152 3.0496361432597e-05
0.25069311261177 0.093105472624302 0.00020004461111967
0.29170936346054 0.086797036230564 1.3031285561738e-05
0.33477222919464 0.070318378508091 0
0.37638333439827 0.054554469883442 0
0.41546487808228 0.042394898831844 0
0.45292186737061 0.028145311400294 0.0014023691182956
0.48698312044144 0.015579679980874 0.011288458481431
0.52011555433273 0.0078437281772494 0.031961694359779
0.55698955059052 0.0020407913252711 0.053299508988857
0.59469455480576 0 0.076431907713413
0.62782996892929 0 0.090895019471645
0.66109472513199 0 0.10896942764521
0.69503879547119 0 0.1313870549202
0.73857116699219 0 0.13062953948975
0.78807866573334 0.00079253769945353 0.12323989719152
0.83980232477188 0.00081219000276178 0.12973612546921
0.88975918292999 0.0035596564412117 0.15099391341209
0.92772030830383 0.09286779910326 0.20549714565277
0.96849936246872 0.22340404987335 0.26236242055893
0.99416381120682 0.30925866961479 0.33621734380722
1.0207765102386 0.40107750892639 0.41702398657799
1.0410938262939 0.48338258266449 0.49481129646301
1.0597023963928 0.56582689285278 0.57425332069397
1.0757377147675 0.64728134870529 0.65399420261383
1.0890315771103 0.72601181268692 0.73130172491074
0 0.15283894538879 0.067602388560772
0 0.15267887711525 0.065552957355976
0 0.1519835293293 0.056963518261909
0 0.15085527300835 0.027730273082852
0.017026364803314 0.14980155229568 0.0003788220055867
0.093913801014423 0.14793133735657 0
0.14987450838089 0.14551210403442 0
0.19798672199249 0.1386284828186 0
0.24241828918457 0.13433560729027 0
0.2851180434227 0.1287142932415 0.00047352077672258
0.32834330201149 0.12085878103971 0.00012767192674801
0.37020447850227 0.11438163369894 4.1401108319405e-06
0.41013073921204 0.098515756428242 0
0.45372319221497 0.081680960953236 0
0.49467468261719 0.066590383648872 0
0.53106892108917 0.055607326328754 0.00012831257481594
0.56518167257309 0.038598731160164 0.0057008932344615
0.59923928976059 0.020032569766045 0.027083273977041
0.63640451431274 0.0044249929487705 0.055891662836075
0.6752672791481 0 0.070017896592617
0.70808809995651 0 0.084288708865643
0.73984295129776 0 0.12715756893158
0.78841978311539 0.00079266296233982 0.12331631034613
0.84019815921783 0.00081230327486992 0.12978467345238
0.89000099897385 0.0037181084044278 0.1516321003437
0.92804205417633 0.093898199498653 0.20594581961632
0.96885794401169 0.22455179691315 0.26286241412163
0.99438935518265 0.31003108620644 0.33688414096832
1.0209465026855 0.40170726180077 0.41768795251846
1.0412776470184 0.48413056135178 0.49552023410797
1.0598391294479 0.56650400161743 0.57490986585617
1.0758439302444 0.6479058265686 0.65458232164383
1.0891202688217 0.72659415006638 0.73185551166534
0 0.18667614459991 0.08799759298563
0 0.18656793236732 0.086442269384861
0 0.18609142303467 0.079363130033016
0 0.18522238731384 0.062127284705639
1.6250432963716e-06 0.18446749448776 0.016749346628785
0.060817278921604 0.18338787555695 0
0.12842035293579 0.18146932125092 0
0.18502753973007 0.1791587471962 0
0.23216739296913 0.17324617505074 0
0.27664306759834 0.16813179850578 0
0.3207420706749 0.1630155146122 0.00013729228521697
0.36354327201843 0.15572166442871 0.00030844571301714
0.4040462076664 0.14834672212601 7.297721458599e-05
0.44785976409912 0.13941687345505 0
0.48886626958847 0.12302152067423 0
0.52862149477005 0.10812406986952 0
0.57071655988693 0.092820264399052 0
0.61047470569611 0.0834084674716 7.7542470222625e-09
0.64409822225571 0.059694901108742 0.0051905168220401
0.67699491977692 0.031950034201145 0.026382399722934
0.71924591064453 0.0022587298881263 0.038497388362885
0.75626581907272 0 0.060643710196018
0.78987801074982 0.0007380002643913 0.11775247007608
0.84069436788559 0.00081248045898974 0.12984526157379
0.89030385017395 0.0039224424399436 0.15243250131607
0.92844557762146 0.095190070569515 0.20650911331177
0.9693084359169 0.22599229216576 0.26348993182182
0.9946716427803 0.31099662184715 0.33771786093712
1.0211604833603 0.40249842405319 0.41852122545242
1.0415091514587 0.48507273197174 0.49641340970993
1.0600117444992 0.56735754013062 0.57573735713959
1.0759779214859 0.64869332313538 0.65532428026199
1.0892320871353 0.72732889652252 0.73255461454391
0 0.22135636210442 0.10809103399515
0 0.2213009595871 0.10682009905577
0 0.22102588415146 0.1014081761241
0 0.22035589814186 0.088317640125751
0 0.21967697143555 0.054702594876289
0.0071209650486708 0.21912145614624 0.0063912817277014
0.1020794287324 0.2176351249218 0
0.16391780972481 0.21569418907166 0
0.21942082047462 0.21328023076057 0
0.26586598157883 0.20611062645912 0
0.3125102519989 0.20050457119942 0
0.35546547174454 0.19556900858879 0
0.39768448472023 0.18811669945717 0.00097838265355676
0.44171330332756 0.18012937903404 0.00020016974303871
0.48305636644363 0.17318278551102 2.6756454190036e-06
0.52261447906494 0.16447648406029 0
0.56556737422943 0.14699584245682 0
0.60775047540665 0.13008445501328 0
0.64901781082153 0.11598595231771 0
0.68679463863373 0.10950227826834 0
0.71798360347748 0.084282703697681 0.0075441016815603
0.76201069355011 0.021839698776603 0.015004009008408
0.8043829202652 0.0010796911083162 0.056417502462864
0.84208315610886 0.0007702429429628 0.12549233436584
0.89067023992538 0.0041783950291574 0.15340146422386
0.92893522977829 0.096758224070072 0.20719239115715
0.96978539228439 0.22749522328377 0.26430949568748
0.99501401185989 0.31216964125633 0.33873084187508
1.0214191675186 0.40345510840416 0.41952949762344
1.0417902469635 0.48621660470963 0.49749767780304
1.060222029686 0.56839859485626 0.57674646377563
1.0761411190033 0.64965361356735 0.65622872114182
1.0893689393997 0.72822552919388 0.73340737819672
0 0.25380644202232 0.12778201699257
0 0.25377514958382 0.12673905491829
0 0.25357070565224 0.1221429631114
0 0.2530831694603 0.11213407665491
0 0.25254234671593 0.092219240963459
0 0.25233569741249 0.038696732372046
0.048121228814125 0.25165289640427 0.0010999134974554
0.13904932141304 0.24994140863419 0
0.19687616825104 0.24806091189384 0
0.2533398270607 0.24573168158531 0
0.30033111572266 0.23968049883842 0
0.34727013111115 0.23466646671295 0
0.38850206136703 0.22958409786224 0
0.43357029557228 0.22412747144699 0.00038099792436697
0.47559422254562 0.21641793847084 0.00033270969288424
0.51645988225937 0.20842975378036 2.4572651454946e-05
0.5594088435173 0.20082211494446 0
0.60058271884918 0.18966209888458 0
0.6429957151413 0.17224922776222 0
0.68444085121155 0.15375372767448 0
0.72302532196045 0.14673674106598 0
0.76208263635635 0.12825065851212 0.00067904160823673
0.80540627241135 0.082566447556019 0.014405646361411
0.85076802968979 0.0077969548292458 0.085676647722721
0.89150542020798 0.0044343573972583 0.15228319168091
0.92951339483261 0.09860997647047 0.20799961686134
0.97015696763992 0.22859358787537 0.26544120907784
0.99542015790939 0.31355902552605 0.33993047475815
1.0217257738113 0.40458959341049 0.42072483897209
1.0421223640442 0.48756754398346 0.49877798557281
1.0604711771011 0.56963187456131 0.57794201374054
1.0763356685638 0.65079647302628 0.65730547904968
1.08953166008 0.72929322719574 0.73442322015762
0 0.28860446810722 0.14754012227058
0 0.2885776758194 0.14669814705849
0 0.28844660520554 0.14278638362885
0 0.28813061118126 0.13444471359253
0 0.28772741556168 0.11855324357748
0 0.28752613067627 0.082196973264217
0.002274016616866 0.28749257326126 0.020955082029104
0.10035467892885 0.28666287660599 1.323260562458e-06
0.1713057756424 0.28469061851501 0
0.23213049769402 0.28250101208687 0
0.2876216173172 0.28003990650177 0
0.33471015095711 0.27273780107498 0
0.37986356019974 0.26671272516251 0
0.42538520693779 0.26096627116203 0
0.4675680398941 0.2561000585556 6.3372240219906e-06
0.5096749663353 0.24877628684044 0.00082666665548459
0.55320751667023 0.23970094323158 2.4305871193064e-05
0.59554809331894 0.23228168487549 0
0.63683134317398 0.22608521580696 0
0.67691212892532 0.21400648355484 0
0.71887302398682 0.19645503163338 5.7236709835706e-05
0.75838696956635 0.19058644771576 0.0016133522149175
0.80237382650375 0.17094197869301 0.0021544874180108
0.8535789847374 0.12252178043127 0.035535149276257
0.89249294996262 0.0068757957778871 0.14765974879265
0.93018293380737 0.10075183957815 0.20893463492393
0.9705885052681 0.2298663854599 0.26675248146057
0.99589151144028 0.31517243385315 0.34132385253906
1.0220822095871 0.40590858459473 0.42211475968361
1.0425091981888 0.48914033174515 0.50026875734329
1.0607600212097 0.57106137275696 0.57932782173157
1.0765616893768 0.65212589502335 0.65855801105499
1.0897217988968 0.73054164648056 0.73561191558838
0 0.32141387462616 0.16767629981041
0 0.32139846682549 0.16685017943382
0 0.32132112979889 0.16354522109032
0 0.32115519046783 0.15649235248566
0 0.32087928056717 0.14386376738548
0 0.32068032026291 0.12199384719133
0 0.32093596458435 0.066042080521584
0.028286231681705 0.32061302661896 0.009436204098165
0.13968831300735 0.31951734423637 0
0.20899829268456 0.31758680939674 0
0.26480475068092 0.3154990375042 0
0.32209295034409 0.31304329633713 0
0.3660404086113 0.30656692385674 0
0.41507458686829 0.30102863907814 0
0.45902234315872 0.29561129212379 0
0.50049293041229 0.29053217172623 0
0.5444096326828 0.28372997045517 0.00065657758386806
0.58774673938751 0.27424541115761 1.1802499102487e-06
0.6304926276207 0.26680371165276 0
0.67214715480804 0.25837126374245 0
0.71233695745468 0.25217604637146 0.00024470433709212
0.75436490774155 0.24034476280212 0.0028077007737011
0.79805415868759 0.22422769665718 0.003977719694376
0.84957057237625 0.19216257333755 0.016354706138372
0.8991727232933 0.13946077227592 0.095536686480045
0.93107461929321 0.10547149926424 0.20486450195313
0.97108334302902 0.23132732510567 0.26825737953186
0.99643403291702 0.31702733039856 0.34292566776276
1.0224931240082 0.40742710232735 0.42371490597725
1.0429545640945 0.49095320701599 0.50198698043823
1.0610933303833 0.57271152734756 0.5809274315834
1.0768215656281 0.65365362167358 0.65999776124954
1.0899412631989 0.73198312520981 0.73698079586029
0 0.35389199852943 0.18673604726791
0 0.35388371348381 0.18596568703651
0 0.35384219884872 0.1831947863102
0 0.35374391078949 0.17710739374161
0 0.35352775454521 0.16627475619316
0 0.35346785187721 0.14700654149055
0 0.35373619198799 0.10724682360888
0.00018779991660267 0.35420903563499 0.045464716851711
0.077419497072697 0.35358840227127 0.0027855969965458
0.18253526091576 0.35185396671295 0
0.24160680174828 0.35008060932159 0
0.30094516277313 0.34760200977325 0
0.35381612181664 0.34514713287354 0
0.40257349610329 0.337582051754 0
0.44930654764175 0.33210083842278 0
0.49260210990906 0.32704916596413 0
0.53609353303909 0.32141256332397 0
0.57896399497986 0.31633973121643 2.0764719010913e-06
0.62255918979645 0.30842927098274 0
0.66487789154053 0.30024912953377 8.2606988144107e-05
0.70853143930435 0.29137900471687 0.00089602795196697
0.75001591444016 0.28510123491287 0.0024973647668958
0.79327583312988 0.27332189679146 0.00018126075156033
0.84435886144638 0.24628314375877 0.007600350305438
0.89449846744537 0.21953392028809 0.066055580973625
0.93336921930313 0.19743892550468 0.17821273207664
0.97172576189041 0.23356309533119 0.2680646777153
0.99705189466476 0.31914210319519 0.34475222229958
1.0229623317719 0.40916213393211 0.42554259300232
1.0434647798538 0.4930294752121 0.50395476818085
1.0614756345749 0.57460361719131 0.58276146650314
1.0771200656891 0.65540897846222 0.66165119409561
1.0901921987534 0.73363226652145 0.73854613304138
0 0.38784259557724 0.20629099011421
0 0.38783639669418 0.2056448161602
0 0.3878293633461 0.20323663949966
0 0.38776814937592 0.1980417072773
0 0.38767382502556 0.18869152665138
0 0.38770136237144 0.17341727018356
0 0.38793221116066 0.15045496821404
0 0.38849529623985 0.094488956034184
0.012037290260196 0.38881132006645 0.028403118252754
0.13331437110901 0.3880874812603 0.00021149341773707
0.21506613492966 0.38624784350395 0
0.27943506836891 0.38419345021248 0
0.33211901783943 0.38198900222778 0
0.38945153355598 0.37932324409485 0
0.43495666980743 0.37272518873215 0
0.4806461930275 0.36640873551369 0
0.5269655585289 0.35953751206398 0
0.57044905424118 0.35364490747452 0
0.61419874429703 0.34841793775558 1.0751995432656e-05
0.65709656476974 0.34133490920067 4.8314672312699e-05
0.70092046260834 0.33312064409256 0.0012669017305598
0.74633878469467 0.32386612892151 0.0044341697357595
0.78941607475281 0.3145851790905 0.0006499522132799
0.83946615457535 0.2953419983387 0.00026178327971138
0.88773280382156 0.27465012669563 0.030003812164068
0.92801195383072 0.26835018396378 0.15814062952995
0.97136503458023 0.24549517035484 0.26589116454124
0.99774020910263 0.32149618864059 0.34678536653519
1.0234857797623 0.41109901666641 0.42758277058601
1.0440354347229 0.49535071849823 0.50615453720093
1.0619037151337 0.57672333717346 0.58481639623642
1.0774548053741 0.65737670660019 0.66352438926697
1.0904742479324 0.73548376560211 0.74030315876007
0 0.41979515552521 0.22592324018478
0 0.41979283094406 0.22537463903427
0 0.41980400681496 0.22309666872025
0 0.41979572176933 0.21832630038261
0 0.4198092520237 0.21037077903748
0 0.41987577080727 0.1978345811367
0 0.42008739709854 0.17719170451164
0 0.42070740461349 0.13670244812965
0 0.42174735665321 0.076602064073086
0.059448271989822 0.42134475708008 0.013663458637893
0.17990347743034 0.42054644227028 0
0.25246366858482 0.41851159930229 0
0.31169098615646 0.41664558649063 0
0.36815020442009 0.41408908367157 0
0.42313957214355 0.41165134310722 0
0.46652907133102 0.40585884451866 0
0.51439952850342 0.39866155385971 0
0.56065511703491 0.39261573553085 5.4751086508986e-07
0.60492306947708 0.38740739226341 0.00029736830038019
0.6491037607193 0.37991350889206 0
0.69272780418396 0.37425166368484 0
0.73678076267242 0.36826828122139 2.4696910259081e-05
0.78346240520477 0.35521814227104 0.0016433452256024
0.83372902870178 0.33954307436943 0.00057543010916561
0.88085007667542 0.32555010914803 0.015607140026987
0.92196768522263 0.31873050332069 0.13051670789719
0.96380811929703 0.31452164053917 0.25752493739128
0.99869483709335 0.32494592666626 0.34487327933311
1.0240461826324 0.41337761282921 0.42970025539398
1.0446671247482 0.49792122840881 0.50859045982361
1.062379360199 0.5790753364563 0.58709627389908
1.0778263807297 0.65955996513367 0.66566145420074
1.0907876491547 0.73754155635834 0.74227279424667
0 0.45163810253143 0.24475985765457
0 0.4516379237175 0.24426051974297
0 0.4516669511795 0.24202188849449
0 0.45171535015106 0.23777514696121
0 0.45177531242371 0.23083612322807
0 0.45186567306519 0.21951007843018
0 0.45221376419067 0.20141470432281
0 0.45275002717972 0.17739143967628
0 0.45381903648376 0.11899457126856
0.0043774447403848 0.45456552505493 0.054339744150639
0.10733138769865 0.45409667491913 0.0054239612072706
0.22106751799583 0.45261853933334 0
0.28586530685425 0.45079642534256 0
0.34581691026688 0.44857108592987 0
0.40281948447227 0.44587284326553 0
0.45474654436111 0.44361194968224 0
0.50126749277115 0.43635255098343 0
0.54870706796646 0.43001374602318 0.0002393259346718
0.59588408470154 0.4249264895916 0.0011803982779384
0.64038580656052 0.41740649938583 3.0266766771092e-05
0.68555277585983 0.41119062900543 0
0.73083263635635 0.40597885847092 0
0.77520453929901 0.39791324734688 0
0.82709646224976 0.38128712773323 0.0015004262095317
0.8720440864563 0.37266996502876 0.028788525611162
0.91485160589218 0.364566385746 0.13548281788826
0.9580060839653 0.3602334856987 0.25152283906937
0.99383467435837 0.36752465367317 0.3419409096241
1.0246820449829 0.41594785451889 0.43155828118324
1.0453604459763 0.50074154138565 0.51126319169998
1.0629020929337 0.58166366815567 0.58960539102554
1.0782361030579 0.66196858882904 0.66801911592484
1.0911313295364 0.7398174405098 0.74451178312302
0 0.48435324430466 0.26311254501343
0 0.48436194658279 0.2625914812088
0 0.48440170288086 0.26050049066544
0 0.48447477817535 0.25679066777229
0 0.48456460237503 0.25078275799751
0 0.48474997282028 0.24069812893867
0 0.4851211309433 0.22681418061256
0 0.48552519083023 0.20638459920883
0 0.48660087585449 0.16478171944618
0 0.48795163631439 0.10260846465826
0.027313573285937 0.48824739456177 0.036352939903736
0.15745252370834 0.48747372627258 0.0016275160014629
0.25926551222801 0.48570930957794 0
0.31867775321007 0.48390603065491 0
0.37981858849525 0.48141640424728 0
