Assets/Data/Textures/70 CGC LUTs/agx luts/Base Rec.2020.cube
LUT_3D_SIZE 5
9.7474145996455e-15 0 2.1087148140923e-13
0.24284508824348 0 0.035198975354433
0.53460371494293 0 0.11974246054888
0.88930982351303 0.0032753588166088 0.14980509877205
1.088868021965 0.7249384522438 0.73028045892715
0 0.22135636210442 0.10809103399515
0.21942082047462 0.21328023076057 0
0.56556737422943 0.14699584245682 0
0.89067023992538 0.0041783950291574 0.15340146422386
1.0893689393997 0.72822552919388 0.73340737819672
0 0.48435324430466 0.26311254501343
0 0.48660087585449 0.16478171944618
0.48829531669617 0.47600227594376 0
0.86343747377396 0.41707116365433 0.051669560372829
1.0915079116821 0.74231678247452 0.74696987867355
0 0.74241423606873 0.39228478074074
0 0.74412530660629 0.3916896879673
0.1435441672802 0.76025491952896 0.0044738091528416
0.75279295444489 0.73742085695267 0.15525022149086
1.0868715047836 0.79456251859665 0.7707582116127
0.42795717716217 1.0030320882797 0.63387376070023
0.44363358616829 1.0045456886292 0.63986206054688
0.4784095287323 1.0099573135376 0.66112071275711
0.65702456235886 1.0134265422821 0.70544457435608
1.002557516098 0.9970605969429 0.85164004564285
0 0.069287374615669 0.19654089212418
0.25865551829338 0.00032312591793016 0.21750310063362
0.5402130484581 0 0.22637090086937
0.88955670595169 0.0011016735807061 0.17346999049187
1.0889390707016 0.72540503740311 0.73072457313538
0 0.23014178872108 0.22277116775513
0.21023514866829 0.21023610234261 0.21023434400558
0.5737476348877 0.14648792147636 0.19936501979828
0.89108073711395 0.0017986227758229 0.19526270031929
1.0894483327866 0.72874677181244 0.73390334844589
0 0.48698228597641 0.31780600547791
0 0.4876161813736 0.25931477546692
0.48460292816162 0.47379869222641 0.13933071494102
0.8635920882225 0.4170877635479 0.090014211833477
1.091592669487 0.74287742376328 0.74752151966095
0 0.74276649951935 0.41825622320175
0 0.74456065893173 0.42020353674889
0.09417911618948 0.76252675056458 0.0010364955523983
0.75333774089813 0.73694610595703 0.15477216243744
1.0879410505295 0.79273855686188 0.77169781923294
0.42944091558456 1.0031757354736 0.63444066047668
0.44538623094559 1.0047147274017 0.64053153991699
0.47944319248199 1.0101100206375 0.66171979904175
0.65244442224503 1.0140687227249 0.70506834983826
1.002750992775 0.99724811315536 0.85206413269043
0 0.19077181816101 0.44505178928375
0.16831561923027 0.11234124749899 0.49039345979691
0.56943970918655 0.0019688382744789 0.48773509263992
0.89144283533096 0.05389616638422 0.46013969182968
1.0892326831818 0.72733104228973 0.73255658149719
0 0.23586863279343 0.44546890258789
0.15377524495125 0.20748034119606 0.49260932207108
0.56616050004959 0.12542355060577 0.49017018079758
0.89204889535904 0.069727122783661 0.46801143884659
1.0897456407547 0.7306969165802 0.73575967550278
0 0.49987852573395 0.4855934381485
0 0.49398732185364 0.47990983724594
0.47229743003845 0.47229838371277 0.47229623794556
0.85790395736694 0.41986641287804 0.46072900295258
1.0919580459595 0.74530148506165 0.74990630149841
0 0.74780148267746 0.53840243816376
0 0.7494957447052 0.54349052906036
0.014720355160534 0.76121670007706 0.43285575509071
0.74849951267242 0.73543602228165 0.42550992965698
1.0944458246231 0.7799060344696 0.77616876363754
0.43507409095764 1.0037189722061 0.63659220933914
0.45010381937027 1.0052399635315 0.6426055431366
0.48395186662674 1.0107773542404 0.66433328390121
0.62503397464752 1.0172402858734 0.70630091428757
1.0035898685455 0.99803239107132 0.85385745763779
0 0.33264738321304 0.70898306369781
0 0.31897628307343 0.72513747215271
0.48415297269821 0.27015534043312 0.76034808158875
0.84640634059906 0.33769074082375 0.74819147586823
1.0786142349243 0.75084578990936 0.80137455463409
0 0.33370673656464 0.71100622415543
0.011587727814913 0.30020868778229 0.74315536022186
0.50434100627899 0.27068960666656 0.76093125343323
0.84742194414139 0.34042137861252 0.74957746267319
1.0794724225998 0.75372284650803 0.80138957500458
0 0.48953354358673 0.70267426967621
4.6673558351529e-09 0.49115741252899 0.71688574552536
0.44093444943428 0.4668008685112 0.75974810123444
0.83924800157547 0.41741147637367 0.75359278917313
1.0850636959076 0.76253777742386 0.79568654298782
0 0.75299137830734 0.7321937084198
0 0.75441670417786 0.73389714956284
0.087447889149189 0.75507694482803 0.7359716296196
0.73490339517593 0.7349037528038 0.73490464687347
1.0971829891205 0.77997142076492 0.78400772809982
0.47880899906158 1.0011739730835 0.75357007980347
0.48597431182861 1.0025277137756 0.75481128692627
0.51975893974304 1.0084352493286 0.75431656837463
0.56833004951477 1.0232843160629 0.71333748102188
1.005433678627 0.99939388036728 0.85727488994598
0.40349641442299 0.65320688486099 0.99201172590256
0.41263464093208 0.65680146217346 0.99363285303116
0.47692435979843 0.67291384935379 0.99952119588852
0.7909984588623 0.7342346906662 0.99057847261429
1.0315568447113 0.82914221286774 0.98047822713852
0.41065472364426 0.65602248907089 0.99328202009201
0.4197094142437 0.65958362817764 0.99488645792007
0.4866698384285 0.67587220668793 1.0005207061768
0.79160815477371 0.73727929592133 0.99191159009933
1.032448887825 0.83183032274246 0.98167771100998
0.44125887751579 0.66806173324585 0.99864512681961
0.450503885746 0.6717135310173 0.99997872114182
0.49132800102234 0.68794983625412 1.0058884620667
0.78357744216919 0.74921905994415 0.99874800443649
1.0363101959229 0.84348380565643 0.98688560724258
0.4582839012146 0.75681871175766 1.002046585083
0.46541756391525 0.75869435071945 1.0036727190018
0.49649143218994 0.75656086206436 1.0124053955078
0.71202766895294 0.76280212402344 1.0174621343613
1.0436569452286 0.86480885744095 0.99859768152237
0.59877437353134 0.98649054765701 0.97039180994034
0.60526138544083 0.98790568113327 0.97190469503403
0.6335501074791 0.99409407377243 0.97831660509109
0.68664920330048 1.0071762800217 0.99229484796524
0.99966067075729 0.99966043233871 0.99966043233871
