Assets/Data/Textures/70 CGC LUTs/agx luts/Base Rec.1886.cube
LUT_3D_SIZE 5
9.7474145996455e-15 0 2.1087148140923e-13
0.20511302351952 0.0051719634793699 0.0013113403692842
0.46521776914597 0.023386232554913 0.0051791514270008
0.71980023384094 0.034659612923861 0.037849303334951
0.97949606180191 0.25773179531097 0.29343557357788
0.01272807829082 0.20935717225075 0.005007894244045
0.20929422974586 0.21085205674171 0.0081818839535117
0.47095787525177 0.20935612916946 0.02405889518559
0.72926890850067 0.20777350664139 0.037323482334614
0.98559159040451 0.27985313534737 0.31090554594994
0.066265799105167 0.47103434801102 0.026747537776828
0.18867695331573 0.47285294532776 0.0082970028743148
0.47013056278229 0.47281181812286 0.031100505962968
0.73390775918961 0.46444618701935 0.039012283086777
0.99167400598526 0.48438858985901 0.37747603654861
0.072019658982754 0.73365128040314 0.03308692201972
0.15454003214836 0.73646926879883 0.0038509340956807
0.4499329328537 0.73734664916992 0.014406000263989
0.73078298568726 0.73487514257431 0.11103742569685
0.98567789793015 0.74316972494125 0.57754212617874
0.33245643973351 0.98893243074417 0.58011668920517
0.39227098226547 0.98896914720535 0.58660763502121
0.5551101565361 0.98983436822891 0.61822617053986
0.75930392742157 0.99212199449539 0.71455514431
0.97768253087997 0.99506920576096 0.83001238107681
0 0.050553217530251 0.19216457009315
0.20643395185471 0.0022297978866845 0.20761346817017
0.46734035015106 0.0070574963465333 0.20872756838799
0.73057460784912 0.0092576378956437 0.21101361513138
0.98025006055832 0.26046866178513 0.2955969274044
0.019590731710196 0.21056348085403 0.21070870757103
0.21023881435394 0.21023949980736 0.21023777127266
0.47377425432205 0.20917654037476 0.20841231942177
0.73362725973129 0.20754700899124 0.20827332139015
0.98642534017563 0.28276112675667 0.31334638595581
0.0087654860690236 0.47213315963745 0.21712404489517
0.15716814994812 0.47274607419968 0.21088406443596
0.46960788965225 0.47225433588028 0.20546847581863
0.73720502853394 0.46375101804733 0.2089449763298
0.99417823553085 0.48023080825806 0.37914207577705
0.033296670764685 0.73449701070786 0.18265020847321
0.13160139322281 0.73623389005661 0.15661427378654
0.44989788532257 0.73734122514725 0.16859674453735
0.73119390010834 0.73438596725464 0.20515698194504
0.98743373155594 0.74185848236084 0.57871210575104
0.29514876008034 0.99020498991013 0.58220624923706
0.37917882204056 0.98997467756271 0.58788257837296
0.55004006624222 0.99070245027542 0.61828434467316
0.75820678472519 0.99270051717758 0.71491169929504
0.97883957624435 0.99531418085098 0.83119130134583
0.00013844200293534 0.15900000929832 0.43686208128929
0.17380553483963 0.10120242089033 0.46539169549942
0.46668595075607 0.03249167278409 0.46963387727737
0.72702538967133 0.034247990697622 0.46248972415924
0.97511464357376 0.30923676490784 0.47123402357101
0.0215167067945 0.21005815267563 0.46640759706497
0.20587274432182 0.20973709225655 0.47206336259842
0.46714168787003 0.20990687608719 0.47264057397842
0.73373109102249 0.20832282304764 0.4662104845047
0.98197716474533 0.32991796731949 0.47388589382172
0.071802981197834 0.47205966711044 0.4722466468811
0.20494067668915 0.47203719615936 0.47219604253769
0.47230112552643 0.47230225801468 0.47230017185211
0.73352509737015 0.47065341472626 0.47136098146439
1.0017637014389 0.46522128582001 0.46350318193436
0.0072334678843617 0.73482942581177 0.47526448965073
0.10511802881956 0.73543483018875 0.47393190860748
0.45980507135391 0.7363492846489 0.47262763977051
0.73280489444733 0.73434108495712 0.47129338979721
0.99625951051712 0.73305886983871 0.58262366056442
0.31007438898087 0.9916598200798 0.58905643224716
0.32704669237137 0.99329382181168 0.595498919487
0.51724368333817 0.99488264322281 0.62192934751511
0.7511460185051 0.99542456865311 0.71557301282883
0.98375087976456 0.99636262655258 0.83620691299438
0 0.29910260438919 0.68126434087753
0.035771481692791 0.27202984690666 0.7059320807457
0.41888400912285 0.23529690504074 0.72617423534393
0.70555472373962 0.24672719836235 0.72821789979935
0.95262759923935 0.43445536494255 0.71506834030151
0.039096418768167 0.27245080471039 0.70842051506042
0.17482686042786 0.25320246815681 0.72152668237686
0.4581024646759 0.23791950941086 0.72894543409348
0.71879237890244 0.2564600110054 0.73132467269897
0.9601942896843 0.44823920726776 0.71744507551193
0.04785281419754 0.46694940328598 0.73014950752258
0.15116250514984 0.465556204319 0.73502683639526
0.46737551689148 0.47072839736938 0.73496121168137
0.7287945151329 0.47264534235001 0.73613458871841
0.99066299200058 0.50535678863525 0.72263896465302
0.14347872138023 0.73215109109879 0.73467582464218
0.21037647128105 0.73309963941574 0.73527753353119
0.46195089817047 0.73420816659927 0.73514246940613
0.73489820957184 0.73489886522293 0.73489910364151
1.001163482666 0.73123836517334 0.73296391963959
0.39340937137604 0.99025815725327 0.73785811662674
0.4064946770668 0.99208289384842 0.73741149902344
0.46765422821045 1.0003410577774 0.73139637708664
0.71295702457428 1.0026243925095 0.7183809876442
0.99206084012985 0.99844032526016 0.84555315971375
0.19835311174393 0.57756400108337 0.95242077112198
0.20922863483429 0.58010041713715 0.95443707704544
0.38553643226624 0.59003216028214 0.96533912420273
0.67030441761017 0.63791781663895 0.9601303935051
0.88249307870865 0.70715224742889 0.96010547876358
0.2217932343483 0.58303308486938 0.956767141819
0.23268589377403 0.58557540178299 0.95878714323044
0.41170555353165 0.59783911705017 0.96692949533463
0.68009912967682 0.6453418135643 0.96242254972458
0.88878375291824 0.71418994665146 0.96268945932388
0.3285796046257 0.60678833723068 0.97412008047104
0.33801910281181 0.60973525047302 0.97571223974228
0.45986151695251 0.62804108858109 0.97766596078873
0.71078991889954 0.67643481492996 0.97365742921829
0.91446310281754 0.74429124593735 0.97159999608994
0.3903027176857 0.72684705257416 0.99330133199692
0.39880865812302 0.7267564535141 0.99491709470749
0.47462314367294 0.72478300333023 1.0007634162903
0.73527055978775 0.73626053333282 0.99717837572098
0.96450406312943 0.80325722694397 0.99140423536301
0.61937773227692 0.97438544034958 0.98845225572586
0.62484043836594 0.97594708204269 0.98958450555801
0.64611488580704 0.98360222578049 0.9941925406456
0.72991049289703 0.99666517972946 1.0013179779053
0.99966067075729 0.99966043233871 0.99966043233871
