Assets/Data/Textures/70 CGC LUTs/agx luts/Base Rec Display P3.cube
LUT_3D_SIZE 5
9.7474145996455e-15 0 2.1087148140923e-13
0.26208311319351 0.00082192628178746 0.011598066426814
0.51675724983215 0.001566544524394 0.051538988947868
0.77539187669754 0.00061225320678204 0.11567113548517
1.030369758606 0.4397377371788 0.45344960689545
0 0.25314083695412 0.064614571630955
0.25128230452538 0.25208300352097 0
0.52735614776611 0.23502206802368 0.00064702430972829
0.79601591825485 0.20935273170471 0.0027877525426447
1.035006403923 0.45860439538956 0.47133773565292
0 0.50080966949463 0.16261091828346
0.13967329263687 0.50458604097366 0.0024963496252894
0.50027471780777 0.50037354230881 0
0.78999179601669 0.47525662183762 0.0014237420400605
1.0500274896622 0.52049267292023 0.52572327852249
0 0.74553346633911 0.28555417060852
0 0.75276964902878 0.16451731324196
0.40144988894463 0.75775969028473 0
0.73977345228195 0.74876719713211 0.16702696681023
1.019571185112 0.76087689399719 0.64152872562408
0.31220388412476 0.99186700582504 0.58997148275375
0.33603119850159 0.99415975809097 0.59896337985992
0.42125445604324 1.0012166500092 0.62626987695694
0.72628539800644 0.99745517969131 0.70602744817734
0.97463196516037 0.99436622858047 0.82682782411575
2.6343514036853e-09 0.073222182691097 0.24232065677643
0.2706977725029 0.0015504535986111 0.25694978237152
0.52642571926117 0 0.25156563520432
0.77982795238495 0 0.26674324274063
1.0313667058945 0.44379490613937 0.45729476213455
0 0.25679957866669 0.25506973266602
0.2504475414753 0.25044867396355 0.25044420361519
0.53685730695724 0.23494410514832 0.24369612336159
0.81199127435684 0.19147196412086 0.22344157099724
1.0360234975815 0.46274393796921 0.47526127099991
0 0.50303387641907 0.28614121675491
0.072561256587505 0.50715357065201 0.21986144781113
0.4970999956131 0.49949038028717 0.20419585704803
0.79488724470139 0.4724834561348 0.18974760174751
1.0513072013855 0.52348053455353 0.52986550331116
0 0.7471416592598 0.354506701231
0.0010121917584911 0.75334846973419 0.27372041344643
0.39223322272301 0.75825834274292 0.065447226166725
0.74299538135529 0.7483811378479 0.17172512412071
1.0223701000214 0.7592299580574 0.64471650123596
0.31779742240906 0.99240559339523 0.59208273887634
0.34178951382637 0.99471372365952 0.6011358499527
0.42528927326202 1.0018725395203 0.62857204675674
0.72301107645035 0.99848014116287 0.70622247457504
0.97638589143753 0.99476212263107 0.82864719629288
0.00013288752234075 0.17975288629532 0.48378270864487
0.23258745670319 0.11161691695452 0.51476687192917
0.53546994924545 0.01774681173265 0.51294243335724
0.80139446258545 0.020287211984396 0.49584972858429
1.0316479206085 0.46465444564819 0.52231979370117
0.0038427789695561 0.25688642263412 0.50433045625687
0.24529951810837 0.25226131081581 0.51636236906052
0.53418332338333 0.23528632521629 0.51307892799377
0.81139385700226 0.18584749102592 0.49933701753616
1.0395205020905 0.4749214053154 0.49734055995941
0 0.50823777914047 0.50479984283447
0.12374255806208 0.5062889456749 0.50280576944351
0.49971580505371 0.49971723556519 0.49971455335617
0.79192221164703 0.48206025362015 0.49256998300552
1.0533572435379 0.53450274467468 0.54441142082214
0 0.75122630596161 0.52695804834366
0 0.75608623027802 0.4980760216713
0.40669819712639 0.75737082958221 0.47267085313797
0.74580121040344 0.74785053730011 0.46537667512894
1.0321626663208 0.75031900405884 0.65194207429886
0.33594250679016 0.99415153264999 0.59893018007278
0.36040377616882 0.99650496244431 0.60815680027008
0.43810805678368 1.0040180683136 0.63747960329056
0.70827156305313 1.0021585226059 0.70727640390396
0.98195141553879 0.9960270524025 0.83443731069565
0 0.33203139901161 0.72687989473343
0.083344019949436 0.30150938034058 0.75613868236542
0.486099421978 0.27981606125832 0.76888412237167
0.77435022592545 0.31872522830963 0.76370674371719
1.0088928937912 0.56059205532074 0.74843549728394
0.006395545322448 0.31186535954475 0.7508796453476
0.22065722942352 0.29129394888878 0.76548320055008
0.51875525712967 0.28207162022591 0.77102643251419
0.78585964441299 0.32625186443329 0.76576113700867
1.0151827335358 0.57400190830231 0.74966043233871
0.011953093111515 0.50567930936813 0.75203043222427
0.089169539511204 0.50001662969589 0.77171385288239
0.49164086580276 0.4988511800766 0.76877439022064
0.78690135478973 0.48536080121994 0.7642896771431
1.033255815506 0.61081552505493 0.75343978404999
0 0.75479060411453 0.75171202421188
0.0030403351411223 0.75636947154999 0.75310057401657
0.40716522932053 0.75542056560516 0.75247210264206
0.74879235029221 0.7487924695015 0.74879205226898
1.0495883226395 0.72629660367966 0.73839491605759
0.41718703508377 0.99292343854904 0.74797570705414
0.43580529093742 0.99551826715469 0.74746292829514
0.49021565914154 1.0035998821259 0.74055403470993
0.65210425853729 1.0113179683685 0.69980436563492
0.99123817682266 0.99832099676132 0.84474861621857
0.39075195789337 0.64668220281601 0.98935776948929
0.39840707182884 0.65120828151703 0.99111038446426
0.49867647886276 0.66573685407639 0.99507659673691
0.74823850393295 0.71429133415222 0.98733228445053
0.94465833902359 0.78054541349411 0.98374825716019
0.40204885601997 0.65263873338699 0.99175506830215
0.41200891137123 0.65655511617661 0.99352210760117
0.51630371809006 0.6716034412384 0.99722641706467
0.75370329618454 0.72045022249222 0.98939794301987
0.94990342855453 0.78630781173706 0.98592919111252
0.44637286663055 0.67008167505264 0.99938315153122
0.45684051513672 0.67421621084213 1.0008980035782
0.51031708717346 0.68896579742432 1.0049710273743
0.7630672454834 0.7402331829071 0.99702900648117
0.96598917245865 0.80467361211777 0.99178832769394
0.47945141792297 0.75766092538834 1.0075995922089
0.48778599500656 0.75733184814453 1.0098903179169
0.51179450750351 0.75454086065292 1.0169574022293
0.74949282407761 0.76857244968414 1.0144369602203
0.99785929918289 0.8401535153389 1.00277364254
0.62298989295959 0.97961920499802 0.98753124475479
0.63029354810715 0.98187583684921 0.98909801244736
0.65276569128036 0.98936170339584 0.99422007799149
0.69569128751755 1.0042073726654 1.0035961866379
0.99966067075729 0.99966043233871 0.99966043233871
