Assets/Data/Textures/70 CGC LUTs/agx luts/Linear Rec.709.cube
LUT_3D_SIZE 5
9.7474145996455e-15 0 2.1087148140923e-13
0.50286847352982 0.081443779170513 0
0.68905901908875 0.14015793800354 0
0.78843599557877 0.2085357606411 0.048887923359871
0.85013401508331 0.26439753174782 0.087301544845104
0.17172300815582 0.50588476657867 0.0009012229857035
0.53635919094086 0.51195311546326 0.0075883269309998
0.67923957109451 0.51653373241425 0.076139219105244
0.76231163740158 0.52065086364746 0.149803429842
0.81767326593399 0.52847760915756 0.21471059322357
0.29732182621956 0.6549044251442 0.099423475563526
0.54744505882263 0.64991337060928 0.12629595398903
0.67455089092255 0.64732676744461 0.17004013061523
0.74674093723297 0.64264005422592 0.24023100733757
0.79795014858246 0.63884246349335 0.30824667215347
0.38892576098442 0.72636312246323 0.18797758221626
0.56552118062973 0.72144520282745 0.25332656502724
0.66763174533844 0.71775138378143 0.29864090681076
0.74146044254303 0.71522104740143 0.33024403452873
0.78502178192139 0.71070426702499 0.36455303430557
0.45225256681442 0.76959890127182 0.31327471137047
0.58558547496796 0.76434516906738 0.3420025408268
0.67158323526382 0.76048457622528 0.37067317962646
0.73311686515808 0.75773352384567 0.39762023091316
0.78086447715759 0.75610399246216 0.42371961474419
0.0011840086663142 0.18256950378418 0.50786954164505
0.52916133403778 0.13988742232323 0.53523117303848
0.69563019275665 0.19248348474503 0.5329537987709
0.7839133143425 0.26376494765282 0.53156000375748
0.83671152591705 0.32418316602707 0.53313708305359
0.10119175165892 0.53169572353363 0.53440111875534
0.53220951557159 0.53221070766449 0.53221195936203
0.67026978731155 0.5392182469368 0.53433459997177
0.74635702371597 0.55026853084564 0.54093086719513
0.79853469133377 0.56245362758636 0.54871475696564
0.2858707010746 0.66170865297318 0.53383898735046
0.55217951536179 0.65610212087631 0.53917372226715
0.66626214981079 0.65554851293564 0.54484844207764
0.73613458871841 0.65598702430725 0.55298101902008
0.78356373310089 0.65710806846619 0.56296360492706
0.41504871845245 0.7284659743309 0.54599237442017
0.57964754104614 0.72318625450134 0.55383282899857
0.66820180416107 0.72094351053238 0.56087619066238
0.73364049196243 0.71972477436066 0.56931167840958
0.77586776018143 0.71835196018219 0.57934027910233
0.48919302225113 0.76816368103027 0.56612402200699
0.60267227888107 0.76407200098038 0.5734059214592
0.67789489030838 0.7618442773819 0.58036363124847
0.73137974739075 0.76040917634964 0.58676755428314
0.77487164735794 0.75971698760986 0.59333026409149
0.021656597033143 0.26693350076675 0.66950607299805
0.52437722682953 0.24255010485649 0.68669217824936
0.68156182765961 0.27675166726112 0.68046814203262
0.76936566829681 0.32596224546432 0.67263561487198
0.8257001042366 0.37378320097923 0.66457617282867
0.15977996587753 0.54560834169388 0.67665129899979
0.53207230567932 0.55034822225571 0.67052257061005
0.66310894489288 0.55772870779037 0.66633224487305
0.73902881145477 0.56848961114883 0.66418814659119
0.78951299190521 0.58137261867523 0.662073969841
0.29149582982063 0.66737455129623 0.66930645704269
0.55594795942307 0.66367244720459 0.66485553979874
0.66403537988663 0.66403585672379 0.66403579711914
0.73063337802887 0.66705667972565 0.66482824087143
0.77532535791397 0.67125457525253 0.66724836826324
0.42952138185501 0.73096215724945 0.6629883646965
0.58558881282806 0.72607439756393 0.66590332984924
0.67245084047318 0.7244668006897 0.66650986671448
0.72977924346924 0.72423624992371 0.6690034866333
0.77092534303665 0.72593420743942 0.67182058095932
0.50685948133469 0.77005040645599 0.66473484039307
0.6131477355957 0.76585674285889 0.67032712697983
0.68542057275772 0.76389390230179 0.67279332876205
0.73276561498642 0.76337873935699 0.67570304870605
0.77202552556992 0.76343232393265 0.67891579866409
0.04364949464798 0.3210241496563 0.75549691915512
0.51912891864777 0.31662705540657 0.7619903087616
0.66566491127014 0.34524735808372 0.75612109899521
0.75212460756302 0.38205090165138 0.74995070695877
0.81243509054184 0.41594144701958 0.74415218830109
0.16972926259041 0.5578932762146 0.75452637672424
0.53397727012634 0.56675893068314 0.74499380588531
0.65553069114685 0.57546228170395 0.7392338514328
0.73228710889816 0.58497595787048 0.7357029914856
0.78289830684662 0.59706497192383 0.73235565423965
0.36281019449234 0.66875487565994 0.74214816093445
0.56537395715714 0.66965186595917 0.73514169454575
0.66280233860016 0.67160385847092 0.7318309545517
0.72770303487778 0.67528676986694 0.72989356517792
0.771484375 0.67949795722961 0.72965514659882
0.44041359424591 0.73354625701904 0.73511493206024
0.59096211194992 0.73006880283356 0.73137766122818
0.67414826154709 0.72882610559464 0.72948288917542
0.7291471362114 0.72914731502533 0.72914826869965
0.76888573169708 0.7308401465416 0.72956275939941
0.51583421230316 0.77191185951233 0.7293860912323
0.61754590272903 0.76844936609268 0.73019897937775
0.68534767627716 0.76710748672485 0.72976154088974
0.73267579078674 0.76690363883972 0.72999149560928
0.77070689201355 0.76703667640686 0.73099458217621
0.11183985322714 0.3642945587635 0.81267595291138
0.51909625530243 0.37495940923691 0.8078111410141
0.65407782793045 0.39937630295753 0.80049693584442
0.7360891699791 0.42656102776527 0.79505068063736
0.79422569274902 0.45574671030045 0.78961670398712
0.24751308560371 0.56991249322891 0.80170738697052
0.54416990280151 0.58329522609711 0.79032164812088
0.6522576212883 0.59282302856445 0.78439396619797
0.7252779006958 0.60148233175278 0.78049689531326
0.77497524023056 0.61074405908585 0.77767908573151
0.37895292043686 0.66979497671127 0.78837233781815
0.57062369585037 0.67447847127914 0.78073728084564
0.66609978675842 0.67997127771378 0.77611422538757
0.72514641284943 0.68366581201553 0.77369529008865
0.7689311504364 0.68795645236969 0.77236145734787
0.46931517124176 0.73245054483414 0.77972477674484
0.5969979763031 0.73143762350082 0.77531957626343
0.67689031362534 0.73270344734192 0.77240788936615
0.72767305374146 0.73315989971161 0.77148723602295
0.76821959018707 0.73523050546646 0.77072536945343
0.52157312631607 0.77415788173676 0.77577489614487
0.624382853508 0.77133673429489 0.77302485704422
0.68604624271393 0.77055674791336 0.77154546976089
0.73209255933762 0.77049547433853 0.77098608016968
0.77087157964706 0.77087199687958 0.77087020874023
