Assets/Data/Textures/70 CGC LUTs/agx luts/Linear Rec.709.cube
LUT_3D_SIZE 33
9.7474145996455e-15 0 2.1087148140923e-13
0.14766809344292 0.0091232536360621 0
0.2296758890152 0.018876949325204 0
0.29351681470871 0.030623475089669 0
0.34660577774048 0.044328279793262 0
0.39153891801834 0.053181804716587 0
0.43287652730942 0.064029946923256 0
0.4698897600174 0.074601821601391 0
0.50286847352982 0.081443779170513 0
0.5331609249115 0.088568054139614 0
0.56091862916946 0.098991461098194 0
0.58674424886703 0.10749477893114 0
0.61128330230713 0.11369601637125 0
0.6338495016098 0.11939876526594 0
0.6544377207756 0.1251448392868 0
0.67255634069443 0.1323057115078 0
0.68905901908875 0.14015793800354 0
0.70455950498581 0.14753293991089 0
0.71844691038132 0.15786981582642 0.0006925841444172
0.73149937391281 0.1680556833744 0.0039508435875177
0.74388033151627 0.1777221262455 0.010278354398906
0.75565701723099 0.18691417574883 0.019741360098124
0.76689034700394 0.19567915797234 0.032259453088045
0.77788639068604 0.20249408483505 0.042185425758362
0.78843599557877 0.2085357606411 0.048887923359871
0.79830873012543 0.21434658765793 0.048891946673393
0.80779105424881 0.21993237733841 0.048892855644226
0.8169139623642 0.22530570626259 0.048895187675953
0.82509797811508 0.23163768649101 0.051868163049221
0.83167862892151 0.24024620652199 0.061178587377071
0.83803331851959 0.24856436252594 0.07017607241869
0.84418118000031 0.25660988688469 0.078882314264774
0.85013401508331 0.26439753174782 0.087301544845104
0.028176514431834 0.15421140193939 0
0.1705410182476 0.16088992357254 0.00055428000632674
0.24842575192451 0.17198577523232 0
0.3068715929985 0.18132662773132 0
0.35761973261833 0.18928918242455 1.318533122685e-05
0.40135356783867 0.19568192958832 0.00060555839445442
0.44212171435356 0.20125034451485 0.00012448019697331
0.47699904441833 0.20679542422295 6.362045496644e-06
0.50752812623978 0.21252182126045 0
0.53828674554825 0.21708476543427 0
0.56601357460022 0.2214777469635 0
0.59121108055115 0.22576838731766 0
0.61428266763687 0.22995302081108 0
0.63547533750534 0.23407593369484 0
0.65375655889511 0.23901963233948 0
0.67060858011246 0.24435088038445 3.3497606636956e-05
0.6866711974144 0.24957072734833 0.00062923901714385
0.70178109407425 0.254614174366 0.0021488722413778
0.71606856584549 0.25915336608887 0.0049266237765551
0.72962659597397 0.26324388384819 0.0092344181612134
0.74250257015228 0.26724129915237 0.014848013408482
0.75475966930389 0.27114769816399 0.021687012165785
0.76631790399551 0.27487990260124 0.027278514578938
0.77704787254333 0.2783345580101 0.027705278247595
0.78732645511627 0.28171545267105 0.02811373770237
0.79718726873398 0.28503006696701 0.028503976762295
0.80507391691208 0.2912905216217 0.035806849598885
0.81232470273972 0.29801896214485 0.045289389789104
0.81931322813034 0.30456632375717 0.054549865424633
0.82592344284058 0.3101612329483 0.065001085400581
0.83228045701981 0.31544187664986 0.075463302433491
0.83842623233795 0.32059130072594 0.085614778101444
0.84437334537506 0.32561567425728 0.095476992428303
0.057248190045357 0.23875784873962 0
0.18766593933105 0.24245992302895 4.1468210838502e-06
0.26001518964767 0.24654883146286 0.0014795875176787
0.32094469666481 0.25300461053848 0
0.36770874261856 0.26145568490028 0
0.41153004765511 0.26888102293015 0
0.44908702373505 0.27535527944565 0
0.48186928033829 0.28132715821266 0
0.51289910078049 0.28599506616592 4.9093228881247e-05
0.5420725941658 0.28973692655563 0.00057780585484579
0.56841468811035 0.29326689243317 0.0012256336631253
0.59234374761581 0.29616791009903 0.00059688428882509
0.61431890726089 0.29911071062088 0.00025195284979418
0.63456439971924 0.30197229981422 0.00053844426292926
0.65331745147705 0.30439791083336 0.001598967704922
0.67083621025085 0.30686816573143 0.0033076414838433
0.68702310323715 0.30969780683517 0.0063234162516892
0.70227074623108 0.31250593066216 0.01030423399061
0.71662795543671 0.31536516547203 0.0147096645087
0.72995883226395 0.31859874725342 0.016843732446432
0.74262416362762 0.32179188728333 0.018992612138391
0.75468283891678 0.32494354248047 0.021145751699805
0.76566416025162 0.32763385772705 0.023291828110814
0.77554798126221 0.33084589242935 0.028677122667432
0.78399312496185 0.33522611856461 0.042170315980911
0.79208391904831 0.33952042460442 0.056107066571712
0.79977118968964 0.34386217594147 0.068457379937172
0.80700504779816 0.34838560223579 0.078184626996517
0.81397300958633 0.35280972719193 0.087645165622234
0.82069110870361 0.35713934898376 0.096863351762295
0.82717990875244 0.36137917637825 0.10583729296923
0.83345293998718 0.36553403735161 0.1145810559392
0.83952403068542 0.3696064054966 0.123106084764
0.082659609615803 0.30325451493263 0
0.20809662342072 0.30599331855774 0
0.27299183607101 0.30956783890724 0.00022990522847977
0.32933685183525 0.31292939186096 0.0018373691709712
0.37717878818512 0.31770667433739 2.6383915610495e-05
0.42059844732285 0.32314360141754 0
0.45743066072464 0.32847431302071 0
0.48965036869049 0.33320495486259 0
0.51978820562363 0.33709493279457 0
0.54670912027359 0.34132769703865 0
0.57127857208252 0.34546628594398 2.6232581149088e-05
0.59392082691193 0.3495124578476 0.00044936206541024
0.61492300033569 0.35300755500793 0.0022671783808619
0.63415253162384 0.35501000285149 0.0029006861150265
0.65204155445099 0.35690873861313 0.0032801749184728
0.6688078045845 0.35881051421165 0.0037302505224943
0.68458664417267 0.36066392064095 0.0042918734252453
0.69946360588074 0.36255866289139 0.0048868549056351
0.71353393793106 0.3644857108593 0.0055104317143559
0.72688239812851 0.36643818020821 0.0061579323373735
0.7395828962326 0.36841103434563 0.00682492274791
0.75040537118912 0.37142550945282 0.011136129498482
0.75966668128967 0.37494757771492 0.019444692879915
0.76852029561996 0.37843063473701 0.030251067131758
0.77699720859528 0.38187766075134 0.043384723365307
0.7851271033287 0.38527479767799 0.05673661082983
0.79293864965439 0.38862547278404 0.069634608924389
0.80045855045319 0.39192226529121 0.082110323011875
0.8076958656311 0.39517325162888 0.094189621508121
0.81467950344086 0.39837846159935 0.10589160770178
0.82142418622971 0.40153899788857 0.11723830550909
0.82794594764709 0.4046556353569 0.12824776768684
0.83435064554214 0.40741768479347 0.14020165801048
0.10353357344866 0.3550977408886 0
0.21336102485657 0.35768604278564 0
0.28652369976044 0.3607469201088 1.3507701623894e-05
0.33599787950516 0.36395728588104 0.00087910157162696
0.38538584113121 0.36668929457664 0.0033503537997603
0.42684334516525 0.3708094060421 0.00022969345445745
0.4619145989418 0.37533742189407 0
0.49410808086395 0.3793024122715 0
0.52410328388214 0.38268959522247 0.0001692097139312
0.55114078521729 0.38601356744766 0.00090764072956517
0.57481473684311 0.38926538825035 0.0023163224104792
0.59658080339432 0.39246374368668 0.0044076265767217
0.61657899618149 0.3949573636055 0.0052314475178719
0.63500130176544 0.39662793278694 0.0039876871742308
0.65222990512848 0.39834436774254 0.0030359874945134
0.66840821504593 0.40008571743965 0.0023267976939678
0.68377792835236 0.40140569210052 0.0025579184293747
0.69830048084259 0.4027733206749 0.0028120693750679
0.71178591251373 0.40450552105904 0.0037099302280694
0.72410833835602 0.40683451294899 0.0061869933269918
0.73585706949234 0.40911287069321 0.0093960138037801
0.74558568000793 0.41194334626198 0.016544762998819
0.75492036342621 0.41433984041214 0.027509801089764
0.76385879516602 0.41671377420425 0.041313335299492
0.77243214845657 0.41906398534775 0.055899180471897
0.78066742420197 0.42139145731926 0.070051155984402
0.78859353065491 0.42369502782822 0.083796791732311
0.79622703790665 0.42597597837448 0.097160510718822
0.80358797311783 0.4282331764698 0.11015602201223
0.81069833040237 0.43046739697456 0.12280475348234
0.81757193803787 0.43267995119095 0.13513159751892
0.82422256469727 0.43488901853561 0.14736291766167
0.83066481351852 0.43707472085953 0.15928456187248
0.1220749989152 0.40163254737854 0
0.22304651141167 0.40327236056328 0
0.29832804203033 0.40533968806267 0
0.34713724255562 0.4075862467289 0.0001793648552848
0.3930681347847 0.40958574414253 0.0012426193570718
0.43236005306244 0.41174578666687 0.0039578303694725
0.46687722206116 0.41468739509583 0.0016647297888994
0.50035935640335 0.41653615236282 0.001542138052173
0.52885389328003 0.41933134198189 0.0033007902093232
0.55477744340897 0.42207932472229 0.0057350252754986
0.57854253053665 0.42478373646736 0.0088171940296888
0.60034954547882 0.42760530114174 0.011982782743871
0.61926311254501 0.42897540330887 0.010106097906828
0.63677889108658 0.43043228983879 0.0080981971696019
0.65318703651428 0.43193805217743 0.0065044253133237
0.66861200332642 0.43348351120949 0.005231655202806
0.68281322717667 0.43541440367699 0.0071420762687922
0.69618850946426 0.43741282820702 0.010005900636315
0.708869099617 0.4394191801548 0.013410551473498
0.72090303897858 0.4413945376873 0.017681052908301
0.73194044828415 0.44293487071991 0.026121694594622
0.74207192659378 0.44413009285927 0.039696335792542
0.75175851583481 0.44535726308823 0.05439880490303
0.76104003190994 0.44661182165146 0.068669907748699
0.76994687318802 0.44789063930511 0.082534246146679
0.77828311920166 0.44954746961594 0.095876775681973
0.78613811731339 0.45148330926895 0.10874973982573
0.79370474815369 0.45340514183044 0.12128717452288
0.80101126432419 0.45531249046326 0.13350319862366
0.80807238817215 0.45720565319061 0.14541935920715
0.81490415334702 0.45908463001251 0.15704643726349
0.82151889801025 0.46094858646393 0.16839978098869
0.82792997360229 0.46279847621918 0.17949151992798
0.13640820980072 0.4397194981575 0
0.23458272218704 0.44079479575157 0
0.30910596251488 0.44253000617027 0
0.35804113745689 0.44447913765907 2.7101692467113e-05
0.39987537264824 0.4463877081871 0.00084030092693865
0.43607461452484 0.44844001531601 0.0030496178660542
0.47183918952942 0.44977790117264 0.0067154341377318
0.50336629152298 0.4515762925148 0.0050992420874536
0.53184044361115 0.45346164703369 0.0040148561820388
0.55688381195068 0.45590096712112 0.0045950803905725
0.57941311597824 0.45859515666962 0.0061215180903673
0.60007411241531 0.46006047725677 0.0078083327971399
0.61911791563034 0.46052569150925 0.0096348952502012
0.63676780462265 0.46125042438507 0.01366157270968
0.65259420871735 0.46262341737747 0.018998213112354
0.66723573207855 0.46420484781265 0.023111782968044
0.68106478452682 0.46581119298935 0.027717478573322
0.69416344165802 0.46743822097778 0.032810430973768
0.70660370588303 0.46908098459244 0.03839248418808
0.71842706203461 0.47071796655655 0.044452711939812
0.72894591093063 0.47167199850082 0.057173393666744
0.73900258541107 0.47266513109207 0.069547720253468
0.74862444400787 0.47368705272675 0.081599600613117
0.75782155990601 0.47467863559723 0.094200693070889
0.76663023233414 0.47564774751663 0.10719645768404
0.77510803937912 0.47664195299149 0.11985410004854
0.78327280282974 0.47765898704529 0.13219055533409
0.79114609956741 0.47869628667831 0.1442252099514
0.79874914884567 0.47975081205368 0.1559719145298
0.80609953403473 0.48082095384598 0.16744264960289
0.81286293268204 0.48242557048798 0.17739427089691
0.81895732879639 0.48465847969055 0.18391567468643
0.82486313581467 0.48686790466309 0.19029220938683
0.15673577785492 0.47493833303452 1.2525609236036e-05
0.24118304252625 0.47608989477158 0.0001815831346903
0.31471413373947 0.47699797153473 1.9467270249152e-05
0.36585891246796 0.47840946912766 0
0.40446570515633 0.48001718521118 0.00021961884340271
0.44008070230484 0.48135685920715 0.0013224642025307
0.47501868009567 0.48213386535645 0.003485523397103
0.50641465187073 0.48307991027832 0.0067178276367486
0.53365164995193 0.4846156835556 0.0052936910651624
0.5585760474205 0.48621845245361 0.0042845061980188
0.58120995759964 0.48787915706635 0.003996146377176
0.60061872005463 0.48834025859833 0.0086059095337987
0.6186671257019 0.48894953727722 0.015735575929284
0.63556778430939 0.48964673280716 0.02507939375937
0.65145182609558 0.49042016267776 0.0365618057549
0.66643130779266 0.4912588596344 0.049354434013367
0.68032670021057 0.49233108758926 0.058723837137222
0.69314169883728 0.49367773532867 0.063793666660786
0.70533132553101 0.49504405260086 0.068882659077644
0.71650117635727 0.49601703882217 0.077944226562977
0.72683936357498 0.49671947956085 0.089745424687862
0.73673796653748 0.49746155738831 0.10125844925642
0.74621558189392 0.49823933839798 0.11248757690191
0.7553174495697 0.49904853105545 0.12344989925623
0.76407361030579 0.49988603591919 0.13415530323982
0.7725088596344 0.500747859478 0.14462065696716
0.78063583374023 0.50163322687149 0.15485441684723
0.78844112157822 0.50246351957321 0.16594406962395
0.79560953378677 0.50377690792084 0.1737734079361
0.80242651700974 0.50512582063675 0.18067568540573
0.80901461839676 0.50636303424835 0.18764442205429
0.81539362668991 0.50760585069656 0.19446954131126
0.8215754032135 0.508853495121 0.20115283131599
0.17172300815582 0.50588476657867 0.0009012229857035
0.24814429879189 0.5067343711853 0.0013218086678535
0.32038471102715 0.50695288181305 9.7493619250599e-05
0.37432432174683 0.50783282518387 0
0.4097366631031 0.50931614637375 2.7077085178462e-05
0.44602918624878 0.50982731580734 0.00051372719462961
0.47913789749146 0.51038378477097 0.0017620556754991
0.50907200574875 0.51109457015991 0.0038313344120979
0.53635919094086 0.51195311546326 0.0075883269309998
0.56027209758759 0.51334762573242 0.0083546964451671
0.58174300193787 0.51383036375046 0.012075168080628
0.60129004716873 0.51383447647095 0.018813790753484
0.61890149116516 0.51419061422348 0.028379205614328
0.63531929254532 0.51467388868332 0.040138475596905
0.65078222751617 0.51523154973984 0.052524611353874
0.66539365053177 0.51585417985916 0.064518064260483
0.67923957109451 0.51653373241425 0.076139219105244
0.69239354133606 0.51726371049881 0.087407059967518
0.7047136425972 0.51802623271942 0.097904466092587
0.71535283327103 0.51837885379791 0.10742930322886
0.72553443908691 0.51875597238541 0.11635158210993
0.73529374599457 0.51917654275894 0.12503734230995
0.74465048313141 0.51963621377945 0.13349965214729
0.75364637374878 0.52012836933136 0.14175242185593
0.76231163740158 0.52065086364746 0.149803429842
0.77049922943115 0.52131778001785 0.15806141495705
0.77799212932587 0.52229833602905 0.16713410615921
0.78522604703903 0.52329367399216 0.17599925398827
0.79221546649933 0.52430194616318 0.1846607029438
0.79897451400757 0.52532172203064 0.19312825798988
0.80551785230637 0.52635282278061 0.20132729411125
0.81185835599899 0.52741718292236 0.20781803131104
0.81767326593399 0.52847760915756 0.21471059322357
0.18493157625198 0.53319007158279 0.0033745861146599
0.26037722826004 0.53328973054886 0.0016009588725865
0.32663479447365 0.53341567516327 0.00021895779354963
0.38198059797287 0.53390949964523 0
0.41755685210228 0.53481554985046 0
0.45242404937744 0.53504639863968 0.00015828182222322
0.48383551836014 0.5354899764061 0.0015186611562967
0.51237791776657 0.53607869148254 0.0047341943718493
0.53846645355225 0.53676146268845 0.010095869190991
0.56237798929214 0.53733015060425 0.017636753618717
0.582648396492 0.53703820705414 0.024739500135183
0.60152870416641 0.53688663244247 0.033086594194174
0.61919456720352 0.53685665130615 0.042564816772938
0.63547545671463 0.53703939914703 0.052893720567226
0.65047240257263 0.53743278980255 0.063800521194935
0.66466671228409 0.53788846731186 0.074367322027683
0.67813813686371 0.53840047121048 0.08461607247591
0.69095373153687 0.53896254301071 0.094565115869045
0.7029150724411 0.53869920969009 0.10466542094946
0.71421068906784 0.53807508945465 0.11469543725252
0.72502076625824 0.53753858804703 0.12444078177214
0.73463064432144 0.53779762983322 0.13268819451332
0.74383199214935 0.53811711072922 0.14070245623589
0.75223553180695 0.53879475593567 0.14965483546257
0.76021373271942 0.53957998752594 0.15868905186653
0.76789766550064 0.54038643836975 0.16752168536186
0.77531331777573 0.5412113070488 0.17616105079651
0.78247648477554 0.54205268621445 0.18460941314697
0.7894024848938 0.54290890693665 0.19287568330765
0.79610514640808 0.54377865791321 0.20096889138222
0.80259680747986 0.54466021060944 0.20890364050865
0.80888986587524 0.54555261135101 0.21666640043259
0.81416475772858 0.54642724990845 0.22559437155724
0.19869220256805 0.55700945854187 0.0057014585472643
0.27120053768158 0.55654209852219 0.0018537944415584
0.33217832446098 0.55646240711212 0.00036587758222595
0.38573789596558 0.55663692951202 8.2601742178667e-05
0.42431405186653 0.55673122406006 0.00071778008714318
0.45659124851227 0.55688220262527 0.0029368447139859
0.48619794845581 0.55708569288254 0.0077318530529737
0.51320397853851 0.55741965770721 0.01506884675473
0.53801476955414 0.55786180496216 0.024998087435961
0.56155401468277 0.55793553590775 0.031513933092356
0.58367526531219 0.55793064832687 0.036343328654766
0.60198128223419 0.55766129493713 0.045492388308048
0.61914551258087 0.5575065612793 0.054535739123821
0.63529950380325 0.55745297670364 0.063398703932762
0.65051490068436 0.5575025677681 0.072173036634922
0.66436451673508 0.5578288435936 0.08212523907423
0.67752927541733 0.55820977687836 0.091798432171345
0.68999022245407 0.55836653709412 0.10134407132864
0.70158034563065 0.55754339694977 0.11114846915007
0.71266239881516 0.55681437253952 0.12068594247103
0.72310429811478 0.55629563331604 0.13040062785149
0.7327316403389 0.55613362789154 0.1408434510231
0.74197089672089 0.55603420734406 0.15102940797806
0.75033122301102 0.55648922920227 0.16011029481888
0.75820249319077 0.55714350938797 0.16870483756065
0.7657955288887 0.55781984329224 0.17711758613586
0.77312850952148 0.55851578712463 0.18535214662552
0.78021639585495 0.55922949314117 0.19341629743576
0.78707301616669 0.55995959043503 0.20131659507751
0.79371279478073 0.56070411205292 0.20906853675842
0.8001474738121 0.56146240234375 0.21665799617767
0.80597174167633 0.56221890449524 0.22476568818092
0.81112802028656 0.56297051906586 0.23350393772125
0.2135988175869 0.57708191871643 0.0057009537704289
0.28241714835167 0.57657963037491 0.0044506313279271
0.34154331684113 0.57640540599823 0.0040619880892336
0.3910174369812 0.576247215271 0.004765163641423
0.42994070053101 0.57620084285736 0.0074431169778109
0.46025139093399 0.57635879516602 0.012439728714526
0.48851662874222 0.57647633552551 0.021330203860998
0.51440519094467 0.57671344280243 0.032705001533031
0.53849869966507 0.57688647508621 0.043845154345036
0.56147259473801 0.57667505741119 0.048309527337551
0.58289307355881 0.57657647132874 0.052960559725761
0.60293740034103 0.57657617330551 0.057750009000301
0.61962252855301 0.57632660865784 0.066131003201008
0.63535416126251 0.57617294788361 0.074371390044689
0.65023773908615 0.5761045217514 0.08246210962534
0.66435879468918 0.57611173391342 0.090405620634556
0.67741620540619 0.57631868124008 0.099104978144169
0.68939995765686 0.57565385103226 0.10852055996656
0.70029276609421 0.57508450746536 0.1190063431859
0.71060699224472 0.57467222213745 0.12948009371758
0.72048556804657 0.57433497905731 0.13969570398331
0.72996604442596 0.57406538724899 0.1496673822403
0.73908114433289 0.57385760545731 0.15940153598785
0.74784809350967 0.57370632886887 0.16890954971313
0.75629353523254 0.57360827922821 0.1782024204731
0.76410961151123 0.57387524843216 0.18673837184906
0.77135556936264 0.57446271181107 0.1946005821228
0.77836400270462 0.5750692486763 0.20230862498283
0.78514784574509 0.5756927728653 0.20987594127655
0.79172092676163 0.5763321518898 0.21729236841202
0.79809391498566 0.57698565721512 0.22457364201546
0.80336737632751 0.57762217521667 0.23317179083824
0.80848568677902 0.57827174663544 0.24160957336426
0.23326504230499 0.59525698423386 0.018255965784192
0.29692113399506 0.59477871656418 0.016272069886327
0.35190698504448 0.5945645570755 0.015524534508586
0.39631608128548 0.59414023160934 0.018351597711444
0.43532252311707 0.59396010637283 0.022144239395857
0.46450144052505 0.5940967798233 0.030199138447642
0.49124258756638 0.59421724081039 0.041678987443447
0.51609802246094 0.59437775611877 0.054966703057289
0.53978496789932 0.59411603212357 0.060610882937908
0.5619832277298 0.5938383936882 0.064545810222626
0.58273732662201 0.59366703033447 0.068672358989716
0.60219997167587 0.59358841180801 0.072951979935169
0.62051528692245 0.59359169006348 0.077348880469799
0.63584464788437 0.59335905313492 0.085035614669323
0.65036982297897 0.59320771694183 0.092608250677586
0.66414356231689 0.59314519166946 0.10023275762796
0.67680078744888 0.59300237894058 0.10880365222692
0.68792062997818 0.59246051311493 0.11901075392962
0.69850957393646 0.59188479185104 0.12924921512604
0.7086443901062 0.59138858318329 0.13924345374107
0.71836119890213 0.59096539020538 0.14900401234627
0.72769576311111 0.59060895442963 0.15853822231293
0.73668563365936 0.59031170606613 0.16785714030266
0.74532639980316 0.59007257223129 0.17696914076805
0.75366413593292 0.58988445997238 0.18587806820869
0.76171636581421 0.58974421024323 0.19459667801857
0.7694998383522 0.58964788913727 0.20313164591789
0.7768549323082 0.58975833654404 0.21121281385422
0.78356319665909 0.59029138088226 0.21845802664757
0.79006624221802 0.59084123373032 0.22557643055916
0.79587638378143 0.5913895368576 0.23336687684059
0.80110186338425 0.59193843603134 0.24167782068253
0.8061791062355 0.59250086545944 0.2498240172863
0.25152122974396 0.61196541786194 0.038403879851103
0.31060910224915 0.61151230335236 0.035483650863171
0.35978764295578 0.61103481054306 0.036825068295002
0.40174013376236 0.61059957742691 0.04094772785902
0.4393835067749 0.61035794019699 0.045545823872089
0.46894800662994 0.61042374372482 0.053989723324776
0.49426817893982 0.61056035757065 0.063811399042606
0.51846504211426 0.61043697595596 0.073109529912472
0.54148435592651 0.60999369621277 0.076343514025211
0.56296026706696 0.60966455936432 0.079826213419437
0.58308058977127 0.60943573713303 0.083508677780628
0.60198867321014 0.60929489135742 0.087351001799107
0.61981737613678 0.60923212766647 0.091318391263485
0.63661122322083 0.60927939414978 0.095826961100101
0.65070933103561 0.60911041498184 0.10345158725977
0.6641206741333 0.60900980234146 0.11096381396055
0.67577427625656 0.60846811532974 0.12039680033922
0.68669074773788 0.60790944099426 0.13000357151031
0.69713222980499 0.60742551088333 0.13940039277077
0.70709520578384 0.60687959194183 0.14891275763512
0.7166513800621 0.60638666152954 0.15825039148331
0.72584241628647 0.60595804452896 0.1673820912838
0.73469561338425 0.6055890917778 0.17631661891937
0.74321871995926 0.6052759885788 0.18505716323853
0.75144642591476 0.6050129532814 0.19361472129822
0.75939816236496 0.60479706525803 0.20199775695801
0.76708853244781 0.60462552309036 0.210220515728
0.77453291416168 0.6044944524765 0.21827521920204
0.78174549341202 0.60440146923065 0.22617948055267
0.7886198759079 0.60435497760773 0.23413500189781
0.79395872354507 0.60467046499252 0.24318635463715
0.7991446852684 0.60500204563141 0.25208562612534
0.80418461561203 0.60534805059433 0.26083478331566
0.26841598749161 0.62743049860001 0.061449460685253
0.32295578718185 0.6269366145134 0.059269748628139
0.36746716499329 0.62627977132797 0.062522359192371
0.40722599625587 0.62583911418915 0.066306509077549
0.44310554862022 0.62557339668274 0.070484198629856
0.47348779439926 0.62555706501007 0.076897732913494
0.49769735336304 0.62566733360291 0.085618920624256
0.52128291130066 0.62519139051437 0.088300652801991
0.54351145029068 0.62471628189087 0.091152392327785
0.56430387496948 0.62434792518616 0.094253219664097
0.58379340171814 0.6240918636322 0.097742475569248
0.60208868980408 0.62395054101944 0.10173229128122
0.61936914920807 0.62388205528259 0.10583969205618
0.63574159145355 0.62387800216675 0.11003833264112
0.65129601955414 0.62393164634705 0.11430672556162
0.66389083862305 0.62353962659836 0.12233156710863
0.67508977651596 0.62285214662552 0.13169339299202
0.68579453229904 0.62224364280701 0.14085519313812
